P3
181 181
255
174 76 80 174 76 80 174 76 80 174 75 80 174 75 80 174 75 80 174 75 80 174 75 80 174 75 80 174 75 80 174 75 80 174 75 80 174 75 80 174 75 80 174 75 80 174 75 80 174 75 80 174 75 80 174 75 80 174 75 80 174 75 80 174 75 80 174 75 80 174 75 80 175 75 79 175 75 79 175 75 79 174 75 80 174 75 80 174 75 80 174 75 80 174 75 80 174 75 80 174 75 80 174 76 80 174 76 80 174 76 80 174 76 80 174 75 80 174 75 80 174 75 80 174 75 80 175 75 79 175 74 79 175 74 79 175 74 79 176 74 78 176 74 78 176 74 78 176 74 78 176 74 78 175 74 79 175 74 79 175 75 79 175 75 79 174 75 80 174 75 80 174 75 80 174 76 80 174 76 80 173 76 81 173 76 81 173 76 81 174 76 80 174 76 80 174 76 80 174 76 80 174 76 80 174 76 80 174 76 80 174 76 80 174 76 80 174 76 80 174 76 80 174 76 80 174 76 80 174 76 80 174 76 80 174 76 80 174 76 80 174 76 80 174 76 80 174 76 80 174 76 80 174 76 80 174 76 80 174 76 80 174 75 80 174 75 80 174 75 80 174 75 80 174 75 80 175 75 79 175 74 79 175 74 79 175 74 79 175 74 79 175 74 79 175 74 79 175 74 79 175 74 79 175 74 79 175 75 79 174 75 80 174 75 80 174 75 80 174 76 80 174 76 80 173 76 81 173 76 81 173 76 81 174 76 80 174 76 80 174 75 80 174 75 80 174 75 80 174 75 80 174 75 80 174 75 80 174 75 80 174 75 80 174 75 80 174 76 80 174 76 80 173 76 81 173 76 81 173 76 81 173 76 81 173 76 81 174 76 80 174 76 80 174 76 80 174 75 80 174 75 80 174 75 80 174 75 80 174 75 80 174 75 80 174 75 80 174 75 80 174 75 80 174 75 80 174 75 80 174 75 80 174 76 80 174 76 80 174 76 80 174 76 80 174 75 80 174 75 80 174 75 80 174 75 80 174 75 80 174 75 80 174 75 80 174 75 80 174 75 80 174 75 80 174 75 80 174 75 80 174 75 80 174 75 80 174 75 80 174 75 80 174 75 80 174 75 80 174 75 80 174 75 80 174 75 80 174 75 80 174 75 80 174 75 80 174 75 80 174 75 80 174 75 80 174 75 80 174 75 80 174 75 80 174 75 80 174 75 80 174 75 80 
174 76 80 174 76 80 174 76 80 174 76 80 174 76 80 174 76 80 174 75 80 174 75 80 174 75 80 174 75 80 174 75 80 174 75 80 174 75 80 174 75 80 174 75 80 174 75 80 174 75 80 174 75 80 174 75 80 174 75 80 174 75 80 174 75 80 174 75 80 174 75 80 174 75 80 174 75 80 174 75 80 174 75 80 174 75 80 174 75 80 174 75 80 174 75 80 174 75 80 174 75 80 174 76 80 174 76 80 174 76 80 174 76 80 174 75 80 174 75 80 174 75 80 175 75 79 175 75 79 175 74 79 175 74 79 176 74 78 176 74 78 176 74 78 176 74 78 176 74 78 176 74 78 175 74 79 175 74 79 175 75 79 174 75 80 174 75 80 174 75 80 174 76 80 174 76 80 173 76 81 173 76 81 173 76 81 173 76 81 174 76 80 174 76 80 174 76 80 174 76 80 174 75 80 174 75 80 174 75 80 174 76 80 174 76 80 174 76 80 174 76 80 174 76 80 174 76 80 174 76 80 174 76 80 174 76 80 174 76 80 174 76 80 174 76 80 174 76 80 174 76 80 174 76 80 174 76 80 174 76 80 174 76 80 174 76 80 174 75 80 174 75 80 174 75 80 174 75 80 175 75 79 175 75 79 175 74 79 175 74 79 175 74 79 175 74 79 175 74 79 175 75 79 175 75 79 174 75 80 174 75 80 174 75 80 174 76 80 173 76 81 173 76 81 173 76 81 173 76 81 173 76 81 174 76 80 174 76 80 174 75 80 174 75 80 174 75 80 174 75 80 174 75 80 174 75 80 174 75 80 174 75 80 174 75 80 174 76 80 174 76 80 173 76 81 173 76 81 173 76 81 173 76 81 173 76 81 173 76 81 174 76 80 174 76 80 174 75 80 174 75 80 174 75 80 174 75 80 174 75 80 174 75 80 174 75 80 174 75 80 174 75 80 174 75 80 174 75 80 174 75 80 174 76 80 174 76 80 174 76 80 174 76 80 174 75 80 174 75 80 174 75 80 174 75 80 174 75 80 174 75 80 174 75 80 174 75 80 174 75 80 174 75 80 174 75 80 174 75 80 174 75 80 174 75 80 174 75 80 174 75 80 174 75 80 174 75 80 174 75 80 174 75 80 174 75 80 174 75 80 174 75 80 174 75 80 174 75 80 174 75 80 174 75 80 174 75 80 174 75 80 174 75 80 174 75 80 174 75 80 174 75 80 
174 76 80 174 76 80 174 76 80 174 76 80 174 76 80 174 76 80 174 76 80 174 75 80 174 75 80 174 75 80 174 75 80 174 75 80 174 75 80 174 75 80 174 75 80 174 75 80 174 75 80 174 75 80 174 75 80 174 75 80 174 75 80 174 75 80 174 75 80 174 75 80 174 75 80 174 75 80 174 75 80 174 75 80 174 75 80 174 75 80 174 75 80 174 75 80 174 75 80 174 75 80 174 76 80 174 76 80 174 76 80 174 75 80 174 75 80 174 75 80 174 75 80 175 75 79 175 74 79 175 74 79 175 74 79 176 74 78 176 74 78 176 74 78 176 74 78 176 74 78 175 74 79 175 74 79 175 74 79 175 75 79 174 75 80 174 75 80 174 76 80 174 76 80 173 76 81 173 76 81 173 76 81 173 76 81 174 76 80 174 76 80 174 76 80 174 75 80 174 75 80 174 75 80 174 75 80 174 75 80 174 75 80 174 76 80 174 76 80 174 76 80 174 76 80 173 76 81 173 76 81 173 76 81 174 76 80 174 76 80 174 76 80 174 76 80 174 76 80 174 76 80 174 76 80 174 76 80 174 76 80 174 76 80 174 76 80 174 76 80 174 75 80 174 75 80 174 75 80 174 75 80 174 75 80 175 75 79 175 75 79 175 75 79 175 75 79 175 75 79 174 75 80 174 75 80 174 75 80 174 76 80 174 76 80 173 76 81 173 76 81 173 76 81 173 76 81 173 76 81 173 76 81 173 76 81 174 76 80 174 75 80 174 75 80 174 75 80 174 75 80 174 75 80 174 75 80 174 75 80 174 75 80 174 75 80 174 75 80 174 76 80 174 76 80 173 76 81 173 76 81 173 76 81 173 76 81 173 76 81 174 76 80 174 76 80 174 76 80 174 75 80 174 75 80 174 75 80 174 75 80 174 75 80 174 75 80 174 75 80 174 75 80 174 75 80 174 75 80 174 75 80 174 75 80 174 76 80 174 76 80 174 76 80 174 76 80 174 75 80 174 75 80 174 75 80 174 75 80 174 75 80 174 75 80 174 75 80 174 75 80 174 75 80 174 75 80 174 75 80 174 75 80 174 75 80 174 75 80 174 75 80 174 75 80 174 75 80 174 75 80 174 75 80 174 75 80 174 75 80 174 75 80 174 75 80 174 75 80 174 75 80 174 75 80 174 75 80 174 75 80 174 75 80 174 75 80 174 75 80 174 75 80 
174 76 80 174 76 80 174 76 80 174 76 80 174 76 80 174 76 80 174 76 80 174 75 80 174 75 80 174 75 80 174 75 80 174 75 80 174 75 80 174 75 80 174 75 80 174 75 80 174 75 80 174 75 80 174 75 80 174 75 80 174 75 80 174 75 80 174 75 80 174 75 80 174 75 80 174 75 80 174 75 80 174 75 80 174 75 80 174 75 80 174 75 80 174 75 80 174 75 80 174 75 80 174 76 80 174 76 80 174 76 80 174 75 80 174 75 80 174 75 80 174 75 80 175 75 79 175 74 79 175 74 79 175 74 79 176 74 78 176 74 78 176 74 78 176 74 78 176 74 78 175 74 79 175 74 79 175 75 79 174 75 80 174 75 80 174 75 80 174 76 80 173 76 81 173 76 81 173 76 81 173 76 81 174 76 80 174 76 80 174 75 80 174 75 80 174 75 80 174 75 80 174 75 80 174 75 80 174 75 80 174 75 80 174 75 80 174 76 80 174 76 80 173 76 81 173 76 81 173 76 81 173 76 81 173 76 81 174 76 80 174 76 80 174 76 80 174 76 80 174 76 80 174 76 80 174 76 80 174 76 80 174 76 80 174 76 80 174 76 80 174 76 80 174 76 80 174 75 80 174 75 80 174 75 80 174 75 80 174 75 80 174 75 80 174 75 80 174 75 80 174 75 80 174 75 80 174 76 80 173 76 81 173 76 81 173 76 81 173 76 81 173 76 81 173 76 81 173 76 81 173 76 81 173 76 81 174 76 80 174 75 80 174 75 80 174 75 80 174 75 80 174 75 80 174 75 80 174 75 80 174 75 80 174 75 80 174 75 80 174 76 80 174 76 80 173 76 81 173 76 81 173 76 81 173 76 81 173 76 81 174 76 80 174 76 80 174 76 80 174 75 80 174 75 80 174 75 80 174 75 80 174 75 80 174 75 80 174 75 80 174 75 80 174 75 80 174 75 80 174 75 80 174 75 80 174 75 80 174 76 80 174 76 80 174 76 80 174 75 80 174 75 80 174 75 80 174 75 80 174 75 80 174 75 80 174 75 80 174 75 80 174 75 80 174 75 80 174 75 80 174 75 80 174 75 80 174 75 80 174 75 80 174 75 80 174 75 80 174 75 80 174 75 80 174 75 80 174 75 80 174 75 80 174 75 80 174 75 80 174 75 80 174 75 80 174 75 80 174 75 80 174 75 80 174 75 80 174 75 80 174 75 80 
174 76 80 174 76 80 174 76 80 174 76 80 174 76 80 174 76 80 174 76 80 174 75 80 174 75 80 174 75 80 174 75 80 174 75 80 174 75 80 174 75 80 174 75 80 174 75 80 174 75 80 174 75 80 174 75 80 174 75 80 174 75 80 174 75 80 174 75 80 174 75 80 174 75 80 174 75 80 174 75 80 174 75 80 174 75 80 174 75 80 174 75 80 174 75 80 174 75 80 174 75 80 174 76 80 174 76 80 174 75 80 174 75 80 174 75 80 174 75 80 174 75 80 175 75 79 175 74 79 175 74 79 175 74 79 175 74 79 176 74 78 176 74 78 175 74 79 175 74 79 175 74 79 175 74 79 175 75 79 174 75 80 174 75 80 174 76 80 174 76 80 173 76 81 173 76 81 173 76 81 174 76 80 174 76 80 174 75 80 174 75 80 174 75 80 174 75 80 174 75 80 174 75 80 174 75 80 174 75 80 174 75 80 174 75 80 174 76 80 174 76 80 173 76 81 173 76 81 173 76 81 173 76 81 173 76 81 173 76 81 174 76 80 174 76 80 174 76 80 174 76 80 174 76 80 174 76 80 174 76 80 174 76 80 174 76 80 174 76 80 173 76 81 174 76 80 174 76 80 174 76 80 174 76 80 174 75 80 174 75 80 174 75 80 174 75 80 174 75 80 174 76 80 174 76 80 173 76 81 173 76 81 173 76 81 173 76 81 173 76 81 173 76 81 173 76 81 173 76 81 173 76 81 173 76 81 174 76 80 174 75 80 174 75 80 174 75 80 174 75 80 175 75 79 175 75 79 174 75 80 174 75 80 174 75 80 174 75 80 174 75 80 174 76 80 173 76 81 173 76 81 173 76 81 173 76 81 173 76 81 174 76 80 174 76 80 174 76 80 174 75 80 174 75 80 174 75 80 174 75 80 174 75 80 174 75 80 174 75 80 174 75 80 174 75 80 174 75 80 174 75 80 174 75 80 174 75 80 174 76 80 174 76 80 174 76 80 174 75 80 174 75 80 174 75 80 174 75 80 174 75 80 174 75 80 174 75 80 174 75 80 174 75 80 174 75 80 174 75 80 174 75 80 174 75 80 174 75 80 174 75 80 174 75 80 174 75 80 174 75 80 174 75 80 174 75 80 174 75 80 174 75 80 174 75 80 174 75 80 174 75 80 174 75 80 174 75 80 174 75 80 174 75 80 174 75 80 174 75 80 174 75 80 
174 76 80 174 76 80 174 76 80 174 76 80 174 76 80 174 76 80 174 76 80 174 75 80 174 75 80 174 75 80 174 75 80 174 75 80 174 75 80 174 75 80 174 75 80 174 75 80 174 75 80 174 75 80 174 75 80 174 75 80 174 75 80 174 75 80 174 75 80 174 75 80 174 75 80 174 75 80 174 75 80 174 75 80 174 75 80 174 75 80 174 75 80 174 75 80 174 75 80 174 75 80 174 75 80 174 75 80 174 75 80 174 75 80 174 75 80 174 75 80 174 75 80 175 75 79 175 75 79 175 74 79 175 74 79 175 74 79 175 74 79 175 74 79 175 74 79 175 74 79 175 74 79 175 75 79 174 75 80 174 75 80 174 75 80 174 76 80 173 76 81 173 76 81 173 76 81 174 76 80 174 76 80 174 75 80 174 75 80 174 75 80 175 75 79 175 75 79 175 75 79 175 75 79 175 75 79 174 75 80 174 75 80 174 75 80 174 75 80 174 76 80 173 76 81 173 76 81 173 76 81 173 76 81 173 76 81 173 76 81 174 76 80 174 76 80 174 75 80 174 75 80 174 75 80 174 75 80 174 75 80 174 76 80 174 76 80 174 76 80 173 76 81 173 76 81 173 76 81 173 76 81 173 76 81 174 76 80 174 76 80 174 76 80 174 76 80 174 76 80 173 76 81 173 76 81 173 76 81 173 76 81 173 76 81 173 76 81 173 76 81 173 76 81 173 76 81 173 76 81 173 76 81 174 76 80 174 75 80 174 75 80 174 75 80 174 75 80 175 75 79 175 75 79 175 75 79 175 75 79 174 75 80 174 75 80 174 75 80 174 75 80 174 76 80 174 76 80 173 76 81 173 76 81 173 76 81 173 76 81 174 76 80 174 76 80 174 75 80 174 75 80 174 75 80 174 75 80 174 75 80 174 75 80 174 75 80 174 75 80 174 75 80 174 75 80 174 75 80 174 75 80 174 75 80 174 75 80 174 75 80 174 76 80 174 76 80 174 75 80 174 75 80 174 75 80 174 75 80 174 75 80 174 75 80 174 75 80 174 75 80 174 75 80 174 75 80 174 75 80 174 75 80 174 75 80 174 75 80 174 75 80 174 75 80 174 75 80 174 75 80 174 75 80 174 75 80 174 75 80 174 75 80 174 75 80 174 75 80 174 75 80 174 75 80 174 75 80 174 75 80 174 75 80 174 75 80 174 75 80 174 75 80 
174 76 80 174 76 80 174 76 80 174 76 80 174 76 80 174 76 80 174 76 80 174 75 80 174 75 80 174 75 80 174 75 80 174 75 80 174 75 80 174 75 80 174 75 80 174 75 80 174 75 80 174 75 80 174 75 80 174 75 80 174 75 80 174 75 80 174 75 80 174 75 80 174 75 80 174 75 80 174 75 80 174 75 80 174 75 80 174 75 80 174 75 80 174 75 80 174 75 80 174 75 80 174 75 80 174 75 80 174 75 80 174 75 80 174 75 80 174 75 80 174 75 80 175 75 79 175 75 79 175 74 79 175 74 79 175 74 79 175 74 79 175 74 79 175 74 79 175 75 79 175 75 79 174 75 80 174 75 80 174 75 80 174 76 80 174 76 80 173 76 81 173 76 81 174 76 80 174 76 80 174 75 80 174 75 80 174 75 80 175 75 79 175 74 79 175 74 79 175 74 79 175 74 79 175 74 79 175 75 79 175 75 79 174 75 80 174 75 80 174 76 80 174 76 80 173 76 81 173 76 81 173 76 81 173 76 81 174 76 80 174 76 80 174 75 80 174 75 80 174 75 80 174 75 80 174 75 80 174 75 80 174 75 80 174 75 80 174 76 80 174 76 80 173 76 81 173 76 81 173 76 81 173 76 81 173 76 81 173 76 81 173 76 81 173 76 81 173 76 81 173 76 81 173 76 81 173 76 81 173 76 81 173 76 81 173 76 81 173 76 81 173 76 81 173 76 81 173 76 81 173 76 81 174 76 80 174 75 80 174 75 80 174 75 80 174 75 80 175 75 79 175 75 79 175 75 79 175 75 79 174 75 80 174 75 80 174 75 80 174 75 80 174 75 80 174 76 80 174 76 80 173 76 81 173 76 81 174 76 80 174 76 80 174 76 80 174 75 80 174 75 80 174 75 80 174 75 80 174 75 80 174 75 80 174 75 80 174 75 80 174 75 80 174 75 80 174 75 80 174 75 80 174 75 80 174 75 80 174 75 80 174 76 80 174 76 80 174 75 80 174 75 80 174 75 80 174 75 80 174 75 80 174 75 80 174 75 80 174 75 80 174 75 80 174 75 80 174 75 80 174 75 80 174 75 80 174 75 80 174 75 80 174 75 80 174 75 80 174 75 80 174 75 80 174 75 80 174 75 80 174 75 80 174 75 80 174 75 80 174 75 80 174 75 80 174 75 80 174 75 80 174 75 80 174 75 80 174 75 80 174 75 80 
174 76 80 174 76 80 174 76 80 174 76 80 174 76 80 174 76 80 174 76 80 174 75 80 174 75 80 174 75 80 174 75 80 174 75 80 174 75 80 174 75 80 174 75 80 174 75 80 174 75 80 174 75 80 174 75 80 174 75 80 174 75 80 174 75 80 174 75 80 174 75 80 174 75 80 174 75 80 174 75 80 174 75 80 174 75 80 174 75 80 174 75 80 174 75 80 174 75 80 174 75 80 174 75 80 174 75 80 174 75 80 174 75 80 174 75 80 174 75 80 174 75 80 174 75 80 175 75 79 175 75 79 175 75 79 175 74 79 175 74 79 175 75 79 175 75 79 175 75 79 174 75 80 174 75 80 174 75 80 174 76 80 174 76 80 173 76 81 173 76 81 174 76 80 174 76 80 174 75 80 174 75 80 175 75 79 175 74 79 175 74 79 175 74 79 175 74 79 176 74 78 175 74 79 175 74 79 175 74 79 175 75 79 174 75 80 174 75 80 174 75 80 174 76 80 173 76 81 173 76 81 173 76 81 173 76 81 174 76 80 174 76 80 174 75 80 174 75 80 174 75 80 174 75 80 174 75 80 174 75 80 174 75 80 174 75 80 174 75 80 174 76 80 174 76 80 173 76 81 173 76 81 173 76 81 173 76 81 173 76 81 173 76 81 173 76 81 173 76 81 173 76 81 173 76 81 173 76 81 173 76 81 173 76 81 173 76 81 173 76 81 173 76 81 173 76 81 173 76 81 173 76 81 174 76 80 174 75 80 174 75 80 174 75 80 174 75 80 175 75 79 175 75 79 175 75 79 175 75 79 174 75 80 174 75 80 174 75 80 174 75 80 174 75 80 174 76 80 174 76 80 174 76 80 174 76 80 174 76 80 174 76 80 174 76 80 174 75 80 174 75 80 174 75 80 174 75 80 174 75 80 174 75 80 174 75 80 174 75 80 174 75 80 174 75 80 174 75 80 174 75 80 174 75 80 174 75 80 174 75 80 174 75 80 174 76 80 174 75 80 174 75 80 174 75 80 174 75 80 174 75 80 174 75 80 174 75 80 174 75 80 174 75 80 174 75 80 174 75 80 174 75 80 174 75 80 174 75 80 174 75 80 174 75 80 174 75 80 174 75 80 174 75 80 174 75 80 174 75 80 174 75 80 174 75 80 174 75 80 174 75 80 174 75 80 174 75 80 174 75 80 174 75 80 174 75 80 174 75 80 174 75 80 
174 76 80 174 76 80 174 76 80 174 76 80 174 76 80 174 76 80 174 75 80 174 75 80 174 75 80 174 75 80 174 75 80 174 75 80 174 75 80 174 75 80 174 75 80 174 75 80 174 75 80 174 75 80 174 75 80 174 75 80 174 75 80 174 75 80 174 75 80 174 75 80 174 75 80 174 75 80 174 75 80 174 75 80 174 75 80 174 75 80 174 75 80 174 75 80 174 75 80 174 75 80 174 75 80 174 75 80 174 75 80 174 75 80 174 75 80 174 75 80 174 75 80 174 75 80 174 75 80 175 75 79 175 75 79 175 75 79 175 75 79 175 75 79 174 75 80 174 75 80 174 75 80 174 75 80 174 75 80 174 76 80 174 76 80 174 76 80 174 76 80 174 76 80 174 75 80 174 75 80 175 75 79 175 74 79 175 74 79 175 74 79 176 74 78 176 74 78 176 73 78 176 74 78 176 74 78 175 74 79 175 74 79 175 75 79 174 75 80 174 75 80 174 76 80 173 76 81 173 76 81 173 76 81 173 76 81 174 76 80 174 75 80 174 75 80 174 75 80 174 75 80 174 75 80 175 75 79 174 75 80 174 75 80 174 75 80 174 75 80 174 75 80 174 76 80 174 76 80 173 76 81 173 76 81 173 76 81 173 76 81 173 76 81 174 76 80 174 76 80 174 76 80 174 76 80 173 76 81 173 76 81 173 76 81 173 76 81 173 76 81 173 76 81 173 76 81 173 76 81 174 76 80 174 76 80 174 75 80 174 75 80 174 75 80 174 75 80 175 75 79 175 75 79 175 75 79 175 75 79 174 75 80 174 75 80 174 75 80 174 75 80 174 75 80 174 75 80 174 76 80 174 76 80 174 76 80 174 76 80 174 76 80 174 76 80 174 75 80 174 75 80 174 75 80 174 75 80 174 75 80 174 75 80 174 75 80 174 75 80 174 75 80 174 75 80 174 75 80 174 75 80 174 75 80 174 75 80 174 75 80 174 75 80 174 75 80 174 75 80 174 75 80 174 75 80 174 75 80 174 75 80 174 75 80 174 75 80 174 75 80 174 75 80 174 75 80 174 75 80 174 75 80 174 75 80 174 75 80 174 75 80 174 75 80 174 75 80 174 75 80 174 75 80 174 75 80 174 75 80 174 75 80 174 75 80 174 75 80 174 75 80 174 75 80 174 75 80 174 75 80 174 75 80 174 75 80 174 75 80 174 75 80 
174 76 80 174 76 80 174 76 80 174 76 80 174 76 80 174 76 80 174 75 80 174 75 80 174 75 80 174 75 80 174 75 80 174 75 80 174 75 80 174 75 80 174 75 80 174 75 80 174 75 80 174 75 80 174 75 80 174 75 80 174 75 80 174 75 80 174 75 80 174 75 80 174 75 80 174 75 80 174 75 80 174 75 80 174 75 80 174 75 80 174 75 80 174 75 80 174 75 80 174 75 80 174 75 80 174 75 80 174 75 80 174 75 80 174 75 80 174 75 80 174 75 80 174 75 80 174 75 80 174 75 80 174 75 80 174 75 80 174 75 80 174 75 80 174 75 80 174 75 80 174 75 80 174 75 80 174 76 80 174 76 80 174 76 80 174 76 80 174 76 80 174 75 80 174 75 80 174 75 80 175 75 79 175 74 79 176 74 78 176 74 78 176 73 78 176 73 78 176 73 78 176 73 78 176 73 78 176 74 78 175 74 79 175 74 79 174 75 80 174 75 80 174 75 80 174 76 80 173 76 81 173 76 81 174 76 80 174 76 80 174 75 80 174 75 80 174 75 80 175 75 79 175 75 79 175 75 79 175 75 79 175 75 79 175 75 79 174 75 80 174 75 80 174 75 80 174 75 80 174 76 80 174 76 80 174 76 80 174 76 80 174 76 80 174 76 80 174 75 80 174 75 80 174 75 80 174 75 80 174 75 80 174 76 80 174 76 80 174 76 80 174 76 80 174 76 80 174 76 80 174 76 80 174 75 80 174 75 80 174 75 80 174 75 80 174 75 80 174 75 80 175 75 79 175 75 79 175 75 79 174 75 80 174 75 80 174 75 80 174 75 80 174 75 80 174 75 80 174 76 80 174 76 80 174 76 80 174 76 80 174 76 80 174 75 80 174 75 80 174 75 80 174 75 80 174 75 80 174 75 80 174 75 80 174 75 80 174 75 80 174 75 80 174 75 80 174 75 80 174 75 80 174 75 80 174 75 80 174 75 80 174 75 80 174 75 80 174 75 80 174 75 80 174 75 80 174 75 80 174 75 80 174 75 80 174 75 80 174 75 80 174 75 80 174 75 80 174 75 80 174 75 80 174 76 80 174 76 80 174 76 80 174 76 80 174 76 80 174 75 80 174 75 80 174 75 80 174 75 80 174 75 80 174 75 80 174 75 80 174 75 80 174 75 80 174 75 80 174 75 80 174 75 80 174 75 80 174 75 80 174 75 80 
174 76 80 174 76 80 174 76 80 174 76 80 174 76 80 174 76 80 174 75 80 174 75 80 174 75 80 174 75 80 174 75 80 174 75 80 174 75 80 174 75 80 174 75 80 174 75 80 174 75 80 174 75 80 174 75 80 174 75 80 174 75 80 174 75 80 174 75 80 174 75 80 174 75 80 174 76 80 174 76 80 174 76 80 174 76 80 174 75 80 174 75 80 174 75 80 174 75 80 174 75 80 174 75 80 174 75 80 174 75 80 174 75 80 174 75 80 174 75 80 174 75 80 174 75 80 174 75 80 174 75 80 174 75 80 174 75 80 174 75 80 174 75 80 174 75 80 174 75 80 174 75 80 174 75 80 174 76 80 174 76 80 174 76 80 174 76 80 174 75 80 174 75 80 174 75 80 175 75 79 175 74 79 175 74 79 176 74 78 176 73 78 176 73 78 176 73 78 176 73 78 176 73 78 176 73 78 176 74 78 175 74 79 175 74 79 175 75 79 174 75 80 174 75 80 174 76 80 174 76 80 174 76 80 174 76 80 174 75 80 174 75 80 174 75 80 175 75 79 175 75 79 175 74 79 175 74 79 175 74 79 175 74 79 175 75 79 175 75 79 174 75 80 174 75 80 174 75 80 174 75 80 174 75 80 174 75 80 174 75 80 174 75 80 174 75 80 174 75 80 174 75 80 174 75 80 174 75 80 174 75 80 174 75 80 174 75 80 174 75 80 174 75 80 174 75 80 174 75 80 174 75 80 174 75 80 174 75 80 174 75 80 174 75 80 174 75 80 174 75 80 174 75 80 174 75 80 174 75 80 174 75 80 174 75 80 174 75 80 174 75 80 174 75 80 174 75 80 174 75 80 174 76 80 174 76 80 174 76 80 174 76 80 174 75 80 174 75 80 174 75 80 174 75 80 174 75 80 174 75 80 174 75 80 174 75 80 174 75 80 174 75 80 174 75 80 174 75 80 174 75 80 174 75 80 174 75 80 174 75 80 174 75 80 174 75 80 174 75 80 174 75 80 174 75 80 174 75 80 174 75 80 174 75 80 174 75 80 174 75 80 174 76 80 174 76 80 174 76 80 174 76 80 174 76 80 174 76 80 174 76 80 174 76 80 174 75 80 174 75 80 174 75 80 174 75 80 174 75 80 174 75 80 174 75 80 174 75 80 174 75 80 174 75 80 174 75 80 174 75 80 174 75 80 174 75 80 174 75 80 174 75 80 
174 75 80 174 76 80 174 76 80 174 76 80 174 76 80 174 76 80 174 75 80 174 75 80 174 75 80 174 75 80 174 75 80 174 75 80 174 75 80 174 75 80 174 75 80 174 75 80 174 75 80 174 75 80 174 75 80 174 75 80 174 75 80 174 75 80 174 75 80 174 75 80 174 76 80 174 76 80 174 76 80 174 76 80 174 76 80 174 75 80 174 75 80 174 75 80 174 75 80 174 75 80 174 75 80 174 75 80 174 75 80 174 75 80 174 75 80 174 75 80 174 75 80 174 75 80 174 75 80 174 75 80 174 75 80 174 75 80 174 75 80 174 75 80 174 75 80 174 75 80 174 75 80 174 75 80 174 75 80 174 75 80 174 75 80 174 75 80 174 75 80 174 75 80 175 75 79 175 74 79 175 74 79 176 74 78 176 73 78 176 73 78 176 73 78 177 73 77 177 73 77 176 73 78 176 73 78 176 73 78 176 74 78 175 74 79 175 75 79 174 75 80 174 75 80 174 75 80 174 76 80 174 76 80 174 75 80 174 75 80 174 75 80 174 75 80 175 75 79 175 74 79 175 74 79 175 74 79 175 74 79 175 74 79 175 74 79 175 74 79 175 75 79 174 75 80 174 75 80 174 75 80 174 75 80 174 75 80 174 75 80 174 75 80 174 75 80 174 75 80 175 75 79 175 75 79 175 75 79 175 75 79 175 75 79 174 75 80 174 75 80 174 75 80 174 75 80 174 75 80 174 75 80 174 75 80 174 75 80 174 75 80 174 75 80 174 75 80 174 75 80 174 75 80 174 75 80 174 75 80 174 75 80 174 75 80 174 75 80 174 75 80 174 75 80 174 75 80 174 75 80 174 76 80 174 76 80 174 76 80 174 76 80 174 75 80 174 75 80 174 75 80 174 75 80 174 75 80 174 75 80 174 75 80 174 75 80 174 75 80 174 75 80 174 75 80 174 75 80 174 75 80 174 75 80 174 75 80 174 75 80 174 75 80 174 75 80 174 75 80 174 75 80 174 75 80 174 75 80 174 75 80 174 75 80 174 75 80 174 76 80 174 76 80 174 76 80 174 76 80 174 76 80 174 76 80 174 76 80 174 75 80 174 75 80 174 75 80 174 75 80 174 75 80 174 75 80 174 75 80 174 75 80 174 75 80 174 75 80 174 75 80 174 75 80 174 75 80 174 75 80 174 75 80 174 75 80 174 75 80 174 75 80 
174 75 80 174 76 80 174 76 80 174 76 80 174 76 80 174 76 80 174 75 80 174 75 80 174 75 80 174 75 80 174 75 80 174 75 80 174 75 80 174 75 80 174 75 80 174 75 80 174 75 80 174 75 80 174 75 80 174 75 80 174 75 80 174 75 80 174 75 80 174 75 80 174 76 80 174 76 80 174 76 80 174 76 80 174 76 80 174 75 80 174 75 80 174 75 80 174 75 80 174 75 80 174 75 80 174 75 80 174 75 80 174 75 80 174 75 80 174 75 80 174 75 80 174 75 80 174 75 80 174 75 80 174 75 80 174 75 80 174 75 80 174 75 80 174 75 80 174 75 80 174 75 80 174 75 80 174 75 80 174 75 80 174 75 80 174 75 80 174 75 80 174 75 80 175 75 79 175 74 79 175 74 79 176 74 78 176 73 78 176 73 78 176 73 78 176 73 78 177 73 77 176 73 78 176 73 78 176 73 78 176 74 78 175 74 79 175 74 79 175 75 79 174 75 80 174 75 80 174 75 80 174 75 80 174 75 80 174 75 80 174 75 80 175 75 79 175 74 79 175 74 79 175 74 79 175 74 79 175 74 79 175 74 79 175 74 79 175 74 79 175 74 79 175 75 79 174 75 80 174 75 80 174 75 80 174 75 80 174 75 80 175 75 79 175 75 79 175 74 79 175 74 79 175 74 79 175 74 79 175 74 79 175 74 79 175 74 79 175 75 79 175 75 79 174 75 80 174 75 80 174 75 80 174 75 80 174 75 80 174 75 80 174 75 80 174 75 80 174 75 80 174 75 80 174 75 80 174 75 80 174 75 80 174 75 80 174 75 80 174 75 80 174 75 80 174 75 80 174 75 80 174 76 80 174 76 80 174 76 80 174 76 80 174 75 80 174 75 80 174 75 80 174 75 80 174 75 80 174 75 80 174 75 80 174 75 80 174 75 80 174 75 80 174 75 80 174 75 80 174 75 80 174 75 80 174 75 80 174 75 80 174 75 80 174 75 80 174 75 80 174 75 80 174 75 80 174 75 80 174 75 80 174 75 80 174 75 80 174 75 80 174 75 80 174 75 80 174 75 80 174 75 80 174 75 80 174 75 80 174 75 80 174 75 80 174 75 80 174 75 80 174 75 80 174 75 80 174 75 80 174 75 80 174 75 80 174 75 80 174 75 80 174 75 80 174 76 80 174 76 80 174 76 80 174 75 80 174 75 80 174 75 80 
174 75 80 174 76 80 174 76 80 174 76 80 174 76 80 174 75 80 174 75 80 174 75 80 174 75 80 174 75 80 174 75 80 174 75 80 174 75 80 174 75 80 174 75 80 174 75 80 174 75 80 174 75 80 174 75 80 174 75 80 174 75 80 174 75 80 174 75 80 174 75 80 174 76 80 174 76 80 174 76 80 174 76 80 174 75 80 174 75 80 174 75 80 174 75 80 174 75 80 174 75 80 174 75 80 174 75 80 174 75 80 174 75 80 174 75 80 174 75 80 174 75 80 174 75 80 174 75 80 174 75 80 174 75 80 174 75 80 174 75 80 174 75 80 174 75 80 174 75 80 174 75 80 174 75 80 174 75 80 174 75 80 174 75 80 174 75 80 174 75 80 175 75 79 175 75 79 175 74 79 175 74 79 176 74 78 176 74 78 176 73 78 176 73 78 176 73 78 176 73 78 176 73 78 176 73 78 176 74 78 176 74 78 175 74 79 175 74 79 175 75 79 174 75 80 174 75 80 174 75 80 174 75 80 174 75 80 174 75 80 174 75 80 175 75 79 175 74 79 175 74 79 175 74 79 175 74 79 175 74 79 175 74 79 175 74 79 175 74 79 175 74 79 175 75 79 175 75 79 175 75 79 175 75 79 175 75 79 175 75 79 175 75 79 175 74 79 175 74 79 175 74 79 175 74 79 175 74 79 175 74 79 175 74 79 175 74 79 175 74 79 175 74 79 175 75 79 174 75 80 174 75 80 174 75 80 174 75 80 174 75 80 174 75 80 174 75 80 174 75 80 174 75 80 174 75 80 174 75 80 174 75 80 174 75 80 174 75 80 174 75 80 174 75 80 174 75 80 174 76 80 174 76 80 174 76 80 174 76 80 174 76 80 174 76 80 174 75 80 174 75 80 174 75 80 174 75 80 174 75 80 174 75 80 174 75 80 174 75 80 174 75 80 174 75 80 174 75 80 174 75 80 174 75 80 174 75 80 174 75 80 174 75 80 174 75 80 174 75 80 174 75 80 174 75 80 174 75 80 174 75 80 174 75 80 174 75 80 174 75 80 174 75 80 174 75 80 174 75 80 174 75 80 174 75 80 174 75 80 174 75 80 174 75 80 174 75 80 174 75 80 174 75 80 174 75 80 174 75 80 174 75 80 174 75 80 174 75 80 174 75 80 174 76 80 174 76 80 174 76 80 174 76 80 174 75 80 174 75 80 174 75 80 
174 75 80 174 75 80 174 76 80 174 76 80 174 76 80 174 75 80 174 75 80 174 75 80 174 75 80 174 75 80 174 75 80 174 75 80 174 75 80 174 75 80 174 75 80 174 75 80 174 75 80 174 75 80 174 75 80 174 75 80 174 75 80 174 75 80 174 75 80 174 75 80 174 76 80 174 76 80 174 76 80 174 75 80 174 75 80 174 75 80 174 75 80 174 75 80 174 75 80 174 75 80 174 75 80 174 75 80 174 75 80 174 75 80 174 75 80 174 75 80 174 75 80 174 76 80 174 76 80 174 76 80 174 76 80 174 75 80 174 75 80 174 75 80 174 75 80 174 75 80 174 75 80 174 75 80 174 75 80 174 75 80 174 75 80 175 75 79 175 75 79 175 75 79 175 74 79 175 74 79 175 74 79 175 74 79 176 74 78 176 74 78 176 74 78 176 73 78 176 73 78 176 73 78 176 74 78 176 74 78 175 74 79 175 74 79 175 74 79 175 75 79 174 75 80 174 75 80 174 75 80 174 75 80 174 75 80 174 75 80 175 75 79 175 75 79 175 74 79 175 74 79 175 74 79 175 74 79 175 74 79 175 74 79 175 74 79 175 74 79 175 74 79 175 74 79 175 75 79 175 75 79 175 75 79 175 75 79 175 74 79 175 74 79 175 74 79 175 74 79 176 74 78 176 74 78 176 74 78 176 74 78 176 74 78 175 74 79 175 74 79 175 74 79 175 74 79 175 75 79 174 75 80 174 75 80 174 75 80 174 75 80 174 75 80 174 76 80 174 76 80 174 76 80 174 76 80 174 76 80 174 76 80 174 75 80 174 76 80 174 76 80 174 76 80 174 76 80 174 76 80 174 76 80 174 76 80 174 76 80 174 76 80 174 76 80 174 76 80 174 76 80 174 75 80 174 75 80 174 75 80 174 75 80 174 75 80 174 75 80 174 75 80 174 75 80 174 75 80 174 75 80 174 75 80 174 75 80 174 75 80 174 75 80 174 75 80 174 75 80 174 75 80 174 75 80 174 75 80 174 75 80 174 75 80 174 75 80 174 75 80 174 75 80 174 75 80 174 75 80 174 75 80 174 75 80 174 75 80 174 75 80 174 75 80 174 75 80 174 75 80 174 75 80 174 75 80 174 75 80 174 75 80 174 75 80 174 75 80 174 75 80 174 76 80 174 76 80 174 76 80 174 76 80 174 75 80 174 75 80 174 75 80 
174 75 80 174 75 80 174 75 80 174 76 80 174 75 80 174 75 80 174 75 80 174 75 80 174 75 80 174 75 80 174 75 80 174 75 80 174 75 80 174 75 80 174 75 80 174 75 80 174 75 80 174 75 80 174 75 80 174 75 80 174 75 80 174 75 80 174 75 80 174 75 80 174 75 80 174 76 80 174 75 80 174 75 80 174 75 80 174 75 80 174 75 80 174 75 80 174 75 80 174 75 80 174 75 80 174 75 80 174 75 80 174 75 80 174 75 80 174 75 80 174 76 80 174 76 80 174 76 80 174 76 80 174 76 80 174 75 80 174 75 80 174 75 80 174 75 80 174 75 80 174 75 80 174 75 80 175 75 79 175 75 79 175 75 79 175 75 79 175 75 79 175 75 79 175 74 79 175 74 79 175 74 79 175 74 79 175 74 79 175 74 79 175 74 79 176 74 78 176 74 78 176 74 78 175 74 79 175 74 79 175 74 79 175 74 79 175 74 79 175 75 79 174 75 80 174 75 80 174 75 80 174 75 80 174 75 80 174 75 80 175 75 79 175 75 79 175 74 79 175 74 79 175 74 79 175 74 79 175 74 79 175 74 79 175 74 79 175 74 79 175 74 79 175 74 79 175 75 79 175 75 79 175 75 79 175 75 79 175 74 79 175 74 79 175 74 79 175 74 79 176 74 78 176 74 78 176 74 78 176 74 78 176 74 78 176 74 78 175 74 79 175 74 79 175 74 79 175 75 79 174 75 80 174 75 80 174 75 80 174 75 80 174 76 80 174 76 80 174 76 80 174 76 80 174 76 80 174 76 80 174 76 80 174 76 80 174 76 80 174 76 80 174 76 80 174 76 80 174 76 80 174 76 80 174 76 80 174 76 80 174 76 80 174 76 80 174 76 80 174 76 80 174 76 80 174 76 80 174 75 80 174 75 80 174 75 80 174 75 80 174 75 80 174 75 80 174 75 80 174 75 80 174 75 80 174 75 80 174 75 80 174 75 80 174 75 80 174 75 80 174 75 80 174 75 80 174 75 80 174 75 80 174 75 80 174 75 80 174 75 80 174 75 80 174 75 80 174 75 80 174 75 80 174 75 80 174 75 80 174 75 80 174 75 80 174 75 80 174 75 80 174 75 80 174 75 80 174 75 80 174 75 80 174 75 80 174 75 80 174 75 80 174 76 80 174 76 80 174 76 80 174 75 80 174 75 80 174 75 80 174 75 80 
174 75 80 174 75 80 174 75 80 174 75 80 174 75 80 174 75 80 174 75 80 174 75 80 174 75 80 174 75 80 174 75 80 174 75 80 174 75 80 174 75 80 174 75 80 174 75 80 174 75 80 174 75 80 174 75 80 174 75 80 174 75 80 174 75 80 174 75 80 174 75 80 174 75 80 174 75 80 174 75 80 174 75 80 174 75 80 174 75 80 174 75 80 174 75 80 174 75 80 174 75 80 174 75 80 174 75 80 174 75 80 174 75 80 174 75 80 174 76 80 174 76 80 174 76 80 174 76 80 174 76 80 174 75 80 174 75 80 174 75 80 174 75 80 174 75 80 174 75 80 175 75 79 175 75 79 175 75 79 175 75 79 175 75 79 175 75 79 175 75 79 175 75 79 175 75 79 175 75 79 175 75 79 175 75 79 175 75 79 175 74 79 175 74 79 175 74 79 175 74 79 175 74 79 175 74 79 175 74 79 175 74 79 175 74 79 175 75 79 175 75 79 174 75 80 174 75 80 174 75 80 174 75 80 174 75 80 174 75 80 174 75 80 175 75 79 175 75 79 175 74 79 175 74 79 175 74 79 175 74 79 175 74 79 175 74 79 175 74 79 175 74 79 175 75 79 175 75 79 175 75 79 175 75 79 175 75 79 175 74 79 175 74 79 175 74 79 175 74 79 176 74 78 176 74 78 176 74 78 176 74 78 176 74 78 176 74 78 175 74 79 175 74 79 175 74 79 175 75 79 174 75 80 174 75 80 174 75 80 174 75 80 174 76 80 174 76 80 173 76 81 173 76 81 173 76 81 173 76 81 174 76 80 174 76 80 174 76 80 174 76 80 174 76 80 174 76 80 174 76 80 174 76 80 174 76 80 174 76 80 174 76 80 174 76 80 174 76 80 174 76 80 174 76 80 174 76 80 174 76 80 174 75 80 174 75 80 174 75 80 174 75 80 174 75 80 174 75 80 174 75 80 174 75 80 174 75 80 174 75 80 174 75 80 174 75 80 174 75 80 174 75 80 174 75 80 174 75 80 174 75 80 174 75 80 174 75 80 174 75 80 174 75 80 174 75 80 174 75 80 174 75 80 174 75 80 174 75 80 174 75 80 174 75 80 174 75 80 174 75 80 174 75 80 174 75 80 174 75 80 174 75 80 174 75 80 174 75 80 174 75 80 174 76 80 174 76 80 174 76 80 174 75 80 174 75 80 174 75 80 174 75 80 
174 75 80 174 75 80 174 75 80 174 75 80 174 75 80 174 75 80 174 75 80 174 75 80 174 75 80 174 75 80 174 75 80 174 75 80 174 75 80 174 75 80 174 75 80 174 75 80 174 75 80 174 75 80 174 75 80 174 75 80 174 75 80 174 75 80 174 75 80 174 75 80 174 75 80 174 75 80 174 75 80 174 75 80 174 75 80 174 75 80 174 75 80 174 75 80 174 75 80 174 75 80 174 75 80 174 75 80 174 75 80 174 75 80 174 75 80 174 76 80 174 76 80 174 76 80 174 76 80 174 76 80 174 75 80 174 75 80 174 75 80 174 75 80 174 75 80 175 75 79 175 75 79 175 74 79 175 74 79 175 74 79 175 74 79 175 74 79 175 75 79 175 75 79 175 75 79 174 75 80 174 75 80 174 75 80 174 75 80 174 75 80 174 75 80 174 75 80 175 75 79 175 75 79 175 75 79 175 75 79 175 75 79 175 75 79 175 75 79 175 75 79 174 75 80 174 75 80 174 75 80 174 75 80 174 75 80 174 75 80 174 75 80 175 75 79 175 75 79 175 75 79 175 75 79 175 74 79 175 74 79 175 75 79 175 75 79 175 75 79 175 75 79 175 75 79 174 75 80 174 75 80 174 75 80 175 75 79 175 75 79 175 74 79 175 74 79 175 74 79 175 74 79 175 74 79 176 74 78 176 74 78 176 74 78 175 74 79 175 74 79 175 74 79 175 74 79 175 75 79 174 75 80 174 75 80 174 75 80 174 76 80 174 76 80 174 76 80 173 76 81 173 76 81 173 76 81 173 76 81 173 76 81 173 76 81 173 76 81 173 76 81 173 76 81 173 76 81 173 76 81 173 76 81 173 76 81 173 76 81 173 76 81 174 76 80 174 76 80 174 76 80 174 76 80 174 76 80 174 76 80 174 76 80 174 75 80 174 75 80 174 75 80 174 75 80 174 75 80 174 75 80 174 75 80 174 75 80 174 75 80 174 75 80 174 75 80 174 75 80 174 75 80 174 75 80 174 75 80 174 75 80 174 75 80 174 75 80 174 75 80 174 75 80 174 75 80 174 75 80 174 75 80 174 75 80 174 75 80 174 75 80 174 75 80 174 75 80 174 75 80 174 75 80 174 75 80 174 75 80 174 75 80 174 75 80 174 75 80 174 75 80 174 76 80 174 76 80 174 76 80 174 75 80 174 75 80 174 75 80 174 75 80 
174 75 80 174 75 80 174 75 80 174 75 80 174 75 80 174 75 80 174 75 80 174 75 80 174 75 80 174 75 80 174 75 80 174 75 80 174 75 80 174 75 80 174 75 80 174 75 80 174 75 80 174 75 80 174 75 80 174 75 80 174 75 80 174 75 80 174 75 80 174 75 80 174 75 80 174 75 80 174 75 80 174 75 80 174 75 80 174 75 80 174 75 80 174 75 80 174 75 80 174 75 80 174 75 80 174 75 80 174 75 80 174 75 80 174 75 80 174 76 80 174 76 80 174 76 80 174 76 80 174 75 80 174 75 80 174 75 80 174 75 80 174 75 80 175 75 79 175 75 79 175 74 79 175 74 79 175 74 79 175 74 79 175 74 79 175 74 79 175 75 79 175 75 79 174 75 80 174 75 80 174 75 80 174 75 80 174 75 80 174 75 80 174 75 80 174 75 80 174 75 80 174 75 80 174 75 80 174 75 80 174 75 80 174 75 80 174 75 80 174 75 80 174 75 80 174 75 80 174 75 80 174 75 80 174 75 80 174 75 80 174 75 80 174 75 80 174 75 80 174 75 80 175 75 79 175 75 79 175 75 79 175 75 79 174 75 80 174 75 80 174 75 80 174 75 80 174 75 80 174 75 80 174 75 80 174 75 80 174 75 80 175 75 79 175 75 79 175 75 79 175 74 79 175 74 79 175 74 79 175 74 79 175 74 79 175 74 79 175 74 79 175 74 79 175 75 79 174 75 80 174 75 80 174 75 80 174 75 80 174 76 80 174 76 80 174 76 80 173 76 81 173 76 81 173 76 81 173 76 81 173 76 81 173 76 81 173 76 81 173 76 81 173 76 81 173 76 81 173 76 81 173 76 81 173 76 81 173 76 81 173 76 81 173 76 81 174 76 80 174 76 80 174 76 80 174 76 80 174 76 80 174 76 80 174 76 80 174 75 80 174 75 80 174 75 80 174 75 80 174 75 80 174 75 80 174 75 80 174 75 80 174 75 80 174 75 80 174 75 80 174 75 80 174 75 80 174 75 80 174 75 80 174 75 80 174 75 80 174 75 80 174 75 80 174 75 80 174 75 80 174 75 80 174 75 80 174 75 80 174 75 80 174 75 80 174 75 80 174 75 80 174 75 80 174 75 80 174 75 80 174 75 80 174 75 80 174 75 80 174 75 80 174 76 80 174 76 80 174 76 80 174 75 80 174 75 80 174 75 80 174 75 80 
174 75 80 174 75 80 174 75 80 174 75 80 174 75 80 174 75 80 174 75 80 174 75 80 174 75 80 174 75 80 174 75 80 174 75 80 174 75 80 174 75 80 174 75 80 174 75 80 174 75 80 174 75 80 174 75 80 174 75 80 174 75 80 174 75 80 174 75 80 174 75 80 174 75 80 174 75 80 174 75 80 174 75 80 174 75 80 174 75 80 174 75 80 174 75 80 174 75 80 174 75 80 174 75 80 174 75 80 174 75 80 174 75 80 174 75 80 174 75 80 174 76 80 174 76 80 174 75 80 174 75 80 174 75 80 174 75 80 174 75 80 174 75 80 175 75 79 175 75 79 175 74 79 175 74 79 175 74 79 175 74 79 175 74 79 175 75 79 175 75 79 174 75 80 174 75 80 174 75 80 174 76 80 174 76 80 173 76 81 173 76 81 173 76 81 173 76 81 174 76 80 174 76 80 174 75 80 174 75 80 174 75 80 174 75 80 174 75 80 174 75 80 174 75 80 174 75 80 174 75 80 174 75 80 174 75 80 174 75 80 174 75 80 174 75 80 174 75 80 174 75 80 174 75 80 174 75 80 174 75 80 174 75 80 174 75 80 174 75 80 174 75 80 174 75 80 174 75 80 174 75 80 174 75 80 174 75 80 174 75 80 174 75 80 174 75 80 174 75 80 174 75 80 175 75 79 175 75 79 175 75 79 175 75 79 175 75 79 175 75 79 175 75 79 174 75 80 174 75 80 174 75 80 174 75 80 174 75 80 174 76 80 174 76 80 174 76 80 174 76 80 174 76 80 173 76 81 173 76 81 173 76 81 173 76 81 173 76 81 173 76 81 173 76 81 173 76 81 173 76 81 173 76 81 173 76 81 173 76 81 173 76 81 173 76 81 174 76 80 174 76 80 174 76 80 174 76 80 174 76 80 174 76 80 174 75 80 174 75 80 174 75 80 174 75 80 174 75 80 174 75 80 174 75 80 174 75 80 174 75 80 174 75 80 174 75 80 174 75 80 174 75 80 174 75 80 174 75 80 174 75 80 174 75 80 174 75 80 174 75 80 174 75 80 174 75 80 174 75 80 174 75 80 174 75 80 174 75 80 174 75 80 174 75 80 174 75 80 174 75 80 174 75 80 174 75 80 174 75 80 174 75 80 174 75 80 174 75 80 174 75 80 174 76 80 174 76 80 174 76 80 174 75 80 174 75 80 174 75 80 174 75 80 
174 75 80 174 75 80 174 75 80 174 75 80 174 75 80 174 75 80 174 75 80 174 75 80 174 75 80 174 75 80 174 75 80 174 75 80 174 75 80 174 75 80 174 75 80 174 75 80 174 75 80 174 75 80 174 75 80 174 75 80 174 75 80 174 75 80 174 75 80 174 75 80 174 75 80 174 75 80 174 75 80 174 75 80 174 75 80 174 75 80 174 75 80 174 75 80 174 75 80 174 75 80 174 75 80 174 75 80 174 75 80 174 75 80 174 75 80 174 75 80 174 75 80 174 75 80 174 75 80 174 75 80 174 75 80 174 75 80 174 75 80 174 75 80 175 75 79 175 75 79 175 75 79 175 74 79 175 74 79 175 74 79 175 75 79 175 75 79 174 75 80 174 75 80 174 75 80 174 76 80 174 76 80 173 76 81 173 76 81 173 76 81 173 76 81 173 76 81 173 76 81 173 76 81 174 76 80 174 76 80 174 75 80 174 75 80 174 75 80 174 75 80 174 75 80 174 75 80 174 75 80 174 75 80 174 75 80 174 75 80 174 75 80 174 75 80 174 75 80 174 75 80 174 75 80 174 75 80 174 75 80 174 75 80 174 75 80 174 75 80 174 75 80 174 76 80 174 76 80 174 76 80 174 76 80 174 76 80 174 76 80 174 76 80 174 75 80 174 75 80 174 75 80 174 75 80 174 75 80 174 75 80 174 75 80 174 75 80 174 75 80 174 75 80 174 75 80 174 75 80 174 75 80 174 75 80 174 75 80 174 75 80 174 76 80 174 76 80 174 76 80 174 76 80 174 76 80 174 76 80 174 76 80 174 76 80 174 76 80 173 76 81 173 76 81 173 76 81 173 76 81 173 76 81 173 76 81 173 76 81 173 76 81 173 76 81 174 76 80 174 76 80 174 76 80 174 76 80 174 76 80 174 75 80 174 75 80 174 75 80 174 75 80 174 75 80 174 75 80 174 75 80 174 75 80 174 76 80 174 76 80 174 76 80 174 76 80 174 75 80 174 75 80 174 75 80 174 75 80 174 75 80 174 75 80 174 75 80 174 75 80 174 75 80 174 75 80 174 75 80 174 75 80 174 75 80 174 75 80 174 75 80 174 75 80 174 75 80 174 75 80 174 75 80 174 75 80 174 75 80 174 75 80 174 75 80 174 75 80 174 75 80 174 76 80 174 76 80 174 76 80 174 76 80 174 75 80 174 75 80 174 75 80 
174 75 80 174 75 80 174 75 80 174 75 80 174 75 80 174 75 80 174 75 80 174 75 80 174 75 80 174 75 80 174 75 80 174 75 80 174 75 80 174 75 80 174 75 80 174 75 80 174 75 80 174 75 80 174 75 80 174 75 80 174 75 80 174 75 80 174 75 80 174 75 80 174 75 80 174 75 80 174 75 80 174 75 80 174 75 80 174 75 80 174 75 80 174 75 80 174 75 80 174 75 80 174 75 80 174 75 80 174 75 80 174 75 80 174 75 80 174 75 80 174 75 80 174 75 80 174 75 80 174 75 80 174 75 80 174 75 80 174 75 80 174 75 80 174 75 80 175 75 79 175 75 79 175 75 79 175 75 79 175 75 79 175 75 79 174 75 80 174 75 80 174 75 80 174 75 80 174 76 80 173 76 81 173 76 81 173 76 81 173 76 81 173 76 81 173 76 81 173 76 81 173 76 81 173 76 81 174 76 80 174 76 80 174 75 80 174 75 80 174 75 80 174 75 80 174 75 80 174 75 80 174 75 80 174 75 80 174 75 80 174 75 80 174 75 80 174 75 80 174 75 80 174 75 80 174 75 80 174 75 80 174 76 80 174 76 80 174 76 80 174 76 80 174 76 80 173 76 81 173 76 81 173 76 81 173 76 81 173 76 81 173 76 81 173 76 81 173 76 81 173 76 81 173 76 81 174 76 80 174 76 80 174 76 80 174 76 80 174 75 80 174 75 80 174 75 80 174 75 80 174 75 80 174 75 80 174 75 80 174 75 80 174 75 80 174 75 80 174 75 80 174 75 80 174 75 80 174 76 80 174 76 80 174 76 80 174 76 80 174 76 80 173 76 81 173 76 81 173 76 81 173 76 81 173 76 81 173 76 81 173 76 81 174 76 80 174 76 80 174 76 80 174 76 80 174 76 80 174 75 80 174 75 80 174 75 80 174 75 80 174 75 80 174 75 80 174 75 80 174 75 80 174 75 80 174 76 80 174 76 80 174 76 80 174 76 80 174 75 80 174 75 80 174 75 80 174 75 80 174 75 80 174 75 80 174 75 80 174 75 80 174 75 80 174 75 80 174 75 80 174 75 80 174 75 80 174 75 80 174 75 80 174 75 80 174 75 80 174 75 80 174 75 80 174 75 80 174 75 80 174 75 80 174 75 80 174 75 80 174 75 80 174 76 80 174 76 80 174 76 80 174 76 80 174 75 80 174 75 80 174 75 80 
174 75 80 174 75 80 174 75 80 174 75 80 174 75 80 174 75 80 174 75 80 174 75 80 174 75 80 174 75 80 174 75 80 174 75 80 174 75 80 174 75 80 174 75 80 174 75 80 174 75 80 174 75 80 174 75 80 174 75 80 174 75 80 174 75 80 174 75 80 174 75 80 174 75 80 174 75 80 174 76 80 174 75 80 174 75 80 174 75 80 174 75 80 174 75 80 174 75 80 174 75 80 174 75 80 174 75 80 174 75 80 174 75 80 174 75 80 174 75 80 174 75 80 174 75 80 174 75 80 174 75 80 174 75 80 174 75 80 174 75 80 174 75 80 174 75 80 174 75 80 174 75 80 174 75 80 174 75 80 174 75 80 174 75 80 174 75 80 174 75 80 174 75 80 174 75 80 174 76 80 173 76 81 173 76 81 173 76 81 173 76 81 173 76 81 173 76 81 173 76 81 173 76 81 173 76 81 173 76 81 174 76 80 174 76 80 174 75 80 174 75 80 174 75 80 174 75 80 174 75 80 174 75 80 174 75 80 174 75 80 174 75 80 174 75 80 174 75 80 174 76 80 174 76 80 174 76 80 174 76 80 174 76 80 174 76 80 174 76 80 173 76 81 173 76 81 173 76 81 173 76 81 173 76 81 173 76 81 173 76 81 173 76 81 173 76 81 173 76 81 173 76 81 173 76 81 173 76 81 173 76 81 173 76 81 173 76 81 173 76 81 173 76 81 174 76 80 174 76 80 174 76 80 174 75 80 174 75 80 174 75 80 174 75 80 174 75 80 174 75 80 174 75 80 174 75 80 174 75 80 174 75 80 174 75 80 174 76 80 174 76 80 174 76 80 174 76 80 173 76 81 173 76 81 173 76 81 173 76 81 174 76 80 174 76 80 174 76 80 174 76 80 174 75 80 174 75 80 174 75 80 174 75 80 174 75 80 174 75 80 174 75 80 174 75 80 174 75 80 174 75 80 174 75 80 174 76 80 174 76 80 174 76 80 174 76 80 174 76 80 174 75 80 174 75 80 174 75 80 174 75 80 174 75 80 174 75 80 174 75 80 174 75 80 174 75 80 174 75 80 174 75 80 174 75 80 174 75 80 174 75 80 174 75 80 174 75 80 174 75 80 174 75 80 174 75 80 174 75 80 174 75 80 174 75 80 174 75 80 174 75 80 174 76 80 174 76 80 174 76 80 174 76 80 174 76 80 174 76 80 174 75 80 
174 75 80 174 75 80 174 75 80 174 75 80 174 75 80 174 75 80 174 75 80 174 75 80 174 75 80 174 75 80 174 75 80 174 75 80 174 75 80 174 75 80 174 75 80 174 75 80 174 75 80 174 75 80 174 75 80 174 75 80 174 75 80 174 75 80 174 75 80 174 75 80 174 76 80 174 76 80 174 76 80 174 76 80 174 76 80 174 76 80 174 75 80 174 75 80 174 75 80 174 75 80 174 75 80 174 75 80 174 75 80 174 75 80 174 75 80 174 75 80 174 75 80 174 75 80 174 75 80 174 75 80 174 75 80 174 75 80 174 75 80 174 75 80 174 75 80 174 75 80 174 75 80 174 75 80 174 75 80 174 75 80 174 75 80 174 75 80 174 75 80 174 75 80 174 75 80 174 76 80 174 76 80 173 76 81 173 76 81 173 76 81 173 76 81 173 76 81 173 76 81 173 76 81 173 76 81 174 76 80 174 76 80 174 76 80 174 75 80 174 75 80 174 75 80 174 75 80 174 75 80 174 75 80 174 75 80 174 75 80 174 76 80 174 76 80 174 76 80 174 76 80 174 76 80 174 76 80 174 76 80 174 76 80 174 76 80 173 76 81 173 76 81 173 76 81 173 76 81 173 76 81 173 76 81 173 76 81 173 76 81 173 76 81 173 76 81 173 77 81 173 77 81 173 77 81 173 76 81 173 76 81 173 76 81 173 76 81 173 76 81 173 76 81 173 76 81 174 76 80 174 76 80 174 75 80 174 75 80 174 75 80 174 75 80 174 75 80 174 75 80 174 75 80 174 75 80 174 75 80 174 75 80 174 75 80 174 75 80 174 76 80 174 76 80 174 76 80 174 76 80 174 76 80 174 76 80 174 76 80 174 76 80 174 76 80 174 76 80 174 75 80 174 75 80 174 75 80 174 75 80 174 75 80 174 75 80 174 75 80 174 75 80 174 75 80 174 75 80 174 75 80 174 75 80 174 75 80 174 76 80 174 76 80 174 76 80 174 76 80 174 75 80 174 75 80 174 75 80 174 75 80 174 75 80 174 75 80 174 75 80 174 75 80 174 75 80 174 75 80 174 75 80 174 75 80 174 75 80 174 75 80 174 75 80 174 75 80 174 75 80 174 75 80 174 75 80 174 75 80 174 75 80 174 75 80 174 75 80 174 76 80 174 76 80 174 76 80 174 76 80 174 76 80 174 76 80 174 76 80 174 76 80 
174 75 80 174 75 80 174 75 80 174 75 80 174 75 80 174 75 80 174 75 80 174 75 80 174 75 80 174 75 80 174 75 80 174 75 80 174 75 80 174 75 80 174 75 80 174 75 80 174 75 80 174 75 80 174 75 80 174 75 80 174 75 80 174 75 80 174 75 80 174 76 80 174 76 80 174 76 80 174 76 80 174 76 80 174 76 80 174 76 80 174 76 80 174 75 80 174 75 80 174 75 80 174 75 80 174 75 80 174 75 80 174 75 80 174 75 80 174 75 80 174 75 80 174 75 80 174 75 80 174 75 80 174 75 80 174 75 80 174 75 80 174 75 80 174 75 80 174 75 80 174 75 80 174 75 80 174 75 80 174 75 80 174 75 80 174 75 80 174 75 80 174 75 80 174 75 80 174 75 80 174 75 80 174 75 80 174 75 80 174 75 80 174 75 80 174 76 80 174 76 80 174 76 80 174 75 80 174 75 80 174 75 80 174 75 80 174 75 80 174 75 80 174 75 80 174 75 80 174 75 80 174 75 80 174 76 80 174 76 80 174 76 80 174 76 80 174 76 80 174 76 80 174 76 80 174 76 80 174 76 80 174 76 80 174 76 80 174 76 80 173 76 81 173 76 81 173 76 81 173 76 81 173 76 81 173 76 81 173 76 81 173 76 81 173 77 81 173 77 81 173 77 81 173 77 81 173 77 81 173 77 81 173 77 81 173 76 81 173 76 81 173 76 81 173 76 81 173 76 81 174 76 80 174 75 80 174 75 80 174 75 80 174 75 80 174 75 80 174 75 80 174 75 80 174 75 80 174 75 80 174 75 80 174 75 80 174 75 80 174 75 80 174 75 80 174 76 80 174 76 80 174 76 80 174 76 80 174 76 80 174 76 80 174 76 80 174 75 80 174 75 80 174 75 80 174 75 80 174 75 80 174 75 80 174 75 80 174 75 80 174 75 80 174 75 80 174 75 80 174 75 80 174 75 80 174 75 80 174 76 80 174 76 80 174 76 80 174 76 80 174 76 80 174 75 80 174 75 80 174 75 80 174 75 80 174 75 80 174 75 80 174 75 80 174 75 80 174 75 80 174 75 80 174 75 80 174 75 80 174 75 80 174 75 80 174 75 80 174 75 80 174 75 80 174 75 80 174 75 80 174 75 80 174 75 80 174 75 80 174 76 80 174 76 80 174 76 80 174 76 80 174 76 80 174 76 80 174 76 80 174 76 80 
174 75 80 174 75 80 174 75 80 174 75 80 174 75 80 174 75 80 174 75 80 174 75 80 174 75 80 174 75 80 174 75 80 174 75 80 174 75 80 174 75 80 174 75 80 174 75 80 174 75 80 174 75 80 174 75 80 174 75 80 174 75 80 174 75 80 174 76 80 174 76 80 174 76 80 174 76 80 174 76 80 174 76 80 174 76 80 174 76 80 174 76 80 174 75 80 174 75 80 174 75 80 174 75 80 174 75 80 174 75 80 174 75 80 174 75 80 174 75 80 174 75 80 174 75 80 174 75 80 174 75 80 174 75 80 174 75 80 174 75 80 174 75 80 174 75 80 174 76 80 174 76 80 174 76 80 174 76 80 174 76 80 174 75 80 174 75 80 174 75 80 174 75 80 174 75 80 174 75 80 174 75 80 174 75 80 174 75 80 174 75 80 174 75 80 174 75 80 174 75 80 174 75 80 174 75 80 174 75 80 174 75 80 174 75 80 174 75 80 174 75 80 174 75 80 174 75 80 174 76 80 174 76 80 174 76 80 174 76 80 174 76 80 174 76 80 174 76 80 174 76 80 174 76 80 174 76 80 174 76 80 174 76 80 174 76 80 174 76 80 174 76 80 174 76 80 173 76 81 173 76 81 173 76 81 173 76 81 173 76 81 173 76 81 173 76 81 173 76 81 173 77 81 173 77 81 173 77 81 173 77 81 173 76 81 173 76 81 173 76 81 173 76 81 173 76 81 173 76 81 174 76 80 174 75 80 174 75 80 174 75 80 174 75 80 174 75 80 174 75 80 174 75 80 174 75 80 174 75 80 174 75 80 174 75 80 174 75 80 174 75 80 174 75 80 174 75 80 174 76 80 174 76 80 174 76 80 174 76 80 174 76 80 174 75 80 174 75 80 174 75 80 174 75 80 174 75 80 174 75 80 174 75 80 174 75 80 174 75 80 174 75 80 174 75 80 174 75 80 174 75 80 174 75 80 174 75 80 174 75 80 174 76 80 174 76 80 174 76 80 174 76 80 174 75 80 174 75 80 174 75 80 174 75 80 174 75 80 174 75 80 174 75 80 174 75 80 174 75 80 174 75 80 174 75 80 174 75 80 174 75 80 174 75 80 174 75 80 174 75 80 174 75 80 174 75 80 174 75 80 174 75 80 174 75 80 174 75 80 174 76 80 174 76 80 174 76 80 174 76 80 174 76 80 174 76 80 174 76 80 174 76 80 
174 75 80 174 75 80 174 75 80 174 75 80 174 75 80 174 75 80 174 75 80 174 75 80 174 75 80 174 75 80 174 75 80 174 75 80 174 75 80 174 75 80 174 75 80 174 75 80 174 75 80 174 75 80 174 75 80 174 75 80 174 76 80 174 76 80 174 76 80 174 76 80 174 76 80 174 76 80 174 76 80 174 76 80 174 76 80 174 76 80 174 75 80 174 75 80 174 75 80 174 75 80 174 75 80 174 75 80 174 75 80 174 75 80 174 75 80 174 75 80 174 75 80 174 75 80 174 75 80 174 75 80 174 75 80 174 75 80 174 75 80 174 76 80 174 76 80 174 76 80 173 76 81 173 76 81 174 76 80 174 76 80 174 76 80 174 75 80 174 75 80 174 75 80 174 75 80 175 75 79 175 75 79 175 74 79 175 74 79 175 74 79 175 74 79 175 74 79 175 75 79 175 75 79 175 75 79 174 75 80 174 75 80 174 75 80 174 75 80 174 75 80 174 75 80 174 76 80 174 76 80 174 76 80 174 76 80 174 76 80 174 76 80 174 75 80 174 75 80 174 75 80 174 75 80 174 75 80 174 75 80 174 75 80 174 75 80 174 75 80 174 75 80 174 75 80 174 75 80 174 76 80 174 76 80 174 76 80 173 76 81 173 76 81 173 76 81 173 76 81 173 76 81 173 76 81 173 76 81 173 76 81 173 76 81 173 76 81 173 76 81 173 76 81 173 76 81 174 76 80 174 76 80 174 75 80 174 75 80 174 75 80 174 75 80 174 75 80 174 75 80 174 75 80 174 75 80 174 75 80 174 75 80 174 75 80 174 75 80 174 75 80 174 75 80 174 75 80 174 75 80 174 75 80 174 75 80 174 75 80 174 75 80 174 75 80 174 75 80 174 75 80 174 75 80 174 75 80 174 75 80 174 75 80 174 75 80 174 75 80 174 75 80 174 75 80 174 75 80 174 75 80 174 75 80 174 75 80 174 75 80 174 75 80 174 76 80 174 76 80 174 75 80 174 75 80 174 75 80 174 75 80 174 75 80 174 75 80 174 75 80 174 75 80 174 75 80 174 75 80 174 75 80 174 75 80 174 75 80 174 75 80 174 75 80 174 75 80 174 75 80 174 75 80 174 75 80 174 75 80 174 75 80 174 75 80 174 76 80 174 76 80 174 76 80 174 76 80 174 76 80 174 76 80 174 76 80 174 76 80 174 76 80 
174 75 80 174 75 80 174 75 80 174 75 80 174 75 80 174 75 80 174 75 80 174 75 80 174 75 80 174 75 80 174 75 80 174 75 80 174 75 80 174 75 80 174 75 80 174 75 80 174 75 80 174 76 80 174 76 80 174 76 80 174 76 80 174 76 80 174 76 80 174 76 80 174 76 80 174 76 80 174 76 80 174 76 80 174 76 80 174 75 80 174 75 80 174 75 80 174 75 80 174 75 80 174 75 80 174 75 80 174 75 80 174 75 80 174 75 80 174 75 80 174 75 80 174 75 80 174 75 80 174 75 80 174 75 80 174 75 80 174 76 80 174 76 80 173 76 81 173 76 81 173 76 81 173 76 81 173 76 81 174 76 80 174 76 80 174 75 80 174 75 80 175 75 79 175 75 79 175 74 79 175 74 79 175 74 79 176 74 78 176 74 78 176 74 78 176 74 78 175 74 79 175 74 79 175 74 79 175 75 79 174 75 80 174 75 80 174 75 80 174 75 80 174 75 80 174 76 80 174 76 80 174 76 80 174 76 80 174 76 80 174 75 80 174 75 80 174 75 80 174 75 80 174 75 80 174 75 80 174 75 80 174 75 80 174 75 80 174 75 80 174 75 80 174 75 80 174 75 80 174 75 80 174 75 80 174 75 80 174 75 80 174 75 80 174 75 80 174 76 80 174 76 80 173 76 81 173 76 81 173 76 81 173 76 81 173 76 81 173 76 81 173 76 81 174 76 80 174 76 80 174 75 80 174 75 80 174 75 80 174 75 80 174 75 80 174 75 80 174 75 80 174 75 80 174 75 80 174 75 80 174 75 80 174 75 80 174 75 80 174 75 80 174 75 80 174 75 80 174 75 80 174 75 80 174 75 80 174 75 80 174 75 80 174 75 80 174 75 80 174 75 80 174 75 80 174 75 80 174 75 80 174 75 80 174 75 80 174 75 80 174 75 80 174 75 80 174 75 80 174 75 80 174 75 80 174 75 80 174 75 80 174 75 80 174 75 80 174 75 80 174 75 80 174 75 80 174 75 80 174 75 80 174 75 80 174 75 80 174 75 80 174 75 80 174 75 80 174 75 80 174 75 80 174 75 80 174 75 80 174 75 80 174 75 80 174 75 80 174 75 80 174 75 80 174 75 80 174 75 80 174 75 80 174 75 80 174 76 80 174 76 80 174 76 80 174 76 80 174 76 80 174 76 80 174 76 80 174 75 80 174 75 80 
174 76 80 174 75 80 174 75 80 174 75 80 174 75 80 174 75 80 174 75 80 174 75 80 174 75 80 174 75 80 174 75 80 174 75 80 174 75 80 174 75 80 174 75 80 174 76 80 174 76 80 174 76 80 174 76 80 174 76 80 174 76 80 174 76 80 174 76 80 174 76 80 174 76 80 174 76 80 174 75 80 174 75 80 174 75 80 174 75 80 174 75 80 174 75 80 174 75 80 174 75 80 174 75 80 174 75 80 174 75 80 174 75 80 174 75 80 174 75 80 174 75 80 174 75 80 174 75 80 174 75 80 174 75 80 174 75 80 174 76 80 174 76 80 173 76 81 173 76 81 173 76 81 173 76 81 173 76 81 174 76 80 174 75 80 174 75 80 174 75 80 175 75 79 175 74 79 175 74 79 176 74 78 176 73 78 176 73 78 176 73 78 176 73 78 176 73 78 176 74 78 176 74 78 175 74 79 175 74 79 175 75 79 174 75 80 174 75 80 174 75 80 174 75 80 174 76 80 174 76 80 174 76 80 174 76 80 174 75 80 174 75 80 174 75 80 174 75 80 174 75 80 174 75 80 174 75 80 174 75 80 174 75 80 174 75 80 175 75 79 175 75 79 175 75 79 175 75 79 175 75 79 175 75 79 175 75 79 175 75 79 175 75 79 174 75 80 174 75 80 174 75 80 174 75 80 174 75 80 174 75 80 174 75 80 174 75 80 174 75 80 174 75 80 174 75 80 174 75 80 174 75 80 174 75 80 174 75 80 174 75 80 174 75 80 174 75 80 174 75 80 174 75 80 174 75 80 174 75 80 174 75 80 174 75 80 174 75 80 174 75 80 174 75 80 174 75 80 174 75 80 174 75 80 174 75 80 174 75 80 174 75 80 174 75 80 174 75 80 174 75 80 174 75 80 174 75 80 174 75 80 174 75 80 174 75 80 174 75 80 174 75 80 174 75 80 174 75 80 174 75 80 174 75 80 174 75 80 174 75 80 174 75 80 174 75 80 174 75 80 174 75 80 174 75 80 174 75 80 174 75 80 174 75 80 174 75 80 174 75 80 174 75 80 174 75 80 174 75 80 174 75 80 174 75 80 174 75 80 174 75 80 174 75 80 174 75 80 174 75 80 174 75 80 174 75 80 174 75 80 174 76 80 174 76 80 174 76 80 174 76 80 174 75 80 174 75 80 174 75 80 174 75 80 174 75 80 174 75 80 174 75 80 
174 76 80 174 76 80 174 75 80 174 75 80 174 75 80 174 75 80 174 75 80 174 75 80 174 75 80 174 75 80 174 75 80 174 75 80 174 75 80 174 75 80 174 76 80 174 76 80 174 76 80 174 76 80 174 76 80 174 76 80 174 76 80 174 76 80 174 76 80 174 76 80 174 75 80 174 75 80 174 75 80 174 75 80 174 75 80 174 75 80 174 75 80 174 75 80 174 75 80 174 75 80 174 75 80 174 75 80 174 75 80 174 75 80 174 75 80 174 75 80 174 75 80 174 75 80 174 75 80 174 75 80 174 75 80 174 75 80 174 75 80 174 76 80 174 76 80 173 76 81 173 76 81 174 76 80 174 76 80 174 75 80 174 75 80 174 75 80 175 75 79 175 74 79 175 74 79 176 74 78 176 73 78 176 73 78 177 73 77 177 73 77 177 73 77 176 73 78 176 73 78 176 74 78 176 74 78 175 74 79 175 75 79 174 75 80 174 75 80 174 75 80 174 75 80 174 76 80 174 76 80 174 76 80 174 76 80 174 75 80 174 75 80 174 75 80 174 75 80 174 75 80 174 75 80 175 75 79 175 75 79 175 75 79 175 75 79 175 75 79 175 74 79 175 74 79 175 74 79 175 74 79 175 74 79 175 74 79 175 74 79 175 74 79 175 74 79 175 74 79 175 74 79 175 74 79 175 74 79 175 75 79 175 75 79 174 75 80 174 75 80 174 75 80 174 75 80 174 75 80 174 75 80 174 75 80 174 75 80 174 75 80 174 75 80 174 75 80 174 75 80 174 75 80 174 75 80 174 75 80 174 75 80 174 75 80 174 75 80 174 75 80 174 75 80 174 75 80 174 75 80 174 75 80 174 75 80 174 75 80 174 75 80 174 75 80 174 75 80 174 75 80 174 75 80 174 75 80 174 75 80 174 75 80 174 75 80 174 75 80 174 75 80 174 75 80 174 75 80 174 75 80 174 75 80 174 75 80 174 75 80 174 75 80 174 75 80 174 75 80 174 75 80 174 75 80 174 75 80 174 75 80 174 75 80 174 75 80 174 75 80 174 75 80 174 75 80 174 75 80 174 75 80 174 75 80 174 75 80 174 75 80 174 75 80 174 75 80 174 75 80 174 75 80 174 75 80 174 76 80 174 76 80 174 76 80 174 76 80 174 75 80 174 75 80 174 75 80 174 75 80 174 75 80 174 75 80 174 75 80 174 75 80 
174 76 80 174 76 80 174 75 80 174 75 80 174 75 80 174 75 80 174 75 80 174 75 80 174 75 80 174 75 80 174 75 80 174 75 80 174 75 80 174 75 80 174 76 80 174 76 80 174 76 80 174 76 80 174 76 80 174 76 80 174 76 80 174 76 80 174 76 80 174 75 80 174 75 80 174 75 80 174 75 80 174 75 80 174 75 80 174 75 80 174 75 80 174 75 80 174 75 80 174 75 80 174 75 80 174 75 80 174 75 80 174 75 80 174 75 80 174 75 80 174 75 80 174 75 80 174 75 80 174 75 80 174 75 80 174 75 80 174 75 80 174 75 80 174 76 80 174 76 80 174 76 80 174 75 80 174 75 80 174 75 80 174 75 80 175 75 79 175 74 79 175 74 79 176 74 78 176 73 78 176 73 78 177 73 77 177 73 77 177 73 77 177 73 77 177 73 77 176 73 78 176 73 78 176 74 78 175 74 79 175 75 79 174 75 80 174 75 80 174 75 80 174 76 80 174 76 80 174 76 80 174 76 80 174 75 80 174 75 80 174 75 80 174 75 80 174 75 80 174 75 80 175 75 79 175 75 79 175 75 79 175 75 79 175 74 79 175 74 79 175 74 79 175 74 79 175 74 79 175 74 79 176 74 78 176 74 78 176 74 78 176 73 78 176 73 78 176 73 78 176 73 78 176 74 78 176 74 78 175 74 79 175 74 79 175 74 79 175 74 79 175 75 79 174 75 80 174 75 80 174 75 80 174 75 80 174 75 80 174 75 80 174 75 80 174 75 80 174 75 80 174 75 80 174 75 80 174 75 80 174 75 80 174 75 80 174 75 80 174 75 80 174 75 80 174 75 80 174 75 80 174 75 80 174 75 80 174 75 80 174 75 80 174 75 80 174 75 80 174 75 80 174 75 80 174 75 80 174 75 80 174 75 80 174 75 80 174 75 80 174 75 80 174 75 80 174 75 80 174 75 80 174 75 80 174 75 80 174 75 80 174 75 80 174 75 80 174 75 80 174 75 80 174 75 80 174 75 80 174 75 80 174 75 80 174 75 80 174 75 80 174 75 80 174 75 80 174 75 80 174 75 80 174 75 80 174 75 80 174 75 80 174 75 80 174 75 80 174 75 80 174 75 80 174 75 80 174 76 80 174 76 80 174 76 80 174 76 80 174 75 80 174 75 80 174 75 80 174 75 80 174 75 80 174 75 80 174 75 80 174 75 80 
174 76 80 174 76 80 174 75 80 174 75 80 174 75 80 174 75 80 174 75 80 174 75 80 174 75 80 174 75 80 174 75 80 174 75 80 174 75 80 174 75 80 174 76 80 174 76 80 174 76 80 174 76 80 174 76 80 174 76 80 174 76 80 174 76 80 174 75 80 174 75 80 174 75 80 174 75 80 174 75 80 174 75 80 174 75 80 174 75 80 174 75 80 174 75 80 174 75 80 174 75 80 174 75 80 174 75 80 174 75 80 174 75 80 174 75 80 174 75 80 174 75 80 174 75 80 174 75 80 174 75 80 174 75 80 174 75 80 174 75 80 174 75 80 174 75 80 174 75 80 174 75 80 174 75 80 174 75 80 174 75 80 175 75 79 175 74 79 175 74 79 176 74 78 176 73 78 176 73 78 176 73 78 177 73 77 177 73 77 177 73 77 177 73 77 176 73 78 176 73 78 176 74 78 175 74 79 175 74 79 175 75 79 174 75 80 174 75 80 174 75 80 174 76 80 174 76 80 174 76 80 174 76 80 174 75 80 174 75 80 174 75 80 174 75 80 174 75 80 175 75 79 175 75 79 175 75 79 175 75 79 175 74 79 175 74 79 175 74 79 175 74 79 175 74 79 176 74 78 176 74 78 176 73 78 176 73 78 176 73 78 176 73 78 177 73 77 177 73 77 177 73 77 176 73 78 176 73 78 176 73 78 176 74 78 176 74 78 175 74 79 175 74 79 175 75 79 174 75 80 174 75 80 174 75 80 174 75 80 174 75 80 174 76 80 174 76 80 174 76 80 174 76 80 174 76 80 174 76 80 174 76 80 174 76 80 174 76 80 174 76 80 174 76 80 174 76 80 174 76 80 174 76 80 174 76 80 174 76 80 174 76 80 174 76 80 174 76 80 174 76 80 174 76 80 174 76 80 174 76 80 174 75 80 174 75 80 174 75 80 174 75 80 174 75 80 174 75 80 174 75 80 174 75 80 174 75 80 174 75 80 174 75 80 174 75 80 174 75 80 174 75 80 174 75 80 174 75 80 174 75 80 174 75 80 174 75 80 174 75 80 174 75 80 174 75 80 174 75 80 174 75 80 174 75 80 174 75 80 174 75 80 174 75 80 174 75 80 174 75 80 174 75 80 174 76 80 174 76 80 174 76 80 174 76 80 174 75 80 174 75 80 174 75 80 174 75 80 174 75 80 174 75 80 174 75 80 174 75 80 174 75 80 
174 76 80 174 76 80 174 75 80 174 75 80 174 75 80 174 75 80 174 75 80 174 75 80 174 75 80 174 75 80 174 75 80 174 75 80 174 75 80 174 75 80 174 76 80 174 76 80 174 76 80 174 76 80 174 76 80 174 76 80 174 76 80 174 76 80 174 75 80 174 75 80 174 75 80 174 75 80 174 75 80 174 75 80 174 75 80 174 75 80 175 75 79 175 75 79 175 75 79 174 75 80 174 75 80 174 75 80 174 75 80 174 75 80 174 75 80 174 75 80 174 75 80 174 75 80 174 75 80 174 75 80 174 75 80 174 75 80 174 75 80 174 75 80 174 75 80 174 75 80 174 75 80 175 75 79 175 75 79 175 75 79 175 74 79 175 74 79 175 74 79 176 74 78 176 73 78 176 73 78 176 73 78 176 73 78 177 73 77 176 73 78 176 73 78 176 73 78 176 73 78 176 74 78 175 74 79 175 74 79 174 75 80 174 75 80 174 75 80 174 76 80 174 76 80 174 76 80 174 76 80 174 76 80 174 75 80 174 75 80 174 75 80 174 75 80 174 75 80 174 75 80 175 75 79 175 75 79 175 75 79 175 74 79 175 74 79 175 74 79 175 74 79 175 74 79 176 74 78 176 73 78 176 73 78 176 73 78 177 73 77 177 73 77 177 72 77 177 72 77 177 72 77 177 73 77 177 73 77 176 73 78 176 73 78 176 74 78 176 74 78 175 74 79 175 74 79 175 75 79 174 75 80 174 75 80 174 75 80 174 76 80 174 76 80 174 76 80 173 76 81 173 76 81 173 76 81 174 76 80 174 76 80 174 76 80 174 76 80 174 76 80 174 76 80 174 76 80 174 76 80 174 76 80 174 76 80 174 76 80 174 76 80 174 76 80 174 76 80 174 76 80 174 76 80 174 76 80 174 76 80 174 76 80 174 76 80 174 76 80 174 75 80 174 75 80 174 75 80 174 75 80 174 75 80 174 75 80 174 75 80 174 75 80 174 75 80 174 75 80 174 75 80 174 75 80 174 75 80 174 75 80 174 75 80 174 75 80 174 75 80 174 75 80 174 75 80 174 75 80 174 75 80 174 75 80 174 75 80 174 75 80 174 75 80 174 75 80 174 75 80 174 75 80 174 76 80 174 76 80 174 76 80 174 76 80 174 76 80 174 75 80 174 75 80 174 75 80 174 75 80 174 75 80 174 75 80 174 75 80 175 75 79 
174 76 80 174 76 80 174 75 80 174 75 80 174 75 80 174 75 80 174 75 80 174 75 80 174 75 80 174 75 80 174 75 80 174 75 80 174 75 80 174 75 80 174 75 80 174 76 80 174 76 80 174 76 80 174 76 80 174 76 80 174 76 80 174 75 80 174 75 80 174 75 80 174 75 80 174 75 80 174 75 80 174 75 80 175 75 79 175 75 79 175 75 79 175 75 79 175 75 79 175 75 79 174 75 80 174 75 80 174 75 80 174 75 80 174 75 80 174 75 80 174 75 80 174 75 80 174 75 80 174 75 80 174 75 80 174 75 80 174 75 80 175 75 79 175 75 79 175 75 79 175 74 79 175 74 79 175 74 79 175 74 79 175 74 79 175 74 79 176 74 78 176 74 78 176 74 78 176 73 78 176 73 78 176 73 78 176 73 78 176 73 78 176 74 78 176 74 78 175 74 79 175 74 79 175 75 79 174 75 80 174 75 80 174 75 80 174 76 80 174 76 80 173 76 81 173 76 81 174 76 80 174 76 80 174 75 80 174 75 80 174 75 80 174 75 80 174 75 80 174 75 80 174 75 80 175 75 79 175 75 79 175 75 79 175 75 79 175 74 79 175 74 79 175 74 79 176 74 78 176 73 78 176 73 78 176 73 78 177 73 77 177 72 77 177 72 77 177 72 77 177 72 77 177 72 77 177 72 77 177 73 77 176 73 78 176 73 78 176 74 78 175 74 79 175 74 79 175 75 79 174 75 80 174 75 80 174 75 80 174 76 80 173 76 81 173 76 81 173 76 81 173 76 81 173 76 81 173 76 81 173 76 81 173 76 81 173 76 81 173 76 81 174 76 80 174 76 80 174 76 80 174 76 80 174 76 80 174 76 80 174 76 80 173 76 81 174 76 80 174 76 80 174 76 80 174 76 80 174 76 80 174 76 80 174 76 80 174 76 80 174 76 80 174 76 80 174 75 80 174 75 80 174 75 80 174 75 80 174 75 80 174 75 80 174 75 80 174 75 80 174 75 80 174 75 80 174 75 80 174 75 80 174 75 80 174 75 80 174 75 80 174 75 80 174 75 80 174 75 80 174 75 80 174 75 80 174 75 80 174 75 80 174 75 80 174 75 80 174 75 80 174 75 80 174 75 80 174 76 80 174 76 80 174 76 80 174 76 80 174 75 80 174 75 80 174 75 80 174 75 80 174 75 80 174 75 80 175 75 79 175 75 79 
174 76 80 174 76 80 174 75 80 174 75 80 174 75 80 174 75 80 174 75 80 174 75 80 174 75 80 174 75 80 174 75 80 174 75 80 174 75 80 174 75 80 174 75 80 174 76 80 174 76 80 174 76 80 174 76 80 174 76 80 174 76 80 174 75 80 174 75 80 174 75 80 174 75 80 174 75 80 175 75 79 175 75 79 175 75 79 175 75 79 175 75 79 175 75 79 175 75 79 175 75 79 175 75 79 174 75 80 174 75 80 174 75 80 174 75 80 174 75 80 174 75 80 174 75 80 174 75 80 174 75 80 174 75 80 175 75 79 175 75 79 175 74 79 175 74 79 175 74 79 175 74 79 175 74 79 175 74 79 175 74 79 175 74 79 176 74 78 176 74 78 176 74 78 176 74 78 176 74 78 176 74 78 176 74 78 175 74 79 175 74 79 175 74 79 175 74 79 175 75 79 175 75 79 174 75 80 174 75 80 174 75 80 174 76 80 173 76 81 173 76 81 173 76 81 173 76 81 173 76 81 174 76 80 174 76 80 174 75 80 174 75 80 174 75 80 174 75 80 174 75 80 174 75 80 174 75 80 174 75 80 174 75 80 175 75 79 175 75 79 175 74 79 175 74 79 175 74 79 176 74 78 176 73 78 176 73 78 177 73 77 177 73 77 177 72 77 177 72 77 177 72 77 177 72 77 177 73 77 177 73 77 176 73 78 176 73 78 176 74 78 175 74 79 175 75 79 174 75 80 174 75 80 174 75 80 174 76 80 174 76 80 173 76 81 173 76 81 173 76 81 173 76 81 173 76 81 173 76 81 173 76 81 173 76 81 173 76 81 173 76 81 173 76 81 173 76 81 173 76 81 173 76 81 173 76 81 173 76 81 173 76 81 173 76 81 173 76 81 173 76 81 173 76 81 174 76 80 174 76 80 174 76 80 174 76 80 174 76 80 174 76 80 174 76 80 174 76 80 174 75 80 174 75 80 174 75 80 174 75 80 174 75 80 174 75 80 174 75 80 174 75 80 174 75 80 174 75 80 174 75 80 174 75 80 174 75 80 174 75 80 174 75 80 174 75 80 174 75 80 174 75 80 174 75 80 174 75 80 174 75 80 174 75 80 174 75 80 174 75 80 174 75 80 174 76 80 174 76 80 174 76 80 174 76 80 174 76 80 174 75 80 174 75 80 174 75 80 174 75 80 174 75 80 174 75 80 175 75 79 175 75 79 
174 76 80 174 76 80 174 75 80 174 75 80 174 75 80 174 75 80 174 75 80 174 75 80 174 75 80 174 75 80 174 75 80 174 75 80 174 75 80 174 75 80 174 75 80 174 76 80 174 76 80 174 76 80 174 76 80 174 76 80 174 76 80 174 75 80 174 75 80 174 75 80 174 75 80 174 75 80 175 75 79 175 75 79 175 74 79 175 74 79 175 74 79 175 74 79 175 75 79 175 75 79 174 75 80 174 75 80 174 75 80 174 75 80 174 75 80 174 75 80 174 75 80 174 75 80 174 75 80 174 75 80 174 75 80 175 75 79 175 74 79 175 74 79 175 74 79 175 74 79 176 74 78 176 74 78 176 74 78 176 74 78 176 74 78 176 74 78 175 74 79 175 74 79 175 74 79 175 74 79 175 74 79 175 74 79 175 75 79 175 75 79 174 75 80 174 75 80 174 75 80 174 75 80 174 76 80 174 76 80 173 76 81 173 76 81 173 76 81 173 76 81 173 76 81 173 76 81 173 76 81 174 76 80 174 76 80 174 75 80 174 75 80 174 75 80 174 75 80 174 75 80 174 75 80 174 75 80 174 75 80 174 75 80 174 75 80 174 75 80 174 75 80 175 75 79 175 74 79 175 74 79 176 74 78 176 73 78 176 73 78 176 73 78 177 73 77 177 73 77 177 73 77 177 73 77 176 73 78 176 73 78 176 73 78 176 74 78 175 74 79 175 74 79 175 75 79 174 75 80 174 75 80 174 75 80 174 76 80 174 76 80 173 76 81 173 76 81 173 76 81 173 76 81 173 76 81 173 76 81 173 76 81 173 76 81 173 76 81 173 76 81 173 76 81 173 76 81 173 76 81 173 76 81 173 76 81 173 76 81 173 76 81 173 76 81 173 76 81 173 76 81 173 76 81 174 76 80 174 76 80 174 76 80 174 76 80 174 76 80 174 76 80 174 76 80 174 76 80 174 76 80 174 75 80 174 75 80 174 75 80 174 75 80 174 75 80 174 75 80 174 75 80 174 75 80 174 75 80 174 75 80 174 75 80 175 75 79 175 75 79 175 75 79 175 75 79 175 75 79 175 75 79 174 75 80 174 75 80 174 75 80 174 75 80 174 75 80 174 75 80 174 75 80 174 76 80 174 76 80 174 76 80 174 76 80 174 76 80 174 75 80 174 75 80 174 75 80 174 75 80 174 75 80 174 75 80 175 75 79 175 74 79 
174 76 80 174 76 80 174 75 80 174 75 80 174 75 80 174 75 80 174 75 80 174 75 80 174 75 80 174 75 80 174 75 80 174 75 80 174 75 80 174 75 80 174 75 80 174 76 80 174 76 80 174 76 80 174 76 80 174 76 80 174 76 80 174 75 80 174 75 80 174 75 80 174 75 80 175 75 79 175 75 79 175 74 79 175 74 79 175 74 79 175 74 79 175 74 79 175 75 79 175 75 79 174 75 80 174 75 80 174 75 80 174 75 80 174 75 80 174 75 80 174 75 80 174 75 80 174 75 80 174 75 80 175 75 79 175 75 79 175 74 79 175 74 79 176 74 78 176 74 78 176 74 78 176 74 78 176 74 78 176 74 78 176 74 78 175 74 79 175 74 79 175 74 79 175 75 79 175 75 79 174 75 80 174 75 80 174 75 80 174 75 80 174 76 80 174 76 80 174 76 80 173 76 81 173 76 81 173 76 81 173 76 81 173 76 81 173 76 81 173 76 81 173 76 81 173 76 81 173 76 81 173 76 81 174 76 80 174 76 80 174 76 80 174 75 80 174 75 80 174 75 80 174 75 80 174 75 80 174 75 80 174 75 80 174 75 80 174 75 80 174 75 80 174 75 80 175 75 79 175 75 79 175 74 79 175 74 79 176 74 78 176 74 78 176 73 78 176 73 78 176 73 78 176 73 78 176 74 78 176 74 78 175 74 79 175 74 79 175 75 79 174 75 80 174 75 80 174 75 80 174 75 80 174 76 80 174 76 80 174 76 80 174 76 80 174 76 80 174 76 80 174 76 80 174 76 80 174 76 80 174 76 80 174 76 80 173 76 81 173 76 81 173 76 81 173 76 81 173 76 81 173 76 81 173 76 81 173 76 81 173 76 81 173 76 81 174 76 80 174 76 80 174 76 80 174 76 80 174 76 80 174 76 80 174 76 80 174 76 80 174 76 80 174 76 80 174 76 80 174 76 80 174 76 80 174 75 80 174 75 80 174 75 80 174 75 80 174 75 80 174 75 80 174 75 80 174 75 80 174 75 80 175 75 79 175 75 79 175 75 79 175 75 79 175 75 79 175 75 79 175 75 79 175 75 79 174 75 80 174 75 80 174 75 80 174 75 80 174 75 80 174 75 80 174 76 80 174 76 80 174 76 80 174 76 80 174 76 80 174 76 80 174 75 80 174 75 80 174 75 80 174 75 80 174 75 80 175 75 79 175 74 79 
174 76 80 174 76 80 174 75 80 174 75 80 174 75 80 174 75 80 174 75 80 174 75 80 174 75 80 174 75 80 174 75 80 174 75 80 174 75 80 174 75 80 174 75 80 174 76 80 174 76 80 174 76 80 174 76 80 174 76 80 174 76 80 174 75 80 174 75 80 174 75 80 174 75 80 175 75 79 175 75 79 175 74 79 175 74 79 175 74 79 175 74 79 175 74 79 175 75 79 175 75 79 174 75 80 174 75 80 174 75 80 174 75 80 174 76 80 174 76 80 174 76 80 174 75 80 174 75 80 174 75 80 175 75 79 175 74 79 175 74 79 175 74 79 176 74 78 176 74 78 176 73 78 176 73 78 176 74 78 176 74 78 175 74 79 175 74 79 175 74 79 175 75 79 174 75 80 174 75 80 174 75 80 174 76 80 173 76 81 173 76 81 173 76 81 173 76 81 173 76 81 173 76 81 173 76 81 173 76 81 173 76 81 173 76 81 173 76 81 173 76 81 173 76 81 173 76 81 173 76 81 173 76 81 173 76 81 174 76 80 174 76 80 174 76 80 174 76 80 174 76 80 174 76 80 174 76 80 174 76 80 174 76 80 174 76 80 174 76 80 174 76 80 174 75 80 174 75 80 174 75 80 174 75 80 175 75 79 175 74 79 175 74 79 175 74 79 175 74 79 175 74 79 175 74 79 175 74 79 175 75 79 175 75 79 174 75 80 174 75 80 174 75 80 174 75 80 174 75 80 174 76 80 174 76 80 174 76 80 174 75 80 174 75 80 174 75 80 174 75 80 174 75 80 174 75 80 174 75 80 174 76 80 174 76 80 174 76 80 174 76 80 173 76 81 173 76 81 173 76 81 173 76 81 173 76 81 173 76 81 174 76 80 174 76 80 174 76 80 174 76 80 174 76 80 174 76 80 174 75 80 174 75 80 174 75 80 174 76 80 174 76 80 174 76 80 174 76 80 174 76 80 174 76 80 174 76 80 174 75 80 174 75 80 174 75 80 174 75 80 174 75 80 174 75 80 174 75 80 174 75 80 175 75 79 175 75 79 175 75 79 175 75 79 175 75 79 175 75 79 175 75 79 175 75 79 174 75 80 174 75 80 174 75 80 174 75 80 174 75 80 174 75 80 174 76 80 174 76 80 174 76 80 174 76 80 174 76 80 174 76 80 174 76 80 174 75 80 174 75 80 174 75 80 174 75 80 175 75 79 175 75 79 
174 76 80 174 76 80 174 75 80 174 75 80 174 75 80 174 75 80 174 75 80 174 75 80 174 75 80 174 75 80 174 75 80 174 75 80 174 75 80 174 75 80 174 75 80 174 75 80 174 76 80 174 76 80 174 76 80 174 76 80 174 75 80 174 75 80 174 75 80 174 75 80 174 75 80 175 75 79 175 75 79 175 74 79 175 74 79 175 74 79 175 74 79 175 74 79 175 75 79 175 75 79 174 75 80 174 75 80 174 75 80 174 75 80 174 76 80 174 76 80 174 76 80 174 75 80 174 75 80 174 75 80 175 75 79 175 74 79 175 74 79 176 74 78 176 74 78 176 74 78 176 73 78 176 74 78 176 74 78 176 74 78 175 74 79 175 74 79 175 75 79 174 75 80 174 75 80 174 76 80 173 76 81 173 76 81 173 76 81 173 76 81 173 76 81 173 76 81 173 76 81 173 76 81 173 76 81 173 76 81 173 76 81 173 76 81 173 76 81 173 76 81 173 76 81 173 76 81 173 76 81 173 76 81 173 76 81 173 76 81 173 76 81 174 76 80 174 76 80 174 76 80 173 76 81 173 76 81 173 76 81 173 76 81 173 76 81 173 76 81 173 76 81 174 76 80 174 76 80 174 75 80 174 75 80 174 75 80 174 75 80 174 75 80 174 75 80 174 75 80 174 75 80 174 75 80 174 75 80 174 75 80 174 75 80 174 76 80 174 76 80 174 76 80 174 76 80 174 76 80 174 76 80 174 76 80 174 75 80 174 75 80 174 75 80 174 75 80 174 75 80 174 75 80 174 75 80 174 75 80 174 75 80 174 75 80 174 76 80 174 76 80 174 76 80 173 76 81 173 76 81 173 76 81 173 76 81 174 76 80 174 76 80 174 76 80 174 75 80 174 75 80 174 75 80 174 75 80 174 75 80 174 75 80 174 75 80 174 75 80 174 75 80 174 75 80 174 76 80 174 76 80 174 76 80 174 76 80 174 76 80 174 75 80 174 75 80 174 75 80 174 75 80 174 75 80 174 75 80 174 75 80 175 75 79 175 75 79 175 75 79 175 75 79 175 75 79 175 75 79 175 75 79 175 75 79 174 75 80 174 75 80 174 75 80 174 75 80 174 75 80 174 75 80 174 76 80 174 76 80 174 76 80 174 76 80 174 76 80 174 76 80 174 76 80 174 75 80 174 75 80 174 75 80 174 75 80 174 75 80 175 75 79 
174 76 80 174 75 80 174 75 80 174 75 80 174 75 80 174 75 80 174 75 80 174 75 80 174 75 80 174 75 80 174 75 80 174 75 80 174 75 80 174 75 80 174 75 80 174 75 80 174 76 80 174 76 80 174 76 80 174 76 80 174 75 80 174 75 80 174 75 80 174 75 80 174 75 80 175 75 79 175 75 79 175 75 79 175 74 79 175 74 79 175 74 79 175 75 79 175 75 79 174 75 80 174 75 80 174 75 80 174 75 80 174 76 80 174 76 80 174 76 80 174 76 80 174 75 80 174 75 80 174 75 80 175 75 79 175 74 79 175 74 79 175 74 79 176 74 78 176 74 78 176 74 78 176 74 78 175 74 79 175 74 79 175 74 79 175 75 79 174 75 80 174 75 80 174 76 80 173 76 81 173 76 81 173 76 81 173 76 81 173 76 81 173 76 81 173 76 81 173 76 81 173 76 81 173 76 81 173 76 81 173 76 81 173 76 81 173 76 81 173 76 81 173 76 81 173 76 81 173 76 81 173 76 81 173 76 81 173 76 81 173 76 81 173 76 81 173 76 81 173 76 81 173 76 81 173 76 81 173 76 81 173 76 81 173 76 81 173 76 81 173 76 81 173 76 81 173 76 81 173 76 81 173 76 81 173 76 81 174 76 80 174 76 80 174 76 80 174 76 80 173 76 81 173 76 81 173 76 81 173 76 81 173 76 81 173 76 81 173 76 81 173 76 81 173 76 81 173 76 81 174 76 80 174 75 80 174 75 80 174 75 80 174 75 80 174 75 80 175 75 79 175 75 79 174 75 80 174 75 80 174 75 80 174 75 80 174 75 80 174 75 80 174 76 80 174 76 80 174 76 80 174 76 80 174 76 80 174 76 80 174 75 80 174 75 80 174 75 80 174 75 80 174 75 80 174 75 80 174 75 80 174 75 80 174 75 80 174 75 80 174 75 80 174 75 80 174 75 80 174 76 80 174 76 80 174 76 80 174 76 80 174 76 80 174 75 80 174 75 80 174 75 80 174 75 80 174 75 80 174 75 80 175 75 79 175 75 79 175 75 79 175 75 79 175 75 79 175 75 79 175 75 79 175 75 79 174 75 80 174 75 80 174 75 80 174 75 80 174 75 80 174 76 80 174 76 80 174 76 80 173 76 81 173 76 81 173 76 81 174 76 80 174 76 80 174 76 80 174 75 80 174 75 80 174 75 80 174 75 80 174 75 80 
174 76 80 174 75 80 174 75 80 174 75 80 174 75 80 174 75 80 174 75 80 174 75 80 174 75 80 174 75 80 174 75 80 174 75 80 174 75 80 174 75 80 174 75 80 174 75 80 174 76 80 174 76 80 174 76 80 174 76 80 174 75 80 174 75 80 174 75 80 174 75 80 174 75 80 174 75 80 175 75 79 175 75 79 175 75 79 175 75 79 175 75 79 175 75 79 175 75 79 174 75 80 174 75 80 174 75 80 174 75 80 174 76 80 174 76 80 174 76 80 174 76 80 174 75 80 174 75 80 174 75 80 175 75 79 175 74 79 175 74 79 175 74 79 175 74 79 175 74 79 175 74 79 175 74 79 175 74 79 175 74 79 175 75 79 174 75 80 174 75 80 174 76 80 173 76 81 173 76 81 173 76 81 173 76 81 173 76 81 173 76 81 173 76 81 173 76 81 174 76 80 174 76 80 174 76 80 174 76 80 174 76 80 174 76 80 173 76 81 173 76 81 173 76 81 173 76 81 173 76 81 173 76 81 173 76 81 173 76 81 173 76 81 173 76 81 173 76 81 174 76 80 174 76 80 174 76 80 173 76 81 173 76 81 173 76 81 173 76 81 173 76 81 173 76 81 173 76 81 173 76 81 173 76 81 173 76 81 173 76 81 173 76 81 173 76 81 173 76 81 173 76 81 173 76 81 173 77 81 173 77 81 173 77 81 173 77 81 173 77 81 173 76 81 173 76 81 173 76 81 174 76 80 174 75 80 174 75 80 174 75 80 175 75 79 175 75 79 175 74 79 175 74 79 175 75 79 175 75 79 174 75 80 174 75 80 174 75 80 174 75 80 174 76 80 174 76 80 174 76 80 174 76 80 174 76 80 174 75 80 174 75 80 174 75 80 174 75 80 174 75 80 174 75 80 174 75 80 174 75 80 174 75 80 174 75 80 174 75 80 174 75 80 174 75 80 174 75 80 174 75 80 174 76 80 174 76 80 174 76 80 174 76 80 174 75 80 174 75 80 174 75 80 174 75 80 174 75 80 174 75 80 175 75 79 175 75 79 175 75 79 175 75 79 175 75 79 175 75 79 175 75 79 174 75 80 174 75 80 174 75 80 174 75 80 174 75 80 174 75 80 174 76 80 174 76 80 174 76 80 173 76 81 173 76 81 173 76 81 174 76 80 174 76 80 174 76 80 174 75 80 174 75 80 174 75 80 174 75 80 174 75 80 
174 75 80 174 75 80 174 75 80 174 75 80 174 75 80 174 75 80 174 75 80 174 75 80 174 75 80 174 75 80 174 75 80 174 75 80 174 75 80 174 75 80 174 75 80 174 75 80 174 75 80 174 76 80 174 76 80 174 76 80 174 75 80 174 75 80 174 75 80 174 75 80 174 75 80 174 75 80 174 75 80 175 75 79 175 75 79 175 75 79 175 75 79 174 75 80 174 75 80 174 75 80 174 75 80 174 75 80 174 75 80 174 75 80 174 76 80 174 76 80 174 75 80 174 75 80 174 75 80 174 75 80 175 75 79 175 75 79 175 74 79 175 74 79 175 74 79 175 74 79 175 74 79 175 74 79 175 75 79 174 75 80 174 75 80 174 75 80 174 75 80 174 76 80 173 76 81 173 76 81 173 76 81 174 76 80 174 76 80 174 75 80 174 75 80 174 75 80 174 75 80 174 75 80 174 75 80 174 75 80 174 75 80 174 75 80 174 75 80 174 76 80 174 76 80 173 76 81 173 76 81 173 76 81 173 76 81 173 76 81 173 76 81 174 76 80 174 76 80 174 76 80 174 76 80 174 76 80 174 76 80 174 76 80 174 76 80 174 76 80 173 76 81 173 76 81 173 76 81 173 76 81 173 76 81 173 76 81 173 76 81 173 76 81 173 77 81 173 77 81 172 77 82 172 77 82 172 77 82 172 77 82 172 77 82 172 77 82 173 77 81 173 76 81 173 76 81 173 76 81 174 76 80 174 75 80 174 75 80 175 75 79 175 74 79 175 74 79 175 74 79 175 74 79 175 74 79 175 74 79 175 75 79 174 75 80 174 75 80 174 75 80 174 75 80 174 76 80 174 76 80 174 76 80 174 75 80 174 75 80 174 75 80 174 75 80 174 75 80 175 75 79 175 75 79 175 75 79 175 75 79 175 75 79 175 75 79 174 75 80 174 75 80 174 75 80 174 75 80 174 75 80 174 75 80 174 76 80 174 76 80 174 76 80 174 75 80 174 75 80 174 75 80 174 75 80 174 75 80 174 75 80 174 75 80 175 75 79 175 75 79 175 75 79 175 75 79 175 75 79 174 75 80 174 75 80 174 75 80 174 75 80 174 75 80 174 75 80 174 75 80 174 76 80 174 76 80 174 76 80 173 76 81 173 76 81 173 76 81 174 76 80 174 76 80 174 76 80 174 76 80 174 75 80 174 75 80 174 75 80 174 75 80 
174 75 80 174 75 80 174 75 80 174 75 80 174 75 80 174 75 80 174 75 80 174 75 80 174 75 80 174 75 80 174 75 80 174 75 80 174 75 80 174 75 80 174 75 80 174 75 80 174 75 80 174 76 80 174 76 80 174 76 80 174 75 80 174 75 80 174 75 80 174 75 80 174 75 80 174 75 80 174 75 80 174 75 80 174 75 80 174 75 80 174 75 80 174 75 80 174 75 80 174 75 80 174 75 80 174 75 80 174 75 80 174 75 80 174 75 80 174 75 80 174 75 80 174 75 80 174 75 80 174 75 80 174 75 80 175 75 79 175 75 79 175 75 79 175 75 79 175 75 79 175 75 79 174 75 80 174 75 80 174 75 80 174 75 80 174 75 80 174 76 80 174 76 80 174 76 80 174 75 80 174 75 80 174 75 80 175 75 79 175 75 79 175 74 79 175 74 79 175 74 79 175 74 79 175 74 79 175 74 79 175 74 79 175 75 79 174 75 80 174 75 80 174 75 80 174 76 80 173 76 81 173 76 81 173 76 81 173 76 81 174 76 80 174 76 80 174 75 80 174 75 80 174 75 80 174 75 80 174 75 80 174 75 80 174 75 80 174 75 80 174 75 80 174 76 80 173 76 81 173 76 81 173 76 81 173 76 81 173 76 81 173 76 81 173 77 81 173 77 81 172 77 82 172 77 82 172 77 82 172 77 82 172 77 82 173 77 81 173 76 81 173 76 81 173 76 81 174 76 80 174 75 80 174 75 80 175 75 79 175 74 79 175 74 79 175 74 79 175 74 79 175 74 79 175 74 79 175 74 79 175 75 79 174 75 80 174 75 80 174 75 80 174 75 80 174 75 80 174 76 80 174 75 80 174 75 80 174 75 80 174 75 80 174 75 80 175 75 79 175 75 79 175 74 79 175 74 79 175 74 79 175 74 79 175 75 79 175 75 79 174 75 80 174 75 80 174 75 80 174 75 80 174 75 80 174 75 80 174 76 80 174 76 80 174 75 80 174 75 80 174 75 80 174 75 80 174 75 80 174 75 80 174 75 80 174 75 80 174 75 80 174 75 80 174 75 80 174 75 80 174 75 80 174 75 80 174 75 80 174 75 80 174 75 80 174 75 80 174 76 80 174 76 80 174 76 80 174 76 80 174 76 80 174 76 80 174 76 80 174 76 80 174 76 80 174 76 80 174 76 80 174 76 80 174 75 80 174 75 80 174 75 80 
174 75 80 174 75 80 174 75 80 174 75 80 174 75 80 174 75 80 174 75 80 174 75 80 174 75 80 174 75 80 174 75 80 174 75 80 174 75 80 174 75 80 174 75 80 174 75 80 174 75 80 174 75 80 174 76 80 174 75 80 174 75 80 174 75 80 174 75 80 174 75 80 174 75 80 174 75 80 174 75 80 174 75 80 174 75 80 174 75 80 174 75 80 174 75 80 174 75 80 174 75 80 174 75 80 174 75 80 174 75 80 174 75 80 174 75 80 174 75 80 174 75 80 174 75 80 174 75 80 174 75 80 174 75 80 174 75 80 175 75 79 175 75 79 174 75 80 174 75 80 174 75 80 174 75 80 174 75 80 174 75 80 174 76 80 174 76 80 174 75 80 174 75 80 174 75 80 174 75 80 175 75 79 175 74 79 175 74 79 176 74 78 176 73 78 176 73 78 176 73 78 176 73 78 176 73 78 176 73 78 176 74 78 175 74 79 175 74 79 174 75 80 174 75 80 174 75 80 174 76 80 174 76 80 173 76 81 174 76 80 174 76 80 174 75 80 174 75 80 174 75 80 174 75 80 175 75 79 175 75 79 175 75 79 174 75 80 174 75 80 174 75 80 174 75 80 174 75 80 174 76 80 174 76 80 173 76 81 173 76 81 173 76 81 173 76 81 173 76 81 173 76 81 173 76 81 173 76 81 173 76 81 173 76 81 173 76 81 173 76 81 173 76 81 174 76 80 174 75 80 174 75 80 175 75 79 175 75 79 175 74 79 175 74 79 175 74 79 175 74 79 175 74 79 175 74 79 175 74 79 175 75 79 174 75 80 174 75 80 174 75 80 174 75 80 174 75 80 174 75 80 174 75 80 174 75 80 174 75 80 174 75 80 174 75 80 175 75 79 175 74 79 175 74 79 175 74 79 175 74 79 175 74 79 175 74 79 175 75 79 175 75 79 174 75 80 174 75 80 174 75 80 174 75 80 174 75 80 174 75 80 174 75 80 174 75 80 174 75 80 174 75 80 174 75 80 174 75 80 174 75 80 174 75 80 174 75 80 174 75 80 174 75 80 174 75 80 174 75 80 174 75 80 174 75 80 174 75 80 174 75 80 174 75 80 174 76 80 174 76 80 174 76 80 174 76 80 174 76 80 174 76 80 174 76 80 174 76 80 174 76 80 174 76 80 174 76 80 174 76 80 174 75 80 174 75 80 174 75 80 174 75 80 
174 75 80 174 75 80 174 75 80 174 75 80 174 75 80 174 75 80 174 75 80 174 75 80 174 75 80 174 75 80 174 75 80 174 75 80 174 75 80 174 75 80 174 75 80 174 75 80 174 75 80 174 75 80 174 75 80 174 75 80 174 75 80 174 75 80 174 75 80 174 75 80 174 75 80 174 75 80 174 75 80 174 75 80 174 75 80 174 75 80 174 75 80 174 75 80 174 75 80 174 75 80 174 75 80 174 75 80 174 75 80 174 75 80 174 75 80 174 75 80 174 75 80 174 75 80 174 75 80 174 75 80 174 75 80 174 75 80 174 75 80 174 75 80 174 75 80 174 75 80 174 75 80 174 75 80 174 76 80 174 76 80 174 76 80 174 76 80 174 75 80 174 75 80 175 75 79 175 74 79 176 74 78 176 73 78 177 73 77 177 72 77 177 72 77 177 72 77 178 72 76 177 72 77 177 72 77 177 73 77 176 73 78 176 73 78 175 74 79 175 74 79 174 75 80 174 75 80 174 75 80 174 76 80 174 76 80 174 76 80 174 75 80 174 75 80 174 75 80 175 75 79 175 74 79 175 74 79 175 74 79 175 74 79 175 74 79 175 74 79 175 75 79 175 75 79 174 75 80 174 75 80 174 75 80 174 75 80 174 75 80 174 75 80 174 76 80 174 76 80 174 76 80 174 76 80 174 76 80 174 76 80 174 76 80 174 75 80 174 75 80 174 75 80 174 75 80 174 75 80 175 75 79 175 75 79 175 74 79 175 74 79 175 74 79 175 74 79 175 74 79 175 74 79 175 74 79 175 75 79 175 75 79 174 75 80 174 75 80 174 75 80 174 75 80 174 75 80 174 76 80 174 75 80 174 75 80 174 75 80 174 75 80 174 75 80 175 75 79 175 74 79 175 74 79 175 74 79 175 74 79 175 74 79 175 74 79 175 75 79 175 75 79 174 75 80 174 75 80 174 75 80 174 75 80 174 75 80 174 75 80 174 75 80 174 75 80 174 75 80 174 75 80 174 75 80 174 75 80 174 75 80 174 75 80 174 75 80 174 75 80 174 75 80 174 75 80 174 75 80 174 75 80 174 75 80 174 75 80 174 75 80 174 76 80 174 76 80 174 76 80 174 76 80 174 76 80 174 76 80 174 76 80 174 75 80 174 75 80 174 75 80 174 75 80 174 75 80 174 75 80 174 75 80 174 75 80 174 75 80 174 75 80 
174 75 80 174 75 80 174 75 80 174 75 80 174 75 80 174 75 80 174 75 80 174 75 80 174 75 80 174 75 80 174 75 80 174 75 80 174 75 80 174 75 80 174 75 80 174 75 80 174 75 80 174 75 80 174 75 80 174 75 80 174 75 80 174 75 80 174 75 80 174 75 80 174 75 80 174 75 80 174 75 80 174 75 80 174 75 80 174 75 80 174 75 80 174 75 80 174 75 80 174 75 80 174 75 80 174 75 80 174 75 80 174 75 80 174 75 80 174 75 80 174 75 80 174 75 80 174 75 80 174 75 80 174 75 80 174 75 80 174 75 80 174 75 80 174 75 80 174 75 80 174 76 80 174 76 80 174 76 80 174 76 80 174 76 80 174 75 80 174 75 80 175 75 79 175 74 79 176 74 78 176 73 78 177 73 77 177 72 77 178 72 76 178 71 76 178 71 76 178 71 76 178 71 76 178 71 76 178 72 76 177 72 77 176 73 78 176 74 78 175 74 79 175 75 79 174 75 80 174 75 80 174 76 80 174 76 80 174 75 80 174 75 80 174 75 80 175 75 79 175 74 79 175 74 79 175 74 79 176 74 78 176 74 78 176 74 78 175 74 79 175 74 79 175 74 79 175 74 79 175 74 79 175 75 79 175 75 79 175 75 79 175 75 79 175 75 79 175 75 79 175 75 79 175 75 79 175 74 79 175 74 79 175 74 79 175 74 79 175 74 79 175 74 79 175 74 79 175 74 79 175 74 79 175 74 79 175 74 79 175 74 79 175 74 79 175 74 79 175 74 79 175 74 79 175 75 79 175 75 79 174 75 80 174 75 80 174 75 80 174 75 80 174 76 80 174 76 80 174 76 80 174 75 80 174 75 80 174 75 80 174 75 80 174 75 80 175 75 79 175 75 79 175 74 79 175 74 79 175 74 79 175 74 79 175 74 79 175 75 79 175 75 79 174 75 80 174 75 80 174 75 80 174 75 80 174 75 80 174 75 80 174 75 80 174 75 80 174 75 80 174 75 80 174 75 80 174 75 80 174 75 80 174 75 80 174 75 80 174 75 80 174 75 80 174 75 80 174 75 80 174 75 80 174 75 80 174 75 80 174 76 80 174 76 80 174 76 80 174 76 80 174 76 80 174 75 80 174 75 80 174 75 80 174 75 80 174 75 80 174 75 80 174 75 80 174 75 80 174 75 80 174 75 80 174 75 80 174 75 80 174 75 80 
174 75 80 174 75 80 174 75 80 174 75 80 174 75 80 174 75 80 174 75 80 174 75 80 174 75 80 174 75 80 174 75 80 174 75 80 174 75 80 174 75 80 174 75 80 174 75 80 174 75 80 174 75 80 174 75 80 174 75 80 174 75 80 174 75 80 174 75 80 174 75 80 174 75 80 174 75 80 174 75 80 174 75 80 174 75 80 174 75 80 174 75 80 174 75 80 174 75 80 174 75 80 174 75 80 174 75 80 174 75 80 174 75 80 174 75 80 174 75 80 174 75 80 174 75 80 174 75 80 174 75 80 174 75 80 174 75 80 174 75 80 174 75 80 174 75 80 174 76 80 174 76 80 173 76 81 173 76 81 174 76 80 174 75 80 174 75 80 175 75 79 175 74 79 176 74 78 176 73 78 177 72 77 178 72 76 178 71 76 179 71 75 179 71 75 179 70 75 179 70 75 179 71 75 178 71 76 178 72 76 177 72 77 177 73 77 176 73 78 175 74 79 175 75 79 174 75 80 174 75 80 174 75 80 174 75 80 174 75 80 174 75 80 175 75 79 175 74 79 175 74 79 176 74 78 176 74 78 176 73 78 176 73 78 176 73 78 176 73 78 176 74 78 176 74 78 175 74 79 175 74 79 175 74 79 175 74 79 175 74 79 176 74 78 176 74 78 176 74 78 176 73 78 176 73 78 176 73 78 176 73 78 176 73 78 176 73 78 176 73 78 176 74 78 176 74 78 175 74 79 175 74 79 175 74 79 175 74 79 175 74 79 175 75 79 175 75 79 174 75 80 174 75 80 174 75 80 174 75 80 174 75 80 174 75 80 174 75 80 174 76 80 174 76 80 174 76 80 174 76 80 174 76 80 174 75 80 174 75 80 174 75 80 174 75 80 174 75 80 175 75 79 175 75 79 175 75 79 175 75 79 175 75 79 175 75 79 175 75 79 175 75 79 174 75 80 174 75 80 174 75 80 174 75 80 174 75 80 174 75 80 174 75 80 174 75 80 174 75 80 174 75 80 174 75 80 174 75 80 174 75 80 174 75 80 174 75 80 174 75 80 174 75 80 174 75 80 174 75 80 174 75 80 174 76 80 174 76 80 174 76 80 174 76 80 174 76 80 174 75 80 174 75 80 174 75 80 174 75 80 174 75 80 174 75 80 174 75 80 174 75 80 174 75 80 174 75 80 174 75 80 174 75 80 174 75 80 174 75 80 174 75 80 
174 75 80 174 75 80 174 75 80 174 75 80 174 75 80 174 75 80 174 75 80 174 75 80 174 75 80 174 75 80 174 75 80 174 75 80 174 75 80 174 75 80 174 75 80 174 75 80 174 75 80 174 75 80 174 75 80 174 75 80 174 75 80 174 75 80 174 75 80 174 75 80 174 75 80 174 75 80 174 75 80 174 75 80 174 75 80 174 75 80 174 75 80 174 75 80 174 75 80 174 75 80 174 75 80 174 75 80 174 75 80 174 75 80 174 75 80 174 75 80 174 75 80 174 75 80 174 75 80 174 75 80 174 75 80 174 75 80 174 75 80 174 75 80 174 75 80 174 76 80 174 76 80 174 76 80 174 76 80 174 75 80 174 75 80 174 75 80 175 74 79 175 74 79 176 73 78 177 73 77 177 72 77 178 72 76 179 71 75 179 71 75 179 70 75 179 70 75 179 70 75 179 71 75 179 71 75 178 71 76 177 72 77 177 73 77 176 73 78 175 74 79 175 75 79 174 75 80 174 75 80 174 75 80 174 75 80 174 75 80 174 75 80 175 75 79 175 74 79 176 74 78 176 74 78 176 73 78 176 73 78 176 73 78 176 73 78 176 73 78 176 73 78 176 73 78 176 74 78 176 74 78 176 73 78 176 73 78 176 73 78 176 73 78 177 73 77 177 72 77 177 72 77 177 72 77 177 72 77 177 72 77 177 72 77 177 72 77 177 72 77 177 73 77 176 73 78 176 73 78 176 74 78 175 74 79 175 74 79 175 75 79 174 75 80 174 75 80 174 75 80 174 75 80 174 75 80 174 76 80 174 76 80 174 76 80 174 76 80 174 76 80 174 76 80 174 76 80 174 76 80 174 76 80 174 76 80 174 75 80 174 75 80 174 75 80 174 75 80 174 75 80 174 75 80 174 75 80 174 75 80 175 75 79 175 75 79 174 75 80 174 75 80 174 75 80 174 75 80 174 75 80 174 75 80 174 75 80 174 75 80 174 75 80 174 75 80 174 75 80 174 75 80 174 75 80 174 75 80 174 75 80 174 75 80 174 75 80 174 75 80 174 75 80 174 75 80 174 75 80 174 76 80 174 76 80 174 76 80 174 76 80 174 76 80 174 75 80 174 75 80 174 75 80 174 75 80 174 75 80 174 75 80 174 75 80 174 75 80 174 75 80 175 75 79 175 75 79 175 75 79 175 75 79 175 75 79 175 75 79 175 75 79 
174 75 80 174 75 80 174 75 80 174 75 80 174 75 80 174 75 80 174 75 80 174 75 80 174 75 80 174 75 80 174 75 80 174 75 80 174 75 80 174 75 80 174 75 80 174 75 80 174 75 80 174 75 80 174 75 80 174 75 80 174 75 80 174 75 80 174 75 80 174 75 80 174 75 80 174 75 80 174 75 80 174 75 80 174 75 80 174 75 80 174 75 80 174 75 80 174 75 80 174 75 80 174 75 80 174 75 80 174 75 80 174 75 80 174 75 80 174 75 80 174 75 80 174 75 80 174 75 80 174 75 80 174 75 80 174 75 80 174 75 80 174 75 80 174 75 80 174 75 80 174 75 80 174 75 80 174 75 80 174 75 80 174 75 80 175 75 79 175 74 79 176 74 78 176 73 78 177 73 77 177 72 77 178 72 76 178 71 76 179 71 75 179 70 75 179 70 75 179 71 75 179 71 75 178 71 76 178 72 76 177 72 77 176 73 78 176 74 78 175 74 79 174 75 80 174 75 80 174 75 80 174 75 80 174 75 80 174 75 80 174 75 80 175 74 79 175 74 79 176 74 78 176 73 78 176 73 78 176 73 78 176 73 78 176 73 78 176 73 78 176 73 78 176 73 78 176 73 78 176 73 78 176 73 78 176 73 78 177 73 77 177 72 77 177 72 77 178 72 76 178 71 76 178 71 76 179 71 75 179 71 75 178 71 76 178 71 76 178 72 76 177 72 77 177 73 77 176 73 78 176 74 78 175 74 79 175 75 79 174 75 80 174 75 80 174 76 80 173 76 81 173 76 81 173 76 81 173 76 81 173 76 81 173 76 81 173 76 81 173 76 81 173 76 81 173 76 81 174 76 80 174 76 80 174 76 80 174 76 80 174 75 80 174 75 80 174 75 80 174 75 80 174 75 80 174 75 80 174 75 80 174 75 80 174 75 80 174 75 80 174 75 80 174 75 80 174 75 80 174 75 80 174 75 80 174 75 80 175 75 79 175 75 79 175 75 79 175 75 79 175 75 79 175 75 79 174 75 80 174 75 80 174 75 80 174 75 80 174 75 80 174 75 80 174 75 80 174 75 80 174 75 80 174 76 80 174 76 80 174 76 80 174 75 80 174 75 80 174 75 80 174 75 80 174 75 80 174 75 80 174 75 80 175 75 79 175 75 79 175 75 79 175 75 79 175 74 79 175 74 79 175 74 79 175 74 79 175 74 79 175 74 79 
174 75 80 174 75 80 174 75 80 174 75 80 174 75 80 174 75 80 174 75 80 174 75 80 174 75 80 174 75 80 174 76 80 174 76 80 174 76 80 174 76 80 174 76 80 174 76 80 174 76 80 174 76 80 174 75 80 174 75 80 174 75 80 174 75 80 174 75 80 174 75 80 174 75 80 174 75 80 174 75 80 174 75 80 174 75 80 174 75 80 174 75 80 174 75 80 174 75 80 174 75 80 174 75 80 174 75 80 174 75 80 174 75 80 174 75 80 174 75 80 174 75 80 174 75 80 174 75 80 174 75 80 174 75 80 174 75 80 174 75 80 174 75 80 174 75 80 174 75 80 174 75 80 174 75 80 174 75 80 174 75 80 175 75 79 175 74 79 175 74 79 176 74 78 176 73 78 177 73 77 177 72 77 178 72 76 178 72 76 178 71 76 178 71 76 178 71 76 178 71 76 178 72 76 178 72 76 177 72 77 176 73 78 176 74 78 175 74 79 175 75 79 174 75 80 174 75 80 174 75 80 174 76 80 174 75 80 174 75 80 174 75 80 175 74 79 175 74 79 176 74 78 176 73 78 176 73 78 176 73 78 176 73 78 176 73 78 176 73 78 176 73 78 176 73 78 176 73 78 176 73 78 176 73 78 177 73 77 177 72 77 177 72 77 178 72 76 178 71 76 179 71 75 179 70 75 179 70 75 179 70 75 179 70 75 179 71 75 179 71 75 178 72 76 177 72 77 177 73 77 176 74 78 175 74 79 174 75 80 174 75 80 174 76 80 173 76 81 173 76 81 173 76 81 173 76 81 173 76 81 173 76 81 173 76 81 173 76 81 173 76 81 173 76 81 174 76 80 174 76 80 174 76 80 174 76 80 174 76 80 174 76 80 174 76 80 174 76 80 174 76 80 174 75 80 174 75 80 174 75 80 174 75 80 174 75 80 174 75 80 174 75 80 174 75 80 174 75 80 174 75 80 174 75 80 175 75 79 175 75 79 175 75 79 175 75 79 175 75 79 175 75 79 175 75 79 175 75 79 175 75 79 174 75 80 174 75 80 174 75 80 174 75 80 174 75 80 174 75 80 174 75 80 174 75 80 174 75 80 174 75 80 174 75 80 174 75 80 174 75 80 174 75 80 174 75 80 174 75 80 175 75 79 175 75 79 175 75 79 175 74 79 175 74 79 175 74 79 175 74 79 175 74 79 175 74 79 175 74 79 175 74 79 
174 75 80 174 75 80 174 75 80 174 75 80 174 75 80 174 75 80 174 75 80 174 75 80 174 76 80 174 76 80 174 76 80 174 76 80 174 76 80 174 76 80 174 76 80 174 76 80 174 76 80 174 76 80 174 76 80 174 75 80 174 75 80 174 75 80 174 75 80 174 75 80 174 75 80 174 75 80 174 75 80 174 75 80 174 75 80 174 75 80 174 75 80 174 75 80 174 75 80 174 75 80 174 75 80 174 75 80 174 75 80 174 75 80 174 75 80 174 75 80 174 75 80 174 75 80 174 75 80 174 75 80 174 75 80 174 75 80 174 75 80 174 75 80 174 75 80 174 75 80 174 75 80 174 75 80 174 75 80 175 75 79 175 75 79 175 74 79 175 74 79 175 74 79 176 74 78 176 73 78 177 73 77 177 73 77 177 72 77 177 72 77 177 72 77 177 72 77 177 72 77 177 73 77 177 73 77 176 73 78 176 74 78 175 74 79 175 75 79 174 75 80 174 75 80 174 76 80 174 76 80 174 76 80 174 75 80 174 75 80 174 75 80 175 75 79 175 74 79 175 74 79 176 74 78 176 74 78 176 73 78 176 73 78 176 74 78 176 74 78 176 74 78 176 74 78 176 74 78 176 74 78 176 73 78 176 73 78 177 73 77 177 72 77 178 72 76 179 71 75 179 71 75 179 70 75 180 70 74 180 70 74 180 70 74 179 70 75 179 71 75 178 71 76 177 72 77 177 73 77 176 74 78 175 74 79 174 75 80 174 76 80 173 76 81 173 76 81 173 77 81 173 77 81 173 77 81 173 76 81 173 76 81 173 76 81 173 76 81 173 76 81 174 76 80 174 76 80 174 76 80 174 76 80 174 76 80 174 76 80 174 76 80 174 76 80 174 76 80 174 76 80 173 76 81 174 76 80 174 76 80 174 76 80 174 76 80 174 75 80 174 75 80 174 75 80 174 75 80 174 75 80 174 75 80 175 75 79 175 75 79 175 75 79 175 74 79 175 74 79 175 74 79 175 74 79 175 75 79 175 75 79 175 75 79 174 75 80 174 75 80 174 75 80 174 75 80 174 75 80 174 75 80 174 75 80 174 75 80 174 75 80 174 75 80 174 75 80 174 75 80 174 75 80 174 75 80 174 75 80 175 75 79 175 75 79 175 74 79 175 74 79 175 74 79 175 74 79 175 74 79 175 74 79 176 74 78 176 74 78 176 74 78 
174 75 80 174 75 80 174 75 80 174 75 80 174 75 80 174 75 80 174 75 80 174 76 80 174 76 80 174 76 80 174 76 80 174 76 80 174 76 80 174 76 80 174 76 80 174 76 80 174 76 80 174 76 80 174 76 80 174 75 80 174 75 80 174 75 80 174 75 80 174 75 80 174 75 80 174 75 80 174 75 80 174 75 80 174 75 80 174 75 80 174 75 80 174 75 80 174 75 80 174 75 80 174 75 80 174 75 80 174 75 80 174 75 80 174 75 80 174 75 80 174 75 80 174 75 80 174 75 80 174 75 80 174 75 80 174 75 80 174 75 80 174 75 80 174 75 80 175 75 79 175 75 79 175 75 79 175 75 79 175 75 79 175 74 79 175 74 79 175 74 79 175 74 79 175 74 79 175 74 79 176 74 78 176 74 78 176 73 78 176 73 78 176 73 78 176 73 78 176 74 78 176 74 78 175 74 79 175 74 79 175 75 79 174 75 80 174 75 80 174 76 80 173 76 81 173 76 81 173 76 81 173 76 81 174 76 80 174 75 80 174 75 80 175 75 79 175 74 79 175 74 79 175 74 79 175 74 79 175 74 79 175 74 79 175 74 79 175 74 79 175 74 79 175 74 79 175 74 79 175 74 79 175 74 79 176 74 78 176 73 78 177 73 77 177 72 77 178 71 76 179 71 75 179 70 75 179 70 75 180 70 74 179 70 75 179 70 75 179 71 75 178 71 76 177 72 77 177 73 77 176 74 78 175 74 79 174 75 80 174 76 80 173 76 81 173 76 81 173 77 81 172 77 82 173 77 81 173 76 81 173 76 81 173 76 81 173 76 81 174 76 80 174 75 80 174 75 80 174 75 80 174 75 80 174 75 80 174 75 80 174 76 80 174 76 80 173 76 81 173 76 81 173 76 81 173 76 81 173 76 81 173 76 81 173 76 81 174 76 80 174 75 80 174 75 80 174 75 80 174 75 80 174 75 80 175 75 79 175 75 79 175 74 79 175 74 79 175 74 79 175 74 79 175 74 79 175 74 79 175 75 79 175 75 79 175 75 79 174 75 80 174 75 80 174 75 80 174 75 80 174 75 80 174 75 80 174 75 80 174 75 80 174 75 80 174 75 80 174 75 80 174 75 80 174 75 80 175 75 79 175 75 79 175 75 79 175 74 79 175 74 79 175 74 79 175 74 79 175 74 79 176 74 78 176 74 78 176 74 78 176 73 78 
174 75 80 174 75 80 174 75 80 174 75 80 174 75 80 174 76 80 174 76 80 174 76 80 174 76 80 174 76 80 174 76 80 174 76 80 174 76 80 174 76 80 174 76 80 174 76 80 174 76 80 174 76 80 174 76 80 174 75 80 174 75 80 174 75 80 174 75 80 174 75 80 174 75 80 174 75 80 174 75 80 174 75 80 174 75 80 174 75 80 174 75 80 174 75 80 174 75 80 174 75 80 174 75 80 174 75 80 174 76 80 174 76 80 174 76 80 174 76 80 174 76 80 174 76 80 174 75 80 174 75 80 174 75 80 174 75 80 174 75 80 175 75 79 175 75 79 175 75 79 175 74 79 175 74 79 175 74 79 175 74 79 175 74 79 175 75 79 175 75 79 175 75 79 175 75 79 175 75 79 175 75 79 175 75 79 175 75 79 175 75 79 175 75 79 174 75 80 174 75 80 174 75 80 174 75 80 174 75 80 174 76 80 173 76 81 173 76 81 173 76 81 173 76 81 173 76 81 173 76 81 173 76 81 173 76 81 174 76 80 174 75 80 174 75 80 175 75 79 175 75 79 175 74 79 175 74 79 175 74 79 175 74 79 175 75 79 175 75 79 174 75 80 174 75 80 174 75 80 174 75 80 175 75 79 175 74 79 175 74 79 176 73 78 177 73 77 177 72 77 178 72 76 178 71 76 179 71 75 179 71 75 179 71 75 179 71 75 178 71 76 178 72 76 177 72 77 176 73 78 175 74 79 175 75 79 174 75 80 173 76 81 173 76 81 173 76 81 173 77 81 173 77 81 173 76 81 173 76 81 173 76 81 173 76 81 174 75 80 174 75 80 174 75 80 174 75 80 174 75 80 174 75 80 174 75 80 174 75 80 174 75 80 174 76 80 174 76 80 173 76 81 173 76 81 173 76 81 173 76 81 173 76 81 173 76 81 173 76 81 174 76 80 174 75 80 174 75 80 174 75 80 174 75 80 175 75 79 175 75 79 175 74 79 175 74 79 175 74 79 175 74 79 175 74 79 175 74 79 175 74 79 175 75 79 175 75 79 175 75 79 174 75 80 174 75 80 174 75 80 174 75 80 174 75 80 174 75 80 174 75 80 174 75 80 174 75 80 174 75 80 174 75 80 174 75 80 174 75 80 175 75 79 175 75 79 175 75 79 175 74 79 175 74 79 175 74 79 175 74 79 176 74 78 176 74 78 176 73 78 176 73 78 
174 75 80 174 75 80 174 75 80 174 75 80 174 75 80 174 76 80 174 76 80 174 76 80 174 76 80 174 76 80 174 76 80 174 76 80 174 76 80 174 76 80 174 76 80 174 76 80 174 76 80 174 76 80 174 76 80 174 75 80 174 75 80 174 75 80 174 75 80 174 75 80 174 75 80 174 75 80 174 75 80 174 75 80 174 75 80 174 75 80 174 75 80 174 75 80 174 75 80 174 75 80 174 75 80 174 76 80 174 76 80 174 76 80 174 76 80 174 76 80 174 76 80 174 76 80 174 76 80 174 75 80 174 75 80 174 75 80 174 75 80 175 75 79 175 75 79 175 74 79 175 74 79 175 74 79 175 74 79 175 75 79 175 75 79 175 75 79 174 75 80 174 75 80 174 75 80 174 75 80 174 76 80 174 76 80 173 76 81 173 76 81 173 76 81 173 76 81 173 76 81 173 76 81 173 76 81 173 76 81 173 76 81 173 76 81 173 76 81 173 76 81 173 76 81 173 76 81 173 76 81 173 76 81 173 76 81 174 76 80 174 75 80 174 75 80 174 75 80 174 75 80 174 75 80 174 75 80 174 75 80 174 75 80 174 75 80 174 75 80 174 75 80 174 76 80 174 76 80 174 76 80 174 75 80 174 75 80 174 75 80 175 74 79 175 74 79 176 73 78 177 73 77 177 72 77 177 72 77 178 72 76 178 72 76 178 72 76 177 72 77 177 72 77 176 73 78 176 73 78 175 74 79 175 75 79 174 75 80 174 76 80 173 76 81 173 76 81 173 76 81 173 76 81 173 76 81 173 76 81 174 76 80 174 75 80 174 75 80 174 75 80 175 75 79 175 75 79 175 75 79 175 75 79 175 75 79 174 75 80 174 75 80 174 75 80 174 75 80 174 76 80 173 76 81 173 76 81 173 76 81 173 76 81 173 76 81 173 76 81 174 76 80 174 76 80 174 75 80 174 75 80 174 75 80 174 75 80 175 75 79 175 75 79 175 74 79 175 74 79 175 74 79 175 74 79 175 74 79 175 74 79 175 74 79 175 75 79 175 75 79 175 75 79 174 75 80 174 75 80 174 75 80 174 75 80 174 75 80 174 75 80 174 75 80 174 75 80 174 75 80 174 75 80 174 75 80 174 75 80 174 75 80 175 75 79 175 75 79 175 75 79 175 74 79 175 74 79 175 74 79 175 74 79 176 74 78 176 74 78 176 73 78 
174 75 80 174 75 80 174 75 80 174 75 80 174 76 80 174 76 80 174 76 80 174 76 80 174 76 80 174 76 80 174 76 80 174 76 80 174 76 80 174 76 80 174 76 80 174 76 80 174 76 80 174 76 80 174 76 80 174 75 80 174 75 80 174 75 80 174 75 80 174 75 80 174 75 80 174 75 80 174 75 80 174 75 80 174 75 80 174 75 80 174 75 80 174 75 80 174 75 80 174 75 80 174 75 80 174 76 80 174 76 80 174 76 80 173 76 81 173 76 81 173 76 81 174 76 80 174 76 80 174 75 80 174 75 80 174 75 80 174 75 80 175 75 79 175 75 79 175 74 79 175 74 79 175 74 79 175 75 79 175 75 79 174 75 80 174 75 80 174 75 80 174 76 80 173 76 81 173 76 81 173 76 81 173 76 81 173 77 81 172 77 82 172 77 82 172 77 82 172 77 82 172 77 82 172 77 82 172 77 82 172 77 82 172 77 82 172 77 82 172 77 82 173 77 81 173 76 81 173 76 81 173 76 81 173 76 81 173 76 81 174 76 80 174 76 80 174 75 80 174 75 80 174 75 80 174 75 80 174 75 80 174 75 80 174 76 80 174 76 80 173 76 81 173 76 81 173 76 81 173 76 81 173 76 81 173 76 81 173 76 81 174 76 80 174 75 80 175 75 79 175 74 79 175 74 79 176 73 78 176 73 78 176 73 78 176 73 78 176 73 78 176 73 78 176 74 78 175 74 79 175 74 79 175 75 79 174 75 80 174 75 80 174 76 80 173 76 81 173 76 81 173 76 81 174 76 80 174 75 80 174 75 80 174 75 80 175 75 79 175 74 79 175 74 79 175 74 79 175 74 79 175 74 79 175 74 79 175 74 79 175 75 79 174 75 80 174 75 80 174 75 80 174 76 80 174 76 80 173 76 81 173 76 81 173 76 81 173 76 81 174 76 80 174 76 80 174 75 80 174 75 80 174 75 80 174 75 80 174 75 80 175 75 79 175 75 79 175 75 79 175 74 79 175 74 79 175 74 79 175 74 79 175 74 79 175 75 79 175 75 79 175 75 79 175 75 79 174 75 80 174 75 80 174 75 80 174 75 80 174 75 80 174 75 80 174 75 80 174 75 80 174 75 80 174 75 80 174 75 80 174 75 80 174 75 80 174 75 80 174 75 80 175 75 79 175 75 79 175 74 79 175 74 79 175 74 79 176 74 78 176 74 78 
174 75 80 174 75 80 174 75 80 174 75 80 174 76 80 174 76 80 174 76 80 174 76 80 174 76 80 174 76 80 174 76 80 174 76 80 174 76 80 174 76 80 174 76 80 174 76 80 174 76 80 174 76 80 174 76 80 174 75 80 174 75 80 174 75 80 174 75 80 174 75 80 174 75 80 174 75 80 174 75 80 174 75 80 174 75 80 174 75 80 174 75 80 174 75 80 174 75 80 174 75 80 174 75 80 174 76 80 174 76 80 174 76 80 173 76 81 173 76 81 174 76 80 174 76 80 174 76 80 174 75 80 174 75 80 174 75 80 174 75 80 174 75 80 175 75 79 175 75 79 175 75 79 175 75 79 175 75 79 174 75 80 174 75 80 174 75 80 174 76 80 173 76 81 173 76 81 173 76 81 173 77 81 172 77 82 172 77 82 172 77 82 172 77 82 172 77 82 172 77 82 172 77 82 172 77 82 172 77 82 172 77 82 172 77 82 172 77 82 172 77 82 173 77 81 173 76 81 173 76 81 173 76 81 173 76 81 173 76 81 173 76 81 174 76 80 174 76 80 174 76 80 174 75 80 174 75 80 174 76 80 174 76 80 173 76 81 173 76 81 173 76 81 173 76 81 173 77 81 172 77 82 172 77 82 172 77 82 172 77 82 173 77 81 173 76 81 173 76 81 173 76 81 174 75 80 174 75 80 175 75 79 175 74 79 175 74 79 175 74 79 175 74 79 175 74 79 175 74 79 175 75 79 175 75 79 174 75 80 174 75 80 174 75 80 174 75 80 174 75 80 174 75 80 174 75 80 174 75 80 175 75 79 175 74 79 175 74 79 175 74 79 176 74 78 176 74 78 176 74 78 176 74 78 176 74 78 175 74 79 175 74 79 175 74 79 175 75 79 174 75 80 174 75 80 174 75 80 174 76 80 174 76 80 174 76 80 174 76 80 174 76 80 174 76 80 174 75 80 174 75 80 174 75 80 174 75 80 174 75 80 174 75 80 174 75 80 175 75 79 175 75 79 175 75 79 175 75 79 175 75 79 175 75 79 175 75 79 175 75 79 175 75 79 175 75 79 175 75 79 174 75 80 174 75 80 174 75 80 174 75 80 174 75 80 174 75 80 174 75 80 174 75 80 174 75 80 174 75 80 174 75 80 174 75 80 174 75 80 174 75 80 174 75 80 174 75 80 175 75 79 175 75 79 175 74 79 175 74 79 175 74 79 
174 75 80 174 75 80 174 75 80 174 75 80 174 75 80 174 75 80 174 75 80 174 75 80 174 75 80 174 75 80 174 75 80 174 75 80 174 76 80 174 76 80 174 76 80 174 76 80 174 76 80 174 76 80 174 75 80 174 75 80 174 75 80 174 75 80 174 75 80 174 75 80 174 75 80 174 75 80 174 75 80 174 75 80 174 75 80 174 75 80 174 75 80 174 75 80 174 75 80 174 75 80 174 75 80 174 76 80 174 76 80 174 76 80 174 76 80 174 76 80 174 76 80 174 75 80 174 75 80 174 75 80 174 75 80 174 75 80 174 75 80 174 75 80 174 75 80 174 75 80 174 75 80 174 75 80 174 75 80 174 75 80 174 75 80 174 76 80 173 76 81 173 76 81 173 76 81 173 76 81 173 76 81 173 77 81 172 77 82 172 77 82 172 77 82 172 77 82 172 77 82 172 77 82 172 77 82 172 77 82 172 77 82 173 77 81 173 77 81 173 77 81 173 76 81 173 76 81 173 76 81 173 76 81 173 76 81 173 76 81 173 76 81 173 76 81 173 76 81 174 76 80 174 76 80 174 76 80 174 76 80 174 76 80 173 76 81 173 76 81 173 76 81 173 76 81 172 77 82 172 77 82 172 77 82 172 77 82 172 77 82 172 77 82 172 77 82 172 77 82 172 77 82 173 77 81 173 76 81 173 76 81 174 76 80 174 75 80 174 75 80 174 75 80 175 75 79 175 75 79 175 75 79 175 75 79 175 75 79 175 75 79 175 75 79 175 75 79 175 75 79 175 75 79 175 74 79 175 74 79 175 74 79 175 74 79 176 74 78 176 73 78 176 73 78 176 73 78 176 73 78 176 73 78 176 73 78 176 74 78 176 74 78 175 74 79 175 74 79 175 75 79 175 75 79 174 75 80 174 75 80 174 75 80 174 75 80 174 75 80 174 76 80 174 76 80 174 75 80 174 75 80 174 75 80 174 75 80 174 75 80 174 75 80 174 75 80 174 75 80 174 75 80 175 75 79 175 75 79 175 75 79 175 75 79 175 75 79 175 75 79 175 75 79 175 75 79 174 75 80 174 75 80 174 75 80 174 75 80 174 75 80 174 75 80 174 75 80 174 75 80 174 76 80 174 76 80 174 76 80 174 76 80 174 76 80 174 76 80 174 75 80 174 75 80 174 75 80 174 75 80 174 75 80 175 75 79 175 75 79 175 74 79 
174 75 80 174 75 80 174 75 80 174 75 80 174 75 80 174 75 80 174 75 80 174 75 80 174 75 80 174 75 80 174 75 80 174 75 80 174 75 80 174 75 80 174 76 80 174 76 80 174 76 80 174 76 80 174 75 80 174 75 80 174 75 80 174 75 80 174 75 80 174 75 80 174 75 80 174 75 80 174 75 80 174 75 80 174 75 80 174 75 80 174 75 80 174 75 80 174 75 80 174 75 80 174 75 80 174 75 80 174 75 80 174 75 80 174 75 80 174 75 80 174 75 80 174 75 80 174 75 80 174 75 80 174 75 80 174 75 80 174 75 80 174 75 80 174 75 80 174 75 80 174 75 80 174 75 80 174 76 80 174 76 80 174 76 80 174 76 80 174 76 80 174 76 80 173 76 81 173 76 81 173 76 81 173 76 81 173 76 81 173 76 81 173 76 81 173 76 81 173 76 81 173 76 81 173 76 81 173 76 81 173 76 81 173 76 81 173 76 81 173 76 81 173 76 81 173 76 81 173 76 81 173 76 81 173 76 81 173 76 81 173 76 81 173 76 81 173 76 81 174 76 80 174 76 80 174 76 80 174 76 80 174 76 80 174 76 80 173 76 81 173 76 81 173 76 81 173 76 81 172 77 82 172 77 82 172 77 82 172 77 82 171 78 83 171 78 83 171 78 83 171 78 83 172 78 82 172 77 82 172 77 82 173 77 81 173 76 81 173 76 81 174 75 80 174 75 80 174 75 80 175 75 79 175 75 79 175 74 79 175 74 79 175 74 79 175 74 79 175 74 79 175 74 79 175 74 79 176 74 78 176 74 78 176 74 78 176 73 78 176 73 78 176 73 78 176 73 78 176 73 78 176 73 78 176 73 78 176 73 78 176 73 78 176 74 78 176 74 78 175 74 79 175 74 79 175 75 79 175 75 79 174 75 80 174 75 80 174 75 80 174 75 80 174 75 80 174 75 80 174 75 80 174 75 80 174 75 80 174 75 80 174 75 80 174 75 80 174 75 80 174 75 80 174 75 80 174 75 80 174 75 80 174 75 80 175 75 79 175 75 79 175 75 79 174 75 80 174 75 80 174 75 80 174 75 80 174 75 80 174 75 80 174 75 80 174 75 80 174 76 80 174 76 80 174 76 80 173 76 81 173 76 81 173 76 81 173 76 81 174 76 80 174 76 80 174 76 80 174 75 80 174 75 80 174 75 80 174 75 80 174 75 80 
174 75 80 174 75 80 174 75 80 174 75 80 174 75 80 174 75 80 174 75 80 174 75 80 174 75 80 174 75 80 174 75 80 174 75 80 174 75 80 174 75 80 174 75 80 174 76 80 174 76 80 174 75 80 174 75 80 174 75 80 174 75 80 174 75 80 174 75 80 174 75 80 174 75 80 174 75 80 174 75 80 174 75 80 174 75 80 174 75 80 174 75 80 174 75 80 174 75 80 174 75 80 174 75 80 174 75 80 174 75 80 174 75 80 174 75 80 174 75 80 174 75 80 175 75 79 175 75 79 174 75 80 174 75 80 174 75 80 174 75 80 174 75 80 174 76 80 174 76 80 173 76 81 173 76 81 173 76 81 173 76 81 173 76 81 174 76 80 174 75 80 174 75 80 174 75 80 175 75 79 175 74 79 175 74 79 175 74 79 175 74 79 175 74 79 175 74 79 175 74 79 175 75 79 175 75 79 174 75 80 174 75 80 174 75 80 174 75 80 174 76 80 173 76 81 173 76 81 173 76 81 173 76 81 173 76 81 173 76 81 173 76 81 173 76 81 174 76 80 174 76 80 174 76 80 174 75 80 174 75 80 174 75 80 174 75 80 174 75 80 174 75 80 174 76 80 173 76 81 173 76 81 173 76 81 172 77 82 172 77 82 172 77 82 172 78 82 171 78 83 171 78 83 171 78 83 171 78 83 172 77 82 172 77 82 173 77 81 173 76 81 173 76 81 174 75 80 174 75 80 175 75 79 175 74 79 175 74 79 175 74 79 175 74 79 176 74 78 176 74 78 176 74 78 176 74 78 176 74 78 176 74 78 176 73 78 176 73 78 176 73 78 176 73 78 176 73 78 176 73 78 177 73 77 176 73 78 176 73 78 176 73 78 176 73 78 176 73 78 176 74 78 175 74 79 175 74 79 175 74 79 175 75 79 174 75 80 174 75 80 174 75 80 174 75 80 174 75 80 174 76 80 174 76 80 174 76 80 174 76 80 174 76 80 174 75 80 174 75 80 174 75 80 174 75 80 174 75 80 174 75 80 174 75 80 174 75 80 174 75 80 174 75 80 174 75 80 174 75 80 174 75 80 174 75 80 174 75 80 174 75 80 174 75 80 174 76 80 174 76 80 173 76 81 173 76 81 173 76 81 173 76 81 173 76 81 173 76 81 173 76 81 173 76 81 173 76 81 174 76 80 174 76 80 174 76 80 174 76 80 174 75 80 
174 75 80 174 75 80 174 75 80 174 75 80 174 75 80 174 75 80 174 75 80 174 75 80 174 75 80 174 75 80 174 75 80 174 75 80 174 75 80 174 75 80 174 75 80 174 75 80 174 76 80 174 75 80 174 75 80 174 75 80 174 75 80 174 75 80 174 75 80 174 76 80 174 76 80 174 76 80 174 76 80 174 76 80 174 76 80 174 76 80 174 76 80 174 76 80 174 76 80 174 75 80 174 75 80 174 75 80 174 75 80 175 75 79 175 74 79 175 74 79 175 74 79 175 74 79 175 74 79 175 75 79 175 75 79 174 75 80 174 75 80 174 76 80 173 76 81 173 76 81 173 76 81 173 76 81 173 76 81 173 76 81 174 76 80 174 75 80 175 75 79 175 74 79 176 74 78 176 73 78 177 73 77 177 72 77 177 72 77 177 72 77 177 72 77 177 72 77 177 72 77 177 73 77 176 73 78 176 74 78 175 74 79 175 74 79 175 75 79 174 75 80 174 75 80 174 76 80 174 76 80 173 76 81 173 76 81 173 76 81 174 76 80 174 76 80 174 76 80 174 75 80 174 75 80 174 75 80 174 75 80 174 75 80 174 75 80 175 75 79 175 75 79 174 75 80 174 75 80 174 75 80 174 75 80 173 76 81 173 76 81 173 76 81 172 77 82 172 77 82 172 77 82 172 77 82 172 77 82 172 77 82 172 77 82 173 77 81 173 76 81 173 76 81 174 75 80 174 75 80 175 75 79 175 74 79 175 74 79 176 74 78 176 74 78 176 74 78 176 74 78 176 74 78 176 74 78 176 74 78 176 74 78 176 74 78 176 74 78 176 73 78 176 73 78 176 73 78 176 73 78 176 73 78 176 73 78 176 73 78 176 73 78 176 73 78 176 73 78 176 73 78 176 74 78 176 74 78 175 74 79 175 74 79 175 75 79 174 75 80 174 75 80 174 75 80 174 75 80 174 75 80 174 76 80 174 76 80 174 76 80 174 76 80 174 76 80 174 76 80 174 75 80 174 75 80 174 75 80 174 75 80 174 75 80 174 75 80 174 75 80 174 75 80 174 75 80 174 75 80 174 75 80 174 75 80 174 75 80 174 75 80 174 76 80 174 76 80 173 76 81 173 76 81 173 76 81 173 76 81 173 76 81 173 76 81 173 76 81 173 76 81 173 76 81 173 76 81 173 76 81 173 76 81 173 76 81 173 76 81 173 76 81 
174 75 80 174 75 80 174 75 80 174 75 80 174 75 80 174 75 80 174 75 80 174 75 80 174 75 80 174 75 80 174 75 80 174 75 80 174 75 80 174 75 80 174 76 80 174 76 80 174 76 80 174 75 80 174 75 80 174 75 80 174 76 80 174 76 80 174 76 80 174 76 80 174 76 80 173 76 81 173 76 81 173 76 81 173 76 81 173 76 81 173 76 81 174 76 80 174 76 80 174 75 80 174 75 80 175 75 79 175 74 79 175 74 79 175 74 79 176 74 78 176 74 78 176 74 78 175 74 79 175 74 79 175 74 79 174 75 80 174 75 80 174 76 80 173 76 81 173 76 81 173 76 81 173 76 81 173 76 81 173 76 81 174 75 80 175 75 79 175 74 79 176 73 78 177 72 77 178 71 76 179 71 75 179 70 75 180 70 74 180 70 74 180 70 74 180 70 74 179 70 75 179 71 75 178 72 76 177 72 77 177 73 77 176 74 78 175 74 79 175 75 79 174 75 80 174 75 80 174 75 80 174 76 80 174 76 80 174 76 80 174 76 80 174 75 80 174 75 80 174 75 80 174 75 80 174 75 80 175 75 79 175 74 79 175 74 79 175 74 79 175 74 79 175 74 79 175 74 79 175 74 79 175 74 79 175 74 79 175 75 79 174 75 80 174 75 80 174 76 80 173 76 81 173 76 81 173 76 81 173 76 81 173 76 81 173 76 81 174 76 80 174 75 80 174 75 80 175 75 79 175 74 79 175 74 79 175 74 79 175 74 79 176 74 78 176 74 78 175 74 79 175 74 79 175 74 79 175 74 79 175 74 79 175 74 79 175 74 79 175 74 79 176 74 78 176 74 78 176 73 78 176 73 78 176 73 78 176 73 78 176 73 78 176 73 78 176 73 78 176 73 78 176 74 78 176 74 78 175 74 79 175 74 79 175 74 79 175 75 79 174 75 80 174 75 80 174 75 80 174 75 80 174 76 80 174 76 80 174 76 80 174 76 80 174 76 80 174 76 80 174 75 80 174 75 80 174 75 80 174 75 80 174 75 80 174 75 80 174 75 80 174 75 80 174 75 80 174 75 80 174 75 80 174 75 80 174 76 80 174 76 80 174 76 80 174 76 80 173 76 81 173 76 81 173 76 81 173 76 81 174 76 80 174 76 80 174 76 80 174 76 80 174 76 80 174 76 80 174 76 80 174 76 80 173 76 81 173 76 81 173 76 81 
174 75 80 174 75 80 174 75 80 174 75 80 174 75 80 174 75 80 174 75 80 174 75 80 174 75 80 174 75 80 174 75 80 174 75 80 174 75 80 174 76 80 174 76 80 174 76 80 174 76 80 174 76 80 174 76 80 174 76 80 174 76 80 174 76 80 174 76 80 173 76 81 173 76 81 173 76 81 173 76 81 173 76 81 173 76 81 173 76 81 173 76 81 173 76 81 174 75 80 174 75 80 174 75 80 175 74 79 175 74 79 176 74 78 176 73 78 176 73 78 176 73 78 176 73 78 176 73 78 176 74 78 175 74 79 175 75 79 174 75 80 174 76 80 173 76 81 173 76 81 173 77 81 173 76 81 173 76 81 174 76 80 174 75 80 175 74 79 177 73 77 178 72 76 179 71 75 180 70 74 181 69 73 182 68 72 182 68 72 182 68 72 182 68 72 182 68 72 181 69 73 180 69 74 179 70 75 178 71 76 177 72 77 177 73 77 176 74 78 175 74 79 175 75 79 174 75 80 174 75 80 174 76 80 174 76 80 174 76 80 174 75 80 174 75 80 174 75 80 174 75 80 174 75 80 175 75 79 175 74 79 175 74 79 175 74 79 176 74 78 176 73 78 176 73 78 176 73 78 177 73 77 177 73 77 177 73 77 177 73 77 176 73 78 176 73 78 176 73 78 176 74 78 175 74 79 175 74 79 175 74 79 175 75 79 175 75 79 175 75 79 175 75 79 175 75 79 175 74 79 175 74 79 175 74 79 175 74 79 175 74 79 175 74 79 175 74 79 175 74 79 175 75 79 175 75 79 175 75 79 175 75 79 175 75 79 175 75 79 175 75 79 175 74 79 175 74 79 175 74 79 175 74 79 176 74 78 176 74 78 176 73 78 176 73 78 176 73 78 176 74 78 176 74 78 176 74 78 175 74 79 175 74 79 175 74 79 175 75 79 174 75 80 174 75 80 174 75 80 174 75 80 174 75 80 174 76 80 174 76 80 174 76 80 174 76 80 174 76 80 174 75 80 174 75 80 174 75 80 174 75 80 174 75 80 174 75 80 174 75 80 174 75 80 174 75 80 174 75 80 174 75 80 174 76 80 174 76 80 174 76 80 174 76 80 174 76 80 174 76 80 174 76 80 174 76 80 174 75 80 174 75 80 174 75 80 174 75 80 174 75 80 174 75 80 174 75 80 174 75 80 174 75 80 174 75 80 174 76 80 173 76 81 
174 75 80 174 75 80 174 75 80 174 75 80 174 75 80 174 75 80 174 75 80 174 75 80 174 75 80 174 75 80 174 75 80 174 75 80 174 76 80 174 76 80 174 76 80 174 76 80 174 76 80 174 76 80 174 76 80 174 76 80 174 76 80 174 76 80 173 76 81 173 76 81 173 76 81 173 76 81 173 76 81 173 76 81 173 76 81 173 76 81 173 76 81 174 76 80 174 75 80 174 75 80 175 75 79 175 74 79 176 74 78 176 73 78 176 73 78 177 73 77 177 73 77 177 73 77 176 73 78 176 73 78 175 74 79 175 74 79 174 75 80 174 76 80 173 76 81 173 76 81 173 76 81 173 76 81 174 76 80 174 75 80 175 74 79 176 73 78 178 72 76 179 71 75 180 69 74 182 68 72 183 67 71 184 66 70 184 66 70 184 66 70 184 66 70 183 66 71 183 67 71 182 68 72 181 69 73 179 70 75 178 71 76 177 72 77 176 73 78 175 74 79 174 75 80 174 75 80 174 75 80 174 76 80 174 76 80 174 75 80 174 75 80 174 75 80 174 75 80 174 75 80 175 75 79 175 74 79 175 74 79 175 74 79 176 74 78 176 73 78 177 73 77 177 72 77 177 72 77 178 72 76 178 71 76 179 71 75 179 71 75 179 71 75 179 71 75 179 71 75 178 71 76 178 72 76 178 72 76 177 72 77 177 73 77 176 73 78 176 73 78 176 74 78 175 74 79 175 74 79 175 74 79 175 74 79 175 75 79 175 75 79 174 75 80 174 75 80 174 75 80 174 75 80 174 75 80 174 76 80 174 76 80 174 76 80 174 75 80 174 75 80 174 75 80 174 75 80 175 75 79 175 75 79 175 74 79 175 74 79 175 74 79 175 74 79 175 74 79 175 74 79 175 74 79 175 74 79 175 74 79 175 74 79 175 75 79 175 75 79 174 75 80 174 75 80 174 75 80 174 75 80 174 75 80 174 75 80 174 75 80 174 75 80 174 75 80 174 75 80 174 75 80 174 75 80 174 75 80 174 75 80 174 75 80 174 75 80 174 75 80 174 75 80 174 75 80 174 75 80 174 76 80 174 76 80 174 76 80 174 76 80 174 76 80 174 76 80 174 75 80 174 75 80 174 75 80 174 75 80 174 75 80 175 75 79 175 75 79 175 75 79 175 74 79 175 74 79 175 75 79 175 75 79 174 75 80 174 75 80 174 75 80 
175 75 79 175 75 79 175 75 79 175 75 79 174 75 80 174 75 80 174 75 80 174 75 80 174 75 80 174 75 80 174 75 80 174 76 80 174 76 80 174 76 80 174 76 80 174 76 80 174 76 80 174 76 80 174 76 80 174 76 80 174 76 80 174 76 80 173 76 81 173 76 81 173 76 81 173 76 81 173 76 81 173 76 81 173 76 81 173 76 81 173 76 81 174 76 80 174 75 80 175 75 79 175 74 79 176 74 78 176 73 78 176 73 78 177 73 77 177 72 77 177 72 77 177 73 77 177 73 77 176 73 78 176 74 78 175 74 79 175 75 79 174 75 80 174 76 80 173 76 81 173 76 81 174 76 80 174 75 80 175 74 79 176 73 78 177 72 77 179 71 75 180 69 74 182 68 72 183 67 71 184 66 70 185 65 69 185 65 69 185 65 69 185 65 69 184 65 70 183 66 71 182 67 72 181 69 73 179 70 75 178 71 76 177 73 77 176 74 78 175 74 79 174 75 80 174 75 80 174 76 80 174 76 80 174 76 80 174 75 80 174 75 80 174 75 80 174 75 80 175 75 79 175 75 79 175 74 79 175 74 79 175 74 79 176 74 78 176 73 78 177 73 77 177 72 77 178 71 76 179 71 75 179 70 75 180 69 74 181 69 73 181 69 73 181 68 73 181 68 73 181 69 73 181 69 73 180 69 74 180 70 74 179 71 75 178 71 76 177 72 77 177 73 77 176 73 78 176 74 78 175 74 79 175 75 79 174 75 80 174 75 80 174 76 80 173 76 81 173 76 81 173 76 81 173 76 81 173 76 81 173 76 81 173 76 81 173 76 81 173 76 81 173 76 81 173 76 81 174 76 80 174 75 80 174 75 80 174 75 80 175 75 79 175 75 79 175 75 79 175 75 79 175 75 79 175 75 79 175 75 79 174 75 80 174 75 80 174 75 80 174 75 80 174 75 80 174 75 80 174 75 80 174 75 80 174 75 80 174 75 80 174 75 80 174 75 80 174 75 80 174 75 80 174 75 80 174 75 80 174 75 80 174 75 80 174 75 80 174 75 80 174 75 80 174 75 80 174 75 80 174 76 80 174 76 80 174 76 80 174 76 80 174 75 80 174 75 80 174 75 80 174 75 80 175 75 79 175 74 79 175 74 79 175 74 79 176 74 78 176 74 78 176 74 78 176 74 78 176 74 78 176 74 78 175 74 79 175 74 79 175 74 79 
175 75 79 175 75 79 175 75 79 175 75 79 175 75 79 174 75 80 174 75 80 174 75 80 174 75 80 174 75 80 174 76 80 174 76 80 174 76 80 174 76 80 174 76 80 174 76 80 174 76 80 174 76 80 174 76 80 174 76 80 174 76 80 174 76 80 173 76 81 173 76 81 173 76 81 173 76 81 173 76 81 173 76 81 173 76 81 173 76 81 174 76 80 174 75 80 174 75 80 175 74 79 175 74 79 176 74 78 176 73 78 177 73 77 177 72 77 177 72 77 177 72 77 177 72 77 177 73 77 176 73 78 176 73 78 175 74 79 175 74 79 175 75 79 174 75 80 174 75 80 174 75 80 174 75 80 175 74 79 176 73 78 177 72 77 178 71 76 180 70 74 181 69 73 182 67 72 184 66 70 185 65 69 185 65 69 186 64 68 186 64 68 185 65 69 184 65 70 183 66 71 182 68 72 181 69 73 179 71 75 178 72 76 176 73 78 175 74 79 174 75 80 174 76 80 173 76 81 173 76 81 173 76 81 173 76 81 174 76 80 174 75 80 174 75 80 174 75 80 174 75 80 175 75 79 175 75 79 175 75 79 175 74 79 175 74 79 176 74 78 176 73 78 177 72 77 178 71 76 179 70 75 180 69 74 181 68 73 182 67 72 183 67 71 184 66 70 184 66 70 184 66 70 183 66 71 183 67 71 182 68 72 181 69 73 180 70 74 179 71 75 178 72 76 177 73 77 176 74 78 175 74 79 174 75 80 173 76 81 173 76 81 173 77 81 172 77 82 172 77 82 172 77 82 172 77 82 172 77 82 172 77 82 172 77 82 172 77 82 172 77 82 173 77 81 173 76 81 173 76 81 173 76 81 173 76 81 174 76 80 174 76 80 174 75 80 174 75 80 174 75 80 174 75 80 174 75 80 174 75 80 174 75 80 174 75 80 174 75 80 174 75 80 174 75 80 174 75 80 174 75 80 174 75 80 174 75 80 174 75 80 175 75 79 175 75 79 175 75 79 175 75 79 175 75 79 175 75 79 175 75 79 175 75 79 174 75 80 174 75 80 174 75 80 174 75 80 174 75 80 174 75 80 174 76 80 174 75 80 174 75 80 174 75 80 174 75 80 174 75 80 175 75 79 175 74 79 175 74 79 176 74 78 176 73 78 177 73 77 177 73 77 177 72 77 177 72 77 177 72 77 177 72 77 177 73 77 176 73 78 176 73 78 
175 74 79 175 74 79 175 74 79 175 75 79 175 75 79 174 75 80 174 75 80 174 75 80 174 75 80 174 75 80 174 76 80 174 76 80 174 76 80 174 76 80 174 76 80 174 76 80 174 76 80 174 76 80 174 76 80 174 76 80 174 76 80 174 76 80 173 76 81 173 76 81 173 76 81 173 76 81 173 76 81 173 76 81 173 76 81 174 76 80 174 75 80 174 75 80 175 75 79 175 74 79 176 74 78 176 73 78 176 73 78 177 73 77 177 72 77 177 72 77 177 72 77 177 72 77 177 73 77 176 73 78 176 73 78 176 74 78 175 74 79 175 74 79 175 74 79 175 74 79 175 74 79 176 74 78 176 73 78 177 73 77 178 72 76 179 71 75 180 70 74 181 68 73 182 67 72 183 66 71 184 66 70 185 65 69 185 65 69 185 65 69 184 66 70 183 66 71 182 68 72 181 69 73 179 70 75 178 72 76 176 73 78 175 74 79 174 75 80 173 76 81 173 76 81 172 77 82 172 77 82 173 77 81 173 76 81 173 76 81 174 76 80 174 75 80 174 75 80 174 75 80 174 75 80 174 75 80 174 75 80 174 75 80 174 75 80 175 74 79 176 74 78 177 73 77 178 72 76 179 71 75 180 69 74 182 68 72 183 67 71 184 65 70 185 65 69 186 64 68 186 64 68 186 64 68 185 65 69 184 66 70 183 67 71 181 68 73 180 70 74 178 71 76 177 72 77 176 74 78 175 75 79 174 76 80 173 76 81 172 77 82 172 77 82 172 78 82 171 78 83 171 78 83 171 78 83 172 78 82 172 77 82 172 77 82 172 77 82 172 77 82 172 77 82 172 77 82 173 77 81 173 77 81 173 76 81 173 76 81 173 76 81 173 76 81 173 76 81 173 76 81 173 76 81 173 76 81 173 76 81 173 76 81 174 76 80 174 76 80 174 75 80 174 75 80 174 75 80 174 75 80 175 75 79 175 75 79 175 74 79 175 74 79 175 74 79 175 74 79 175 74 79 175 74 79 175 74 79 175 74 79 175 74 79 175 75 79 175 75 79 174 75 80 174 75 80 174 75 80 174 75 80 174 75 80 174 75 80 174 75 80 174 75 80 174 75 80 175 75 79 175 74 79 176 74 78 176 73 78 177 73 77 177 72 77 178 72 76 178 72 76 178 71 76 178 71 76 178 71 76 178 71 76 178 71 76 178 72 76 177 72 77 
175 74 79 175 74 79 175 74 79 175 74 79 175 75 79 174 75 80 174 75 80 174 75 80 174 75 80 174 76 80 174 76 80 174 76 80 174 76 80 174 76 80 174 76 80 174 76 80 174 76 80 174 76 80 174 76 80 174 76 80 174 76 80 174 76 80 173 76 81 173 76 81 173 76 81 173 76 81 174 76 80 174 76 80 174 75 80 174 75 80 175 75 79 175 74 79 175 74 79 176 74 78 176 73 78 176 73 78 177 73 77 177 73 77 177 73 77 177 73 77 177 73 77 177 73 77 176 73 78 176 73 78 176 73 78 176 73 78 176 73 78 176 73 78 176 73 78 176 73 78 176 73 78 177 73 77 177 72 77 178 72 76 179 71 75 179 70 75 180 70 74 181 69 73 182 68 72 182 67 72 183 67 71 183 67 71 183 67 71 183 67 71 182 68 72 181 68 73 180 69 74 179 71 75 178 72 76 176 73 78 175 74 79 174 76 80 173 76 81 172 77 82 172 77 82 172 78 82 172 77 82 172 77 82 173 77 81 173 76 81 173 76 81 174 75 80 174 75 80 174 75 80 174 75 80 174 76 80 173 76 81 173 76 81 173 76 81 174 75 80 174 75 80 175 74 79 177 73 77 178 71 76 180 70 74 182 68 72 183 66 71 185 65 69 186 64 68 187 63 67 187 63 67 187 63 67 186 64 68 185 65 69 184 66 70 182 67 72 181 69 73 179 71 75 177 72 77 176 74 78 174 75 80 173 76 81 172 77 82 172 77 82 171 78 83 171 78 83 171 78 83 171 78 83 171 78 83 172 77 82 172 77 82 172 77 82 172 77 82 172 77 82 172 77 82 172 77 82 172 77 82 172 77 82 172 77 82 172 77 82 172 77 82 172 77 82 172 77 82 172 77 82 173 77 81 173 77 81 173 76 81 173 76 81 173 76 81 173 76 81 174 76 80 174 75 80 174 75 80 174 75 80 175 75 79 175 74 79 175 74 79 175 74 79 176 74 78 176 74 78 176 74 78 176 74 78 176 74 78 176 74 78 175 74 79 175 74 79 175 74 79 175 75 79 175 75 79 174 75 80 174 75 80 174 75 80 174 75 80 174 75 80 174 75 80 175 75 79 175 74 79 176 74 78 176 73 78 177 73 77 177 72 77 178 71 76 179 71 75 179 70 75 180 70 74 180 70 74 180 70 74 180 70 74 180 70 74 179 70 75 179 71 75 
175 74 79 175 74 79 175 74 79 175 74 79 175 75 79 174 75 80 174 75 80 174 75 80 174 75 80 174 76 80 174 76 80 174 76 80 174 76 80 174 76 80 174 76 80 174 76 80 174 76 80 174 76 80 174 76 80 174 76 80 174 76 80 174 76 80 174 76 80 174 76 80 174 76 80 174 75 80 174 75 80 174 75 80 175 75 79 175 74 79 175 74 79 176 74 78 176 73 78 176 73 78 176 73 78 176 73 78 176 73 78 176 73 78 176 73 78 176 73 78 176 73 78 176 73 78 176 73 78 176 73 78 176 73 78 176 73 78 176 73 78 177 73 77 177 72 77 177 72 77 178 72 76 178 71 76 178 71 76 179 71 75 179 71 75 179 70 75 180 70 74 180 70 74 180 69 74 180 69 74 181 69 73 181 69 73 180 69 74 180 70 74 180 70 74 179 71 75 178 72 76 177 73 77 175 74 79 174 75 80 173 76 81 172 77 82 171 78 83 171 78 83 171 78 83 171 78 83 171 78 83 172 78 82 172 77 82 173 76 81 173 76 81 174 76 80 174 75 80 174 75 80 174 76 80 173 76 81 173 76 81 173 77 81 172 77 82 173 77 81 173 76 81 174 75 80 175 74 79 177 72 77 179 71 75 181 69 73 183 67 71 185 65 69 186 64 68 187 63 67 188 63 66 187 63 67 187 63 67 186 64 68 184 66 70 183 67 71 181 69 73 179 71 75 177 73 77 175 74 79 174 75 80 173 76 81 172 77 82 172 77 82 171 78 83 172 78 82 172 77 82 172 77 82 172 77 82 173 77 81 173 76 81 173 76 81 173 76 81 173 76 81 173 76 81 173 76 81 173 76 81 173 77 81 172 77 82 172 77 82 172 77 82 172 77 82 172 77 82 172 77 82 172 77 82 172 77 82 172 77 82 173 77 81 173 76 81 173 76 81 173 76 81 174 75 80 174 75 80 174 75 80 175 74 79 175 74 79 175 74 79 176 74 78 176 73 78 176 73 78 176 73 78 176 73 78 176 73 78 176 73 78 176 73 78 176 74 78 175 74 79 175 74 79 175 74 79 175 75 79 175 75 79 174 75 80 174 75 80 174 75 80 175 75 79 175 74 79 175 74 79 176 73 78 177 73 77 177 72 77 178 72 76 179 71 75 179 70 75 180 70 74 181 69 73 181 69 73 181 68 73 181 68 73 181 68 73 181 69 73 181 69 73 
176 74 78 175 74 79 175 74 79 175 74 79 175 75 79 174 75 80 174 75 80 174 75 80 174 75 80 174 76 80 174 76 80 174 76 80 174 76 80 174 75 80 174 75 80 174 75 80 174 75 80 174 75 80 174 76 80 174 76 80 174 76 80 174 76 80 174 76 80 174 75 80 174 75 80 174 75 80 175 75 79 175 74 79 175 74 79 176 74 78 176 73 78 177 73 77 177 73 77 177 73 77 177 73 77 177 73 77 176 73 78 176 73 78 176 74 78 176 74 78 175 74 79 175 74 79 175 74 79 176 74 78 176 73 78 176 73 78 177 73 77 177 72 77 178 71 76 179 71 75 179 71 75 179 70 75 179 70 75 179 70 75 179 70 75 179 71 75 179 71 75 178 71 76 178 71 76 178 72 76 178 72 76 178 72 76 177 72 77 177 72 77 176 73 78 176 73 78 175 74 79 174 75 80 173 76 81 172 77 82 171 78 83 171 78 83 170 79 84 170 79 84 170 79 84 170 79 84 170 79 84 171 78 83 172 77 82 173 77 81 173 76 81 174 76 80 174 75 80 174 75 80 174 76 80 173 76 81 172 77 82 172 77 82 172 78 82 172 78 82 172 77 82 173 77 81 174 75 80 175 74 79 177 72 77 179 70 75 181 68 73 183 67 71 185 65 69 186 64 68 187 63 67 187 63 67 186 64 68 185 65 69 184 66 70 182 68 72 180 70 74 178 71 76 176 73 78 175 74 79 174 76 80 173 76 81 172 77 82 172 77 82 172 77 82 173 77 81 173 76 81 173 76 81 174 75 80 174 75 80 174 75 80 175 75 79 175 75 79 174 75 80 174 75 80 174 75 80 174 76 80 173 76 81 173 76 81 173 77 81 172 77 82 172 77 82 172 77 82 172 77 82 172 77 82 172 77 82 172 77 82 172 77 82 173 76 81 173 76 81 173 76 81 174 76 80 174 75 80 174 75 80 175 74 79 175 74 79 176 74 78 176 73 78 176 73 78 176 73 78 177 73 77 177 73 77 177 73 77 177 73 77 176 73 78 176 73 78 176 73 78 176 74 78 175 74 79 175 74 79 175 75 79 175 75 79 175 75 79 175 75 79 175 75 79 175 74 79 175 74 79 176 73 78 177 73 77 177 72 77 178 71 76 179 70 75 180 70 74 181 69 73 181 68 73 182 68 72 182 67 72 183 67 71 183 67 71 182 67 72 182 68 72 
176 74 78 175 74 79 175 74 79 175 75 79 174 75 80 174 75 80 174 75 80 174 75 80 174 75 80 174 75 80 174 75 80 174 75 80 174 75 80 174 75 80 174 75 80 174 75 80 174 75 80 174 75 80 174 75 80 174 76 80 174 76 80 174 76 80 174 75 80 174 75 80 174 75 80 175 75 79 175 74 79 176 74 78 176 73 78 177 73 77 177 72 77 177 72 77 178 72 76 177 72 77 177 72 77 177 73 77 176 73 78 176 74 78 175 74 79 175 75 79 174 75 80 174 75 80 175 75 79 175 74 79 176 74 78 176 73 78 177 72 77 178 71 76 179 71 75 180 70 74 180 70 74 180 69 74 180 70 74 180 70 74 179 71 75 178 71 76 177 72 77 177 73 77 176 73 78 175 74 79 175 75 79 174 75 80 174 75 80 174 75 80 174 76 80 173 76 81 173 76 81 172 77 82 172 77 82 171 78 83 170 79 84 170 79 84 169 80 85 169 80 85 169 80 85 169 80 85 170 79 84 171 78 83 172 78 82 172 77 82 173 76 81 174 75 80 174 75 80 174 75 80 174 75 80 173 76 81 173 77 81 172 77 82 171 78 83 171 78 83 171 78 83 171 78 83 172 77 82 174 76 80 175 74 79 177 72 77 179 70 75 181 68 73 183 67 71 184 66 70 185 65 69 185 65 69 184 66 70 183 66 71 182 68 72 180 69 74 179 71 75 177 72 77 176 74 78 175 75 79 174 76 80 173 76 81 173 76 81 173 76 81 174 75 80 175 75 79 175 74 79 176 74 78 176 73 78 177 73 77 177 73 77 177 73 77 177 73 77 176 73 78 176 73 78 175 74 79 175 74 79 174 75 80 174 75 80 173 76 81 173 76 81 173 77 81 172 77 82 172 77 82 172 77 82 172 77 82 172 77 82 173 77 81 173 76 81 173 76 81 173 76 81 174 76 80 174 75 80 174 75 80 175 75 79 175 74 79 176 74 78 176 73 78 176 73 78 177 73 77 177 73 77 177 72 77 177 72 77 177 72 77 177 73 77 177 73 77 176 73 78 176 73 78 176 74 78 175 74 79 175 74 79 175 74 79 175 75 79 175 75 79 175 75 79 175 74 79 175 74 79 176 73 78 177 73 77 177 72 77 178 71 76 179 70 75 180 69 74 181 69 73 182 68 72 183 67 71 183 67 71 183 66 71 184 66 70 183 66 71 183 67 71 
176 74 78 175 74 79 175 74 79 175 75 79 174 75 80 174 75 80 174 75 80 174 75 80 174 75 80 174 75 80 174 75 80 174 75 80 174 75 80 174 75 80 174 75 80 174 75 80 174 75 80 174 75 80 174 75 80 174 75 80 174 75 80 174 75 80 174 75 80 174 75 80 175 75 79 175 74 79 176 73 78 177 73 77 177 72 77 178 72 76 178 71 76 178 71 76 178 71 76 178 71 76 178 72 76 177 72 77 176 73 78 175 74 79 175 75 79 174 75 80 174 76 80 174 76 80 174 75 80 174 75 80 175 74 79 176 73 78 178 72 76 179 71 75 180 70 74 180 69 74 181 69 73 181 69 73 180 69 74 180 70 74 179 71 75 177 72 77 176 73 78 175 75 79 174 76 80 173 76 81 172 77 82 172 77 82 172 78 82 171 78 83 172 78 82 172 78 82 171 78 83 171 78 83 171 78 83 170 79 84 170 79 84 169 80 85 169 80 85 169 80 85 169 80 85 169 80 85 170 79 84 171 78 83 172 77 82 173 76 81 174 75 80 175 75 79 175 74 79 175 74 79 175 75 79 174 75 80 173 76 81 172 77 82 171 78 83 171 78 83 170 79 84 170 79 84 171 78 83 172 77 82 173 76 81 175 74 79 177 73 77 179 71 75 180 70 74 181 69 73 182 68 72 182 68 72 182 68 72 181 69 73 180 70 74 178 71 76 177 72 77 176 74 78 175 74 79 174 75 80 174 75 80 174 75 80 175 75 79 175 74 79 176 73 78 177 72 77 178 71 76 179 71 75 180 70 74 180 70 74 180 70 74 180 70 74 179 70 75 179 71 75 178 72 76 177 72 77 176 73 78 176 74 78 175 74 79 174 75 80 174 75 80 174 76 80 173 76 81 173 76 81 173 76 81 173 76 81 173 76 81 173 76 81 173 76 81 173 76 81 174 76 80 174 76 80 174 75 80 174 75 80 175 75 79 175 74 79 175 74 79 176 74 78 176 73 78 177 73 77 177 73 77 177 72 77 177 72 77 177 72 77 177 72 77 177 72 77 177 73 77 176 73 78 176 73 78 176 74 78 175 74 79 175 74 79 175 75 79 175 75 79 175 75 79 175 75 79 175 74 79 176 74 78 176 73 78 177 72 77 178 71 76 179 70 75 180 69 74 181 69 73 182 68 72 183 67 71 183 66 71 184 66 70 184 66 70 184 66 70 184 66 70 
176 74 78 175 74 79 175 75 79 174 75 80 174 75 80 174 75 80 174 75 80 174 75 80 174 75 80 174 75 80 174 75 80 175 75 79 175 75 79 175 75 79 175 75 79 175 75 79 174 75 80 174 75 80 174 75 80 174 75 80 174 75 80 174 75 80 174 75 80 175 75 79 175 74 79 176 74 78 177 73 77 178 72 76 178 71 76 179 71 75 179 70 75 180 70 74 179 70 75 179 71 75 178 71 76 177 72 77 176 73 78 175 74 79 174 75 80 173 76 81 173 76 81 173 76 81 173 76 81 174 75 80 175 74 79 176 73 78 178 72 76 179 70 75 180 69 74 181 69 73 181 68 73 181 69 73 180 69 74 179 70 75 178 72 76 176 73 78 175 75 79 173 76 81 172 77 82 171 78 83 170 79 84 170 79 84 170 79 84 170 79 84 171 78 83 171 78 83 171 78 83 171 78 83 171 78 83 171 78 83 170 79 84 170 79 84 169 80 85 169 80 85 169 80 85 169 80 85 170 79 84 171 78 83 172 77 82 173 76 81 175 75 79 176 74 78 176 73 78 177 73 77 176 73 78 176 74 78 175 74 79 174 76 80 173 77 81 171 78 83 171 78 83 170 79 84 170 79 84 171 78 83 172 77 82 173 76 81 174 75 80 176 74 78 177 72 77 178 72 76 178 71 76 179 71 75 178 71 76 178 72 76 177 73 77 176 73 78 175 74 79 175 75 79 174 75 80 174 75 80 175 74 79 176 74 78 177 73 77 178 71 76 179 70 75 181 69 73 182 68 72 183 67 71 183 67 71 183 66 71 183 67 71 183 67 71 182 68 72 181 69 73 180 69 74 179 70 75 178 71 76 177 72 77 177 73 77 176 73 78 175 74 79 175 74 79 175 75 79 175 75 79 174 75 80 174 75 80 174 75 80 174 75 80 174 75 80 174 75 80 174 75 80 174 75 80 174 75 80 174 75 80 174 75 80 175 75 79 175 74 79 176 74 78 176 73 78 176 73 78 177 73 77 177 72 77 177 72 77 177 72 77 177 72 77 177 72 77 177 72 77 177 73 77 176 73 78 176 74 78 175 74 79 175 74 79 175 75 79 174 75 80 174 75 80 174 75 80 175 75 79 175 74 79 176 74 78 177 73 77 178 72 76 179 71 75 180 70 74 181 69 73 182 68 72 183 67 71 183 67 71 184 66 70 184 66 70 184 66 70 184 66 70 
176 74 78 175 74 79 175 75 79 174 75 80 174 75 80 174 75 80 174 75 80 174 75 80 174 75 80 175 75 79 175 75 79 175 74 79 175 74 79 175 74 79 175 74 79 175 74 79 175 74 79 175 75 79 174 75 80 174 75 80 174 75 80 174 75 80 174 75 80 175 75 79 175 74 79 176 73 78 177 72 77 178 71 76 179 70 75 180 70 74 180 69 74 181 69 73 180 69 74 180 70 74 179 71 75 178 72 76 176 73 78 175 74 79 174 75 80 173 76 81 172 77 82 172 77 82 173 76 81 174 76 80 175 74 79 176 73 78 178 72 76 179 70 75 180 69 74 181 68 73 181 68 73 181 69 73 180 69 74 179 71 75 177 72 77 175 74 79 174 76 80 172 77 82 171 78 83 170 79 84 169 80 85 170 79 84 170 79 84 171 78 83 172 78 82 172 77 82 173 76 81 173 76 81 173 76 81 173 77 81 172 77 82 171 78 83 171 78 83 170 79 84 170 79 84 170 79 84 171 78 83 172 77 82 173 76 81 175 75 79 176 73 78 177 72 77 178 71 76 179 71 75 179 71 75 178 71 76 177 72 77 176 73 78 175 75 79 173 76 81 172 77 82 171 78 83 171 78 83 171 79 83 171 78 83 172 78 82 172 77 82 173 76 81 174 75 80 175 75 79 175 74 79 175 74 79 175 74 79 174 75 80 174 75 80 174 76 80 173 76 81 173 76 81 174 75 80 175 75 79 176 73 78 178 72 76 179 70 75 181 68 73 183 67 71 185 65 69 186 64 68 187 63 67 187 63 67 187 63 67 186 64 68 186 64 68 185 65 69 183 66 71 182 68 72 181 69 73 180 70 74 179 71 75 178 71 76 178 72 76 177 72 77 177 73 77 176 73 78 176 73 78 176 73 78 176 74 78 175 74 79 175 74 79 175 75 79 174 75 80 174 75 80 174 75 80 174 75 80 174 75 80 174 75 80 174 75 80 175 75 79 175 74 79 176 74 78 176 73 78 176 73 78 177 73 77 177 72 77 177 72 77 177 72 77 177 72 77 177 72 77 177 73 77 176 73 78 176 73 78 175 74 79 175 74 79 175 75 79 174 75 80 174 75 80 174 75 80 174 75 80 175 75 79 175 74 79 176 74 78 177 73 77 178 72 76 179 71 75 180 70 74 181 69 73 182 68 72 183 67 71 183 67 71 184 66 70 184 66 70 184 66 70 
175 74 79 175 74 79 174 75 80 174 75 80 174 75 80 174 75 80 174 75 80 174 75 80 175 75 79 175 74 79 175 74 79 176 74 78 176 74 78 176 74 78 176 74 78 176 74 78 175 74 79 175 74 79 174 75 80 174 75 80 174 75 80 174 75 80 174 75 80 175 74 79 176 74 78 177 73 77 178 72 76 179 71 75 180 70 74 181 69 73 181 68 73 182 68 72 181 68 73 181 69 73 180 70 74 178 71 76 177 73 77 175 74 79 174 75 80 173 76 81 172 77 82 172 77 82 173 77 81 173 76 81 175 75 79 176 73 78 178 72 76 179 70 75 180 69 74 181 69 73 181 68 73 181 69 73 180 70 74 178 71 76 177 73 77 175 75 79 173 76 81 172 77 82 171 78 83 170 79 84 170 79 84 171 78 83 172 77 82 173 76 81 174 75 80 175 74 79 176 73 78 176 73 78 176 73 78 175 74 79 175 75 79 173 76 81 172 77 82 172 78 82 171 78 83 171 78 83 172 77 82 173 76 81 175 75 79 176 73 78 178 71 76 180 70 74 181 69 73 182 68 72 182 68 72 182 68 72 181 69 73 179 70 75 177 72 77 176 74 78 174 75 80 173 77 81 172 78 82 171 78 83 171 78 83 171 78 83 171 78 83 171 78 83 172 77 82 172 77 82 172 77 82 172 77 82 172 77 82 172 77 82 171 78 83 172 78 82 172 77 82 173 76 81 174 75 80 176 74 78 178 72 76 180 70 74 182 68 72 184 65 70 187 63 67 188 62 66 189 61 65 190 60 64 190 60 64 190 60 64 189 61 65 188 62 66 187 63 67 185 65 69 184 66 70 182 67 72 181 69 73 180 69 74 180 70 74 179 70 75 179 71 75 178 71 76 178 71 76 178 71 76 178 72 76 177 72 77 177 72 77 176 73 78 176 74 78 175 74 79 175 75 79 174 75 80 174 75 80 174 75 80 174 76 80 174 75 80 174 75 80 175 75 79 175 74 79 176 74 78 176 73 78 176 73 78 177 73 77 177 72 77 177 72 77 177 72 77 177 72 77 177 73 77 176 73 78 176 74 78 175 74 79 175 75 79 174 75 80 174 75 80 174 76 80 174 76 80 174 76 80 174 75 80 174 75 80 175 74 79 176 74 78 177 73 77 178 72 76 179 71 75 180 70 74 180 69 74 181 68 73 182 68 72 183 67 71 183 67 71 183 67 71 
175 74 79 175 75 79 174 75 80 174 75 80 174 75 80 174 75 80 174 75 80 175 75 79 175 74 79 175 74 79 176 73 78 176 73 78 176 73 78 177 73 77 176 73 78 176 73 78 176 74 78 175 74 79 175 75 79 174 75 80 174 75 80 174 75 80 174 75 80 175 74 79 176 74 78 177 72 77 178 71 76 179 70 75 181 69 73 182 68 72 182 68 72 182 67 72 182 68 72 181 68 73 180 69 74 179 71 75 177 72 77 176 74 78 174 75 80 173 76 81 172 77 82 172 77 82 173 77 81 173 76 81 175 75 79 176 73 78 178 72 76 179 71 75 180 70 74 181 69 73 181 69 73 180 70 74 179 70 75 178 72 76 176 73 78 175 75 79 173 76 81 172 77 82 172 77 82 172 77 82 173 76 81 174 75 80 176 74 78 177 72 77 179 71 75 180 70 74 181 69 73 181 69 73 180 69 74 179 70 75 178 72 76 176 73 78 175 75 79 173 76 81 173 76 81 173 76 81 173 76 81 175 75 79 176 73 78 178 71 76 181 69 73 183 67 71 184 66 70 185 65 69 186 64 68 185 65 69 184 65 70 183 67 71 181 69 73 179 71 75 177 73 77 175 74 79 173 76 81 172 77 82 171 78 83 171 78 83 170 79 84 170 79 84 170 79 84 170 79 84 170 79 84 170 79 84 170 79 84 170 79 84 170 79 84 170 79 84 171 78 83 173 77 81 175 75 79 177 73 77 179 70 75 182 68 72 185 65 69 187 63 67 190 61 64 191 59 63 192 58 62 193 58 61 193 58 61 192 58 62 191 60 63 189 61 65 187 63 67 186 64 68 184 66 70 183 67 71 182 68 72 181 69 73 181 69 73 180 69 74 180 69 74 180 69 74 180 70 74 180 70 74 180 70 74 179 70 75 179 71 75 178 72 76 177 72 77 176 73 78 175 74 79 175 75 79 174 75 80 174 76 80 173 76 81 173 76 81 174 76 80 174 75 80 174 75 80 175 74 79 176 74 78 176 73 78 176 73 78 177 73 77 177 73 77 177 73 77 177 73 77 176 73 78 176 73 78 176 74 78 175 74 79 175 75 79 174 75 80 174 76 80 173 76 81 173 76 81 173 76 81 173 76 81 174 76 80 174 75 80 175 75 79 175 74 79 176 73 78 177 72 77 178 71 76 179 71 75 180 70 74 180 69 74 181 69 73 182 68 72 182 68 72 
175 74 79 174 75 80 174 75 80 174 76 80 174 76 80 174 75 80 174 75 80 175 74 79 175 74 79 176 73 78 177 73 77 177 72 77 177 72 77 177 72 77 177 72 77 177 73 77 176 73 78 176 74 78 175 74 79 174 75 80 174 75 80 174 75 80 174 75 80 175 74 79 176 73 78 177 72 77 178 71 76 180 70 74 181 69 73 182 68 72 183 67 71 183 67 71 183 67 71 182 68 72 181 69 73 180 70 74 178 71 76 177 73 77 175 74 79 174 75 80 173 76 81 173 76 81 173 76 81 174 76 80 175 75 79 176 73 78 177 72 77 178 71 76 179 70 75 180 70 74 180 70 74 179 70 75 178 71 76 177 72 77 176 73 78 175 74 79 175 75 79 174 75 80 175 74 79 176 73 78 177 72 77 179 70 75 181 68 73 183 67 71 185 65 69 186 64 68 186 64 68 186 64 68 185 65 69 183 67 71 181 69 73 179 71 75 177 73 77 175 74 79 174 75 80 174 75 80 175 74 79 176 73 78 179 71 75 181 69 73 184 66 70 186 64 68 188 62 66 189 61 65 190 60 64 190 60 64 189 61 65 187 63 67 185 65 69 182 67 72 180 70 74 178 72 76 176 74 78 174 75 80 173 77 81 172 78 82 171 78 83 170 79 84 170 79 84 170 79 84 169 80 85 169 80 85 169 80 85 169 80 85 170 79 84 170 79 84 172 77 82 173 76 81 176 74 78 178 71 76 181 68 73 184 66 70 187 63 67 190 61 64 192 59 62 193 57 61 194 57 60 194 57 60 193 57 61 192 58 62 191 60 63 189 61 65 187 63 67 185 65 69 184 66 70 182 67 72 182 68 72 181 68 73 181 69 73 181 69 73 181 68 73 181 68 73 182 68 72 181 68 73 181 69 73 181 69 73 180 70 74 179 71 75 178 72 76 177 73 77 176 74 78 175 74 79 174 75 80 174 76 80 173 76 81 173 76 81 173 76 81 174 76 80 174 75 80 174 75 80 175 74 79 175 74 79 176 73 78 176 73 78 176 73 78 176 73 78 176 73 78 176 73 78 176 74 78 175 74 79 175 75 79 174 75 80 174 75 80 173 76 81 173 76 81 173 76 81 173 77 81 173 76 81 173 76 81 173 76 81 174 76 80 174 75 80 175 74 79 176 74 78 176 73 78 177 72 77 178 72 76 179 71 75 179 70 75 180 70 74 180 70 74 
175 75 79 174 75 80 174 76 80 174 76 80 174 75 80 174 75 80 175 75 79 175 74 79 176 73 78 177 73 77 177 72 77 178 72 76 178 71 76 178 71 76 178 72 76 177 72 77 177 73 77 176 73 78 175 74 79 175 75 79 174 75 80 174 75 80 174 75 80 175 74 79 176 74 78 177 72 77 178 71 76 180 70 74 181 69 73 182 68 72 183 67 71 183 66 71 183 66 71 183 67 71 182 68 72 181 69 73 179 71 75 177 72 77 176 73 78 175 75 79 174 75 80 174 76 80 174 76 80 174 75 80 175 75 79 176 74 78 177 73 77 177 72 77 178 71 76 178 71 76 178 71 76 178 71 76 178 72 76 177 72 77 177 73 77 177 73 77 177 73 77 178 72 76 179 71 75 181 69 73 183 67 71 186 64 68 188 62 66 190 60 64 192 59 62 192 58 62 192 58 62 191 59 63 189 61 65 187 63 67 184 66 70 181 68 73 179 71 75 177 73 77 176 74 78 176 74 78 177 73 77 179 71 75 181 69 73 184 66 70 187 63 67 190 60 64 192 58 62 194 57 60 194 56 60 194 56 60 193 58 61 191 59 63 188 62 66 186 64 68 183 67 71 180 69 74 178 72 76 176 73 78 174 75 80 173 76 81 172 77 82 172 77 82 171 78 83 171 78 83 170 79 84 170 79 84 170 79 84 170 79 84 171 78 83 172 77 82 173 76 81 175 74 79 178 72 76 180 69 74 183 67 71 186 64 68 188 62 66 191 60 63 192 58 62 193 57 61 193 57 61 193 57 61 192 58 62 190 60 64 188 62 66 186 64 68 185 65 69 183 67 71 182 68 72 181 69 73 181 69 73 181 69 73 181 69 73 181 68 73 182 68 72 182 68 72 183 67 71 183 67 71 182 67 72 182 68 72 181 69 73 180 70 74 179 71 75 177 72 77 176 73 78 175 74 79 174 75 80 174 76 80 173 76 81 173 76 81 173 76 81 173 76 81 174 76 80 174 75 80 175 75 79 175 74 79 175 74 79 176 74 78 176 74 78 176 74 78 176 74 78 176 74 78 175 74 79 175 74 79 174 75 80 174 75 80 174 76 80 173 76 81 173 76 81 173 76 81 173 77 81 172 77 82 172 77 82 173 77 81 173 76 81 173 76 81 174 76 80 174 75 80 175 75 79 175 74 79 176 73 78 176 73 78 177 72 77 178 72 76 178 71 76 
174 75 80 174 75 80 174 76 80 174 76 80 174 75 80 174 75 80 175 74 79 176 74 78 177 73 77 177 72 77 178 71 76 179 71 75 179 71 75 179 71 75 178 71 76 178 72 76 177 72 77 176 73 78 175 74 79 175 75 79 174 75 80 174 75 80 174 75 80 175 75 79 176 74 78 177 73 77 178 71 76 179 70 75 181 69 73 182 68 72 183 67 71 184 66 70 184 66 70 183 67 71 182 67 72 181 68 73 180 70 74 179 71 75 177 72 77 176 73 78 175 74 79 174 75 80 174 75 80 174 75 80 175 75 79 175 74 79 176 73 78 176 73 78 177 73 77 177 72 77 177 72 77 177 72 77 177 72 77 177 72 77 178 72 76 179 71 75 180 70 74 182 68 72 184 66 70 187 63 67 190 60 64 193 58 61 195 55 59 197 53 57 198 52 56 198 52 56 197 53 57 195 55 59 193 58 61 189 61 65 186 64 68 182 67 72 180 70 74 178 72 76 177 73 77 177 72 77 178 71 76 181 69 73 184 66 70 187 63 67 191 59 63 194 56 60 196 54 58 198 53 56 198 52 56 198 53 56 196 54 58 194 57 60 191 59 63 188 62 66 185 65 69 182 68 72 180 70 74 178 72 76 176 73 78 175 74 79 174 75 80 174 75 80 174 76 80 173 76 81 173 76 81 173 76 81 173 76 81 173 76 81 174 75 80 175 75 79 176 73 78 178 72 76 180 70 74 182 68 72 184 66 70 187 63 67 188 62 66 190 60 64 191 59 63 191 59 63 190 60 64 189 61 65 188 62 66 186 64 68 184 66 70 182 68 72 180 69 74 179 70 75 178 71 76 178 71 76 178 71 76 179 71 75 180 70 74 181 69 73 182 68 72 182 67 72 183 67 71 183 67 71 183 67 71 182 68 72 181 68 73 180 69 74 179 71 75 178 72 76 176 73 78 175 74 79 174 75 80 174 75 80 173 76 81 173 76 81 173 76 81 173 76 81 174 75 80 174 75 80 174 75 80 175 75 79 175 74 79 175 74 79 175 74 79 175 74 79 175 74 79 175 74 79 175 75 79 174 75 80 174 75 80 174 75 80 174 76 80 173 76 81 173 76 81 173 76 81 173 76 81 173 77 81 172 77 82 172 77 82 172 77 82 173 77 81 173 77 81 173 76 81 173 76 81 173 76 81 174 75 80 174 75 80 175 74 79 175 74 79 176 74 78 
174 75 80 174 75 80 174 76 80 174 76 80 174 75 80 175 75 79 175 74 79 176 73 78 177 72 77 178 71 76 179 71 75 179 70 75 180 70 74 179 70 75 179 71 75 178 71 76 178 72 76 177 73 77 176 74 78 175 74 79 174 75 80 174 75 80 174 75 80 174 75 80 175 74 79 176 73 78 178 72 76 179 71 75 180 69 74 182 68 72 183 67 71 183 66 71 184 66 70 183 66 71 183 67 71 182 68 72 181 69 73 179 70 75 178 71 76 177 72 77 176 73 78 175 74 79 175 74 79 175 75 79 175 75 79 175 74 79 175 74 79 175 74 79 175 74 79 176 74 78 176 73 78 176 73 78 177 73 77 178 72 76 179 70 75 181 69 73 184 66 70 187 63 67 190 60 64 193 57 61 197 54 57 200 51 54 202 49 52 204 47 50 204 47 50 203 48 51 201 50 53 198 53 56 194 56 60 190 60 64 186 64 68 182 68 72 179 71 75 177 72 77 177 73 77 178 72 76 180 70 74 183 67 71 187 63 67 191 59 63 195 56 59 198 53 56 200 50 54 202 49 52 202 49 52 201 50 53 199 52 55 196 55 58 192 58 62 189 61 65 186 64 68 183 67 71 181 69 73 179 71 75 178 72 76 177 72 77 177 72 77 177 72 77 177 72 77 177 72 77 178 72 76 178 72 76 178 72 76 178 71 76 178 71 76 179 70 75 180 70 74 181 69 73 182 67 72 184 66 70 185 65 69 186 64 68 187 63 67 187 63 67 187 63 67 186 64 68 185 65 69 183 67 71 181 69 73 179 70 75 177 72 77 176 74 78 174 75 80 174 75 80 174 75 80 174 75 80 175 74 79 176 73 78 178 72 76 179 70 75 181 69 73 182 68 72 182 67 72 183 67 71 182 67 72 182 68 72 181 69 73 180 70 74 179 71 75 177 72 77 176 73 78 175 74 79 175 75 79 174 75 80 174 75 80 174 75 80 174 75 80 174 75 80 174 75 80 174 75 80 175 75 79 175 75 79 175 75 79 175 75 79 175 75 79 175 75 79 174 75 80 174 75 80 174 75 80 174 75 80 174 75 80 174 75 80 174 76 80 174 76 80 174 76 80 174 76 80 173 76 81 173 76 81 173 76 81 173 76 81 173 77 81 172 77 82 172 77 82 172 77 82 172 77 82 172 77 82 172 77 82 172 77 82 173 77 81 173 76 81 174 76 80 
174 75 80 174 76 80 174 76 80 174 75 80 174 75 80 175 74 79 176 73 78 177 72 77 178 72 76 179 71 75 180 70 74 180 70 74 180 69 74 180 70 74 180 70 74 179 71 75 178 72 76 177 73 77 176 73 78 175 74 79 174 75 80 174 75 80 174 76 80 174 75 80 175 75 79 176 74 78 177 73 77 178 71 76 180 70 74 181 69 73 182 68 72 183 67 71 183 67 71 183 67 71 183 67 71 182 68 72 181 68 73 180 69 74 179 70 75 178 72 76 177 72 77 176 73 78 175 74 79 175 75 79 174 75 80 174 75 80 174 75 80 174 75 80 174 75 80 174 75 80 175 75 79 176 74 78 177 73 77 179 71 75 181 69 73 184 66 70 188 62 66 192 59 62 196 55 58 200 51 54 203 48 51 206 45 48 207 44 47 208 43 46 207 44 47 205 46 49 202 49 52 197 53 57 192 58 62 187 63 67 183 67 71 179 70 75 177 73 77 175 74 79 176 74 78 178 72 76 181 69 73 185 65 69 190 61 64 194 56 60 198 52 56 202 49 52 204 47 50 204 47 50 204 47 50 202 49 52 199 52 55 196 55 58 192 59 62 188 62 66 185 65 69 182 68 72 180 70 74 179 71 75 178 71 76 179 71 75 179 70 75 180 69 74 181 68 73 182 67 72 183 67 71 184 66 70 184 66 70 185 65 69 185 65 69 185 65 69 185 65 69 185 65 69 185 65 69 185 65 69 185 65 69 184 66 70 183 67 71 182 68 72 180 69 74 178 71 76 176 73 78 174 75 80 172 77 82 170 79 84 168 81 86 167 82 87 167 82 87 167 82 87 168 81 86 170 79 84 171 78 83 173 76 81 175 74 79 177 72 77 179 71 75 180 69 74 181 69 73 181 68 73 181 69 73 180 69 74 180 70 74 179 71 75 178 72 76 177 73 77 176 73 78 175 74 79 175 74 79 175 74 79 175 74 79 175 74 79 175 74 79 175 74 79 175 74 79 175 74 79 175 74 79 175 74 79 175 75 79 174 75 80 174 75 80 174 75 80 174 76 80 174 76 80 173 76 81 174 76 80 174 76 80 174 75 80 174 75 80 174 75 80 174 75 80 175 75 79 174 75 80 174 75 80 174 75 80 174 76 80 173 76 81 173 77 81 172 77 82 171 78 83 171 78 83 171 78 83 171 78 83 171 79 83 171 78 83 171 78 83 171 78 83 
174 75 80 174 76 80 174 76 80 174 75 80 175 75 79 175 74 79 176 73 78 178 72 76 179 71 75 180 70 74 180 69 74 181 69 73 181 69 73 181 69 73 180 70 74 179 70 75 178 71 76 177 72 77 176 73 78 175 74 79 174 75 80 174 76 80 173 76 81 174 76 80 174 75 80 175 74 79 176 73 78 177 72 77 179 71 75 180 70 74 181 69 73 182 68 72 182 67 72 183 67 71 183 67 71 182 68 72 182 68 72 181 69 73 180 70 74 179 71 75 177 72 77 176 73 78 175 74 79 174 75 80 174 76 80 173 76 81 172 77 82 172 77 82 172 77 82 173 76 81 174 76 80 175 74 79 177 72 77 180 70 74 183 66 71 187 63 67 192 59 62 196 54 58 201 50 53 205 47 49 208 44 46 210 42 44 210 41 44 209 42 45 207 44 47 203 48 51 198 52 56 193 57 61 187 63 67 182 68 72 177 72 77 174 76 80 172 77 82 172 77 82 174 76 80 177 73 77 181 68 73 187 63 67 192 58 62 197 53 57 202 49 52 205 46 49 206 45 48 206 45 48 205 46 49 202 49 52 198 53 56 193 57 61 189 61 65 184 65 70 181 69 73 178 71 76 177 72 77 177 73 77 177 72 77 179 71 75 181 69 73 183 66 71 186 64 68 188 62 66 190 60 64 191 59 63 192 58 62 192 58 62 192 58 62 191 59 63 190 60 64 189 61 65 187 63 67 185 65 69 183 67 71 180 69 74 177 72 77 174 75 80 171 78 83 168 81 86 165 84 89 162 86 92 160 89 94 158 90 96 157 91 97 157 91 97 158 90 96 160 89 94 162 87 92 164 84 90 167 82 87 170 79 84 173 76 81 175 74 79 177 73 77 178 71 76 179 71 75 179 71 75 179 71 75 178 71 76 178 72 76 177 73 77 176 73 78 176 74 78 175 74 79 175 74 79 175 74 79 176 74 78 176 73 78 177 73 77 177 73 77 177 72 77 177 72 77 177 73 77 176 73 78 176 74 78 175 74 79 174 75 80 174 75 80 173 76 81 173 76 81 173 76 81 173 76 81 173 76 81 174 76 80 174 75 80 175 75 79 175 74 79 176 74 78 176 73 78 176 73 78 176 74 78 175 74 79 175 74 79 174 75 80 173 76 81 172 77 82 172 78 82 171 78 83 170 79 84 169 80 85 169 80 85 169 80 85 169 80 85 169 80 85 
174 75 80 174 76 80 174 75 80 174 75 80 175 74 79 176 73 78 177 72 77 178 71 76 179 70 75 180 70 74 181 69 73 181 69 73 181 68 73 181 69 73 180 69 74 180 70 74 179 71 75 177 72 77 176 73 78 175 74 79 174 75 80 173 76 81 173 76 81 173 76 81 173 76 81 174 75 80 175 74 79 176 73 78 177 72 77 179 71 75 180 70 74 181 69 73 181 68 73 182 68 72 182 68 72 182 68 72 181 68 73 181 69 73 180 70 74 179 71 75 177 72 77 176 73 78 175 75 79 174 76 80 172 77 82 172 78 82 171 78 83 171 79 83 171 78 83 171 78 83 173 76 81 175 74 79 178 72 76 182 68 72 186 64 68 191 60 63 195 55 59 200 51 54 204 47 50 208 44 46 210 42 44 210 41 44 209 42 45 207 44 47 203 48 51 197 54 57 191 59 63 184 66 70 178 72 76 172 77 82 168 81 86 166 83 88 165 84 89 167 82 87 170 79 84 175 74 79 182 68 72 188 62 66 195 56 59 200 51 54 205 46 49 207 44 47 208 43 46 207 45 47 204 47 50 199 51 55 194 56 60 188 62 66 183 67 71 178 71 76 175 75 79 172 77 82 172 77 82 173 77 81 175 75 79 178 72 76 182 68 72 186 64 68 190 60 64 193 57 61 197 54 57 199 52 55 200 51 54 201 50 53 200 51 54 198 52 56 196 55 58 193 57 61 189 61 65 185 65 69 180 70 74 175 74 79 170 79 84 164 84 90 160 89 94 155 93 99 151 97 103 148 100 106 146 101 108 145 102 109 145 102 109 147 101 107 149 99 105 152 96 102 156 92 98 160 89 94 163 85 91 167 82 87 170 79 84 173 76 81 175 75 79 176 74 78 176 73 78 176 73 78 176 74 78 175 74 79 175 75 79 174 75 80 174 75 80 174 75 80 174 75 80 175 74 79 176 73 78 177 73 77 178 72 76 179 71 75 179 70 75 179 70 75 179 70 75 179 71 75 178 72 76 177 73 77 176 74 78 175 75 79 174 76 80 173 76 81 172 77 82 172 77 82 172 77 82 173 76 81 174 76 80 175 75 79 176 74 78 176 73 78 177 72 77 178 72 76 178 72 76 178 72 76 177 72 77 177 73 77 176 74 78 175 75 79 173 76 81 172 77 82 171 78 83 170 79 84 169 80 85 168 81 86 168 81 86 167 81 87 168 81 86 
174 75 80 174 75 80 174 75 80 175 75 79 175 74 79 176 73 78 177 72 77 179 71 75 180 70 74 180 69 74 181 69 73 182 68 72 182 68 72 181 68 73 181 69 73 180 70 74 179 71 75 177 72 77 176 73 78 175 74 79 174 75 80 173 76 81 173 76 81 173 77 81 173 76 81 173 76 81 174 75 80 175 74 79 176 73 78 177 72 77 178 71 76 179 70 75 180 70 74 181 69 73 181 69 73 181 69 73 180 69 74 180 70 74 179 71 75 178 72 76 176 73 78 175 74 79 174 76 80 172 77 82 171 78 83 170 79 84 169 80 85 169 80 85 169 80 85 170 79 84 172 77 82 175 74 79 179 71 75 183 67 71 188 62 66 193 57 61 198 53 56 203 48 51 206 45 48 208 43 46 209 43 45 208 44 46 204 47 50 200 51 54 193 57 61 186 64 68 178 71 76 171 78 83 164 85 90 159 89 95 156 92 98 155 93 99 156 92 98 160 88 94 166 83 88 173 76 81 181 68 73 189 61 65 197 54 57 203 48 51 207 44 47 209 42 45 208 43 46 206 46 48 201 50 53 195 56 59 188 62 66 181 69 73 174 75 80 169 80 85 165 83 89 164 85 90 164 85 90 166 83 88 170 79 84 175 74 79 181 69 73 187 63 67 193 57 61 199 52 55 203 48 51 206 45 48 208 43 46 209 42 45 208 43 46 205 46 49 202 49 52 196 54 58 190 60 64 183 67 71 176 74 78 168 81 86 160 88 94 153 95 101 146 102 108 140 107 114 136 111 118 133 114 121 131 116 123 131 115 123 133 114 121 136 111 118 140 107 114 145 103 109 150 98 104 155 93 99 160 88 94 165 84 89 168 81 86 171 78 83 172 77 82 173 76 81 173 76 81 173 76 81 172 77 82 171 78 83 171 78 83 171 78 83 171 78 83 172 77 82 173 76 81 175 75 79 177 73 77 178 71 76 180 70 74 181 69 73 182 68 72 182 68 72 182 68 72 181 69 73 180 70 74 178 71 76 177 73 77 175 74 79 174 76 80 173 77 81 172 77 82 172 77 82 172 77 82 173 76 81 174 75 80 175 74 79 177 73 77 178 72 76 179 71 75 180 70 74 180 69 74 180 69 74 180 70 74 179 71 75 178 72 76 176 73 78 175 75 79 173 76 81 171 78 83 170 79 84 168 81 86 167 82 87 167 82 87 166 83 88 166 83 88 
174 75 80 174 75 80 174 75 80 175 75 79 176 74 78 177 73 77 178 72 76 179 71 75 180 70 74 181 69 73 181 68 73 182 68 72 182 68 72 181 68 73 181 69 73 180 70 74 179 71 75 178 72 76 176 73 78 175 74 79 174 75 80 173 76 81 172 77 82 172 77 82 172 77 82 172 77 82 173 76 81 174 75 80 175 75 79 176 74 78 177 73 77 178 72 76 178 71 76 179 71 75 179 70 75 179 70 75 179 71 75 178 71 76 177 72 77 176 73 78 175 74 79 173 76 81 172 78 82 170 79 84 168 81 86 167 82 87 167 82 87 167 82 87 168 81 86 169 80 85 172 77 82 176 74 78 180 70 74 185 65 69 190 60 64 195 55 59 200 51 54 203 48 51 205 46 49 206 45 48 204 47 50 201 50 53 195 55 59 188 62 66 179 70 75 170 79 84 161 87 93 153 95 101 147 101 107 142 105 112 141 107 113 142 106 112 146 102 108 152 96 102 161 88 93 170 79 84 181 69 73 190 60 64 199 52 55 205 46 49 209 43 45 210 42 44 208 44 46 203 48 51 196 54 58 188 62 66 179 70 75 171 78 83 163 85 91 158 91 96 154 94 100 153 95 101 154 94 100 157 91 97 163 86 91 170 79 84 178 71 76 187 63 67 195 56 59 202 49 52 209 43 45 213 38 41 216 36 38 217 35 37 215 36 39 212 40 42 206 45 48 199 52 55 190 60 64 181 69 73 170 79 84 160 89 94 149 99 105 140 108 114 131 116 123 124 117 130 119 112 135 117 110 137 116 109 138 118 111 136 121 114 133 126 119 128 132 115 122 139 108 115 146 102 108 153 95 101 159 90 95 163 85 91 167 82 87 170 79 84 171 78 83 171 78 83 170 79 84 169 80 85 168 81 86 167 82 87 167 82 87 167 82 87 168 81 86 170 79 84 172 77 82 174 75 80 177 72 77 180 70 74 182 67 72 184 66 70 185 65 69 185 65 69 185 65 69 184 66 70 182 68 72 180 70 74 178 72 76 176 74 78 174 75 80 172 77 82 172 78 82 171 78 83 172 77 82 173 76 81 174 75 80 176 73 78 178 72 76 179 70 75 181 69 73 182 68 72 183 67 71 183 67 71 182 67 72 181 68 73 180 70 74 178 71 76 176 73 78 174 75 80 172 77 82 170 79 84 168 81 86 167 82 87 166 83 88 165 83 89 165 84 89 
174 75 80 174 75 80 174 75 80 175 74 79 176 73 78 177 73 77 178 72 76 179 70 75 180 70 74 181 69 73 181 68 73 182 68 72 182 68 72 181 68 73 181 69 73 180 70 74 179 71 75 178 72 76 176 73 78 175 74 79 174 75 80 173 76 81 172 77 82 172 77 82 172 78 82 172 77 82 172 77 82 173 77 81 173 76 81 174 75 80 175 74 79 176 74 78 177 73 77 177 72 77 177 72 77 177 72 77 177 72 77 176 73 78 175 74 79 174 75 80 172 77 82 171 78 83 169 80 85 167 82 87 166 83 88 165 84 89 164 84 90 165 84 89 166 83 88 169 80 85 172 77 82 176 73 78 181 69 73 186 64 68 191 59 63 196 54 58 200 51 54 202 49 52 202 49 52 200 51 54 196 54 58 190 61 64 181 68 73 171 78 83 161 88 93 150 98 104 140 107 114 132 115 122 126 119 128 123 116 131 123 116 131 127 119 127 134 113 120 144 104 110 155 93 99 168 81 86 180 70 74 191 59 63 200 50 54 207 44 47 210 41 44 210 42 44 206 45 48 199 52 55 190 60 64 180 70 74 169 80 85 159 89 95 151 97 103 144 103 110 140 107 114 139 108 115 142 106 112 147 101 107 154 94 100 163 85 91 174 76 80 185 65 69 195 55 59 205 46 49 213 39 41 219 33 35 223 29 31 224 29 30 222 30 32 217 34 37 210 41 44 201 50 53 190 60 64 177 72 77 164 85 90 150 98 104 137 110 117 126 118 128 116 109 138 108 102 146 103 97 151 101 95 153 102 96 152 105 99 149 110 104 144 118 111 136 126 119 128 135 112 119 144 104 110 152 96 102 159 90 95 164 85 90 168 81 86 169 80 85 170 79 84 169 80 85 168 81 86 166 83 88 164 85 90 163 86 91 162 86 92 163 86 91 165 84 89 167 82 87 170 79 84 174 75 80 178 71 76 182 68 72 185 65 69 187 63 67 189 62 65 189 61 65 188 62 66 187 63 67 184 65 70 182 68 72 179 71 75 176 73 78 174 75 80 172 77 82 171 78 83 171 78 83 172 77 82 173 76 81 175 75 79 177 73 77 179 71 75 181 69 73 183 67 71 184 65 70 185 65 69 185 64 69 185 65 69 184 66 70 182 67 72 180 69 74 178 72 76 175 74 79 173 76 81 171 78 83 169 80 85 167 82 87 166 83 88 165 84 89 164 85 90 
174 75 80 174 75 80 175 75 79 175 74 79 176 73 78 177 72 77 178 71 76 179 70 75 180 69 74 181 69 73 181 68 73 182 68 72 182 68 72 181 68 73 181 69 73 180 70 74 179 71 75 178 72 76 176 73 78 175 74 79 174 75 80 173 76 81 172 77 82 171 78 83 171 78 83 171 78 83 171 78 83 172 78 82 172 77 82 173 76 81 173 76 81 174 75 80 175 75 79 175 74 79 175 74 79 175 74 79 175 75 79 174 76 80 172 77 82 171 78 83 169 80 85 167 82 87 165 83 89 164 85 90 162 86 92 162 87 92 162 87 92 163 86 91 165 84 89 168 81 86 172 77 82 177 73 77 182 68 72 187 63 67 192 58 62 196 55 58 198 52 56 198 52 56 196 54 58 192 59 62 185 65 69 175 74 79 164 85 90 151 97 103 139 109 115 126 119 128 116 109 138 108 102 146 103 97 151 102 96 152 105 99 149 112 105 142 122 115 132 135 112 119 150 98 104 165 84 89 180 70 74 192 58 62 202 49 52 208 43 46 210 41 44 209 43 45 203 48 51 194 56 60 183 67 71 171 79 83 158 90 96 146 101 108 137 111 117 129 117 125 126 118 128 125 118 129 128 118 126 135 112 119 144 104 110 155 93 99 168 81 86 181 69 73 194 57 60 206 46 48 215 36 39 223 29 31 227 25 27 229 24 25 227 26 27 221 31 33 213 39 41 202 49 52 188 62 66 173 76 81 157 91 97 141 106 113 126 118 128 112 106 142 101 95 153 93 87 161 88 83 166 87 82 167 89 84 165 94 89 160 102 96 152 112 105 142 123 115 131 134 113 120 144 103 110 153 95 101 161 88 93 166 82 88 170 79 84 171 78 83 170 79 84 168 81 86 166 83 88 163 86 91 160 88 94 159 90 95 158 90 96 159 89 95 161 87 93 165 84 89 169 80 85 174 75 80 179 71 75 184 66 70 187 63 67 190 60 64 192 58 62 193 58 61 192 59 62 190 60 64 187 63 67 184 66 70 180 69 74 177 72 77 174 75 80 172 77 82 171 78 83 171 78 83 172 78 82 173 76 81 175 74 79 178 72 76 180 69 74 183 67 71 185 65 69 187 63 67 188 62 66 188 62 66 188 63 66 186 64 68 185 65 69 182 67 72 180 70 74 177 73 77 174 75 80 171 78 83 169 80 85 167 82 87 165 83 89 164 84 90 163 85 91 
175 75 79 175 75 79 175 74 79 175 74 79 176 73 78 177 72 77 178 71 76 179 70 75 180 70 74 181 69 73 181 68 73 182 68 72 181 68 73 181 69 73 181 69 73 180 70 74 179 71 75 177 72 77 176 73 78 175 74 79 174 76 80 173 77 81 172 77 82 171 78 83 171 78 83 170 79 84 170 79 84 171 78 83 171 78 83 171 78 83 172 77 82 172 77 82 173 76 81 173 76 81 173 76 81 172 77 82 172 77 82 171 78 83 169 80 85 167 82 87 165 83 89 163 85 91 161 87 93 160 89 94 159 90 95 159 90 95 159 89 95 161 88 93 164 85 90 168 81 86 172 77 82 178 72 76 183 67 71 188 62 66 192 58 62 195 56 59 195 55 59 193 57 61 188 62 66 181 69 73 170 79 84 158 91 96 143 104 111 129 118 125 114 107 140 101 95 153 90 85 164 83 78 171 80 75 174 81 77 173 87 82 167 97 92 157 111 105 143 128 119 126 145 102 109 163 86 91 179 70 75 193 57 61 203 48 51 209 42 45 210 41 44 207 44 47 199 52 55 188 62 66 175 74 79 160 88 94 146 102 108 133 114 121 122 115 132 115 108 139 111 104 143 111 104 143 115 108 139 123 115 131 133 113 121 146 101 108 161 87 93 176 73 78 191 59 63 205 47 49 216 36 38 225 27 29 230 22 24 232 21 22 230 23 24 224 28 30 214 38 40 201 50 53 186 64 68 168 81 86 150 98 104 132 115 122 115 108 139 100 94 154 88 83 166 79 75 175 75 71 179 75 71 179 79 74 175 86 81 168 97 91 157 109 102 145 122 115 132 135 112 119 147 100 107 158 91 96 166 83 88 171 78 83 174 76 80 174 75 80 172 77 82 169 80 85 164 84 90 160 88 94 157 91 97 155 93 99 154 94 100 155 93 99 158 90 96 162 86 92 168 81 86 174 76 80 180 70 74 185 65 69 190 60 64 194 57 60 196 55 58 196 55 58 195 56 59 193 58 61 189 61 65 186 64 68 182 68 72 178 72 76 175 75 79 172 77 82 171 78 83 171 78 83 171 78 83 173 76 81 176 74 78 178 71 76 181 68 73 184 66 70 187 63 67 189 61 65 190 60 64 190 60 64 190 61 64 188 62 66 186 64 68 184 66 70 181 69 73 178 71 76 175 74 79 172 77 82 169 80 85 167 82 87 165 83 89 164 85 90 163 86 91 
175 74 79 175 75 79 175 74 79 176 74 78 176 73 78 177 72 77 178 71 76 179 71 75 180 70 74 181 69 73 181 69 73 181 68 73 181 69 73 181 69 73 180 69 74 179 70 75 178 71 76 177 72 77 176 73 78 175 74 79 174 76 80 173 77 81 172 78 82 171 78 83 170 79 84 170 79 84 170 79 84 170 79 84 170 79 84 170 79 84 171 79 83 171 78 83 171 78 83 171 78 83 171 79 83 170 79 84 169 80 85 167 82 87 166 83 88 164 85 90 161 87 93 159 89 95 157 91 97 156 92 98 155 93 99 156 93 98 157 91 97 159 89 95 163 86 91 167 81 87 173 76 81 178 71 76 184 66 70 188 62 66 191 59 63 192 58 62 191 60 63 186 64 68 178 71 76 168 81 86 154 94 100 138 109 116 122 114 132 105 99 149 89 84 165 75 71 179 65 61 189 59 55 195 58 54 196 62 58 192 71 67 183 85 80 169 102 96 152 121 114 133 142 105 112 162 87 92 180 70 74 194 56 60 204 47 50 210 42 44 210 42 44 204 47 50 195 56 59 182 68 72 167 82 87 150 97 104 135 112 119 120 113 134 109 103 145 101 95 153 97 91 157 98 92 156 103 96 151 111 105 143 123 116 131 138 110 116 154 94 100 170 79 84 187 63 67 202 49 52 215 37 39 225 28 29 231 22 23 233 20 21 231 22 23 224 28 30 214 38 40 200 51 54 182 67 72 163 85 91 143 104 111 123 116 131 105 99 149 89 84 165 77 72 177 69 65 185 65 61 189 67 63 187 72 68 182 82 77 172 95 89 159 109 103 145 125 117 129 140 107 114 153 95 101 165 84 89 173 76 81 178 72 76 180 70 74 178 71 76 175 74 79 170 79 84 165 84 89 159 89 95 155 93 99 152 96 102 151 97 103 152 96 102 155 93 99 160 88 94 167 82 87 174 76 80 181 69 73 187 63 67 193 58 61 196 54 58 199 52 55 199 52 55 198 53 56 195 55 59 191 59 63 187 63 67 183 67 71 178 71 76 175 75 79 172 77 82 171 78 83 171 79 83 171 78 83 173 76 81 176 73 78 179 70 75 182 67 72 186 64 68 188 62 66 190 60 64 192 59 62 192 58 62 191 59 63 190 60 64 188 62 66 185 65 69 182 68 72 179 71 75 176 74 78 173 77 81 170 79 84 167 81 87 165 83 89 164 85 90 163 86 91 
175 74 79 175 74 79 175 74 79 176 74 78 176 73 78 177 72 77 178 72 76 179 71 75 180 70 74 180 69 74 181 69 73 181 69 73 181 69 73 181 69 73 180 70 74 179 70 75 178 71 76 177 72 77 176 73 78 175 75 79 174 76 80 173 77 81 172 78 82 171 78 83 170 79 84 170 79 84 169 80 85 169 80 85 169 80 85 169 80 85 169 80 85 170 79 84 169 80 85 169 80 85 168 81 86 167 81 87 166 83 88 164 84 90 162 86 92 160 89 94 157 91 97 155 93 99 153 95 101 152 96 102 152 96 102 153 95 101 155 93 99 158 90 96 162 86 92 167 81 87 173 76 81 179 71 75 184 66 70 188 62 66 190 60 64 189 61 65 185 65 69 178 71 76 167 81 87 154 94 100 137 110 117 119 112 135 100 94 154 81 77 173 65 61 189 51 48 203 41 39 213 37 35 217 38 36 216 45 42 209 57 54 197 74 70 180 95 89 159 117 110 137 140 107 114 162 87 92 181 69 73 196 55 58 206 46 48 210 42 44 208 43 46 202 49 52 190 60 64 176 74 78 159 89 95 141 106 113 124 117 130 109 103 145 98 92 156 89 84 165 86 81 168 87 82 167 92 87 162 101 95 153 114 107 140 130 117 124 147 101 107 164 84 90 182 68 72 198 53 56 212 40 42 223 29 31 230 23 24 232 21 22 230 22 24 223 29 31 212 39 42 197 53 57 179 71 75 159 90 95 137 110 117 116 110 138 97 91 157 81 76 173 69 65 185 61 58 193 59 55 195 62 58 192 70 65 184 82 77 172 97 91 157 114 107 140 131 116 123 148 100 106 162 86 92 174 75 80 182 68 72 186 64 68 187 63 67 185 65 69 180 70 74 173 76 81 166 83 88 159 89 95 153 95 101 150 98 104 148 99 106 150 98 104 153 95 101 159 90 95 166 83 88 174 76 80 181 68 73 189 61 65 195 56 59 199 52 55 201 50 53 202 49 52 200 51 54 197 54 57 193 57 61 188 62 66 183 67 71 179 71 75 175 74 79 172 77 82 171 78 83 170 79 84 171 78 83 174 76 80 176 73 78 180 70 74 183 67 71 186 64 68 189 61 65 191 59 63 193 58 61 193 57 61 192 58 62 191 59 63 189 61 65 186 64 68 183 67 71 179 70 75 176 73 78 173 76 81 170 79 84 168 81 86 165 83 89 164 85 90 163 86 91 
176 74 78 175 74 79 175 74 79 176 74 78 176 73 78 177 72 77 178 72 76 179 71 75 179 70 75 180 70 74 180 69 74 180 69 74 180 69 74 180 69 74 180 70 74 179 71 75 178 71 76 177 72 77 176 73 78 175 75 79 174 76 80 172 77 82 171 78 83 171 78 83 170 79 84 169 80 85 169 80 85 169 80 85 169 80 85 169 80 85 169 80 85 169 80 85 168 81 86 168 81 86 167 82 87 165 83 89 164 85 90 161 87 93 159 89 95 156 92 98 154 94 100 152 96 102 150 98 104 149 99 105 149 98 105 151 97 103 153 95 101 157 91 97 162 87 92 168 81 86 174 76 80 179 70 75 184 66 70 187 63 67 188 63 66 185 65 69 179 70 75 170 79 84 156 92 98 140 107 114 121 114 133 101 95 153 80 75 174 60 57 194 43 41 211 30 28 224 22 20 232 19 18 235 23 21 231 32 31 222 48 45 206 68 64 186 91 85 163 115 109 139 140 107 114 163 86 91 182 67 72 197 54 57 206 45 48 210 42 44 207 44 47 199 52 55 186 64 68 170 79 84 152 96 102 134 113 120 116 109 138 101 95 153 89 84 165 81 76 173 78 73 176 79 74 175 85 80 169 94 89 160 107 101 147 123 116 131 141 107 113 159 89 95 177 73 77 193 57 61 208 43 46 219 33 35 226 26 28 229 23 25 228 25 26 221 31 33 210 42 44 194 56 60 176 74 78 155 93 99 133 114 121 112 105 142 92 87 162 76 71 178 64 60 190 58 54 196 57 53 197 61 58 193 71 67 183 85 80 169 102 96 152 121 114 133 140 107 114 158 90 96 173 76 81 185 65 69 193 57 61 197 54 57 196 54 58 192 58 62 185 65 69 177 72 77 168 81 86 160 89 94 153 95 101 149 99 105 147 101 107 148 100 106 152 96 102 158 90 96 165 83 89 174 75 80 182 68 72 190 60 64 196 54 58 201 50 53 203 48 51 203 48 51 202 49 52 198 52 56 194 57 60 189 61 65 184 66 70 179 71 75 175 75 79 172 77 82 170 79 84 170 79 84 171 78 83 174 76 80 177 73 77 180 69 74 184 66 70 187 63 67 190 60 64 192 58 62 193 57 61 193 57 61 193 58 61 191 59 63 189 61 65 186 64 68 183 67 71 179 70 75 176 73 78 173 76 81 170 79 84 168 81 86 166 83 88 164 85 90 163 86 91 
176 73 78 176 74 78 176 74 78 176 74 78 176 73 78 177 73 77 178 72 76 178 71 76 179 71 75 179 70 75 180 70 74 180 70 74 180 70 74 180 70 74 179 70 75 179 71 75 178 72 76 177 72 77 176 74 78 175 75 79 174 76 80 172 77 82 171 78 83 171 78 83 170 79 84 169 80 85 169 80 85 169 80 85 169 80 85 168 81 86 168 81 86 168 81 86 167 82 87 167 82 87 165 83 89 164 85 90 162 87 92 159 89 95 157 92 97 154 94 100 151 97 103 149 99 105 148 100 106 147 101 107 147 100 107 149 99 105 152 96 102 157 91 97 162 86 92 168 81 86 174 75 80 180 70 74 184 66 70 186 64 68 185 65 69 181 69 73 173 76 81 161 87 93 146 102 108 128 119 126 107 101 147 85 80 169 63 60 191 44 41 210 27 25 227 14 14 240 8 7 246 7 7 247 13 12 241 25 24 229 43 40 211 65 61 189 90 85 164 116 109 138 142 106 112 165 84 89 184 65 70 199 52 55 207 44 47 209 42 45 205 46 49 196 55 58 182 68 72 165 84 89 147 101 107 128 119 126 110 104 144 95 90 159 84 79 170 76 72 178 73 69 181 75 71 179 81 76 173 91 85 163 104 98 150 119 112 135 137 111 117 154 94 100 172 77 82 189 61 65 203 48 51 214 37 40 222 30 32 225 27 29 224 29 30 217 35 37 206 45 48 191 59 63 172 77 82 152 96 102 130 117 124 109 102 145 90 85 164 74 70 180 63 60 191 58 55 196 58 55 196 65 61 189 76 72 178 92 86 162 111 104 143 131 116 123 151 97 103 170 79 84 186 64 68 198 53 56 205 46 49 208 44 46 206 45 48 200 51 54 192 58 62 182 68 72 171 78 83 162 87 92 154 94 100 149 99 105 147 101 107 148 100 106 151 97 103 158 91 96 165 83 89 174 75 80 183 67 71 191 59 63 197 53 57 202 49 52 204 47 50 204 47 50 202 48 52 199 52 55 194 56 60 189 61 65 183 66 71 179 71 75 175 75 79 172 77 82 170 79 84 170 79 84 172 78 82 174 75 80 177 72 77 181 69 73 184 66 70 187 63 67 190 60 64 192 58 62 193 57 61 193 57 61 192 58 62 191 59 63 188 62 66 186 64 68 182 67 72 179 71 75 176 74 78 173 76 81 170 79 84 168 81 86 166 83 88 164 85 90 163 86 91 
177 73 77 176 73 78 176 73 78 176 73 78 176 73 78 177 73 77 177 72 77 178 72 76 179 71 75 179 70 75 179 70 75 180 70 74 180 70 74 180 70 74 179 70 75 179 71 75 178 72 76 177 73 77 176 74 78 175 75 79 174 76 80 172 77 82 171 78 83 171 78 83 170 79 84 169 80 85 169 80 85 169 80 85 169 80 85 168 81 86 168 81 86 168 81 86 167 82 87 166 83 88 165 84 89 163 86 91 160 88 94 158 90 96 155 93 99 152 96 102 150 98 104 148 100 106 146 101 108 146 102 108 147 101 107 149 99 105 152 96 102 157 91 97 163 86 91 169 80 85 175 75 79 180 70 74 183 67 71 184 66 70 182 68 72 177 73 77 167 82 87 154 94 100 137 110 117 118 111 136 96 90 158 73 69 181 52 49 202 32 30 222 16 15 238 5 5 249 0 0 254 1 1 253 9 9 245 23 22 231 43 40 211 67 63 187 93 87 161 120 113 134 145 102 109 168 81 86 187 63 67 200 51 54 207 44 47 208 43 46 203 48 51 192 58 62 178 71 76 161 87 93 143 105 111 125 117 129 108 101 146 94 88 160 83 78 171 76 72 178 74 69 180 76 71 178 82 77 172 91 86 163 103 97 151 118 111 136 135 112 119 152 96 102 169 80 85 184 66 70 198 53 56 209 42 45 217 35 37 220 32 34 219 33 35 213 39 41 202 49 52 188 62 66 170 79 84 150 98 104 129 118 125 109 102 145 91 85 163 76 72 178 67 63 187 62 59 192 64 60 190 72 68 182 85 80 169 102 96 152 122 115 132 143 104 111 164 84 90 184 66 70 199 51 55 211 41 43 217 35 37 219 33 35 216 36 38 209 43 45 199 52 55 187 63 67 176 74 78 165 84 89 156 92 98 150 98 104 147 100 107 148 100 106 152 96 102 158 91 96 166 83 88 174 75 80 183 67 71 191 59 63 198 53 56 202 49 52 204 47 50 204 47 50 202 49 52 199 52 55 194 57 60 188 62 66 183 67 71 178 71 76 174 75 80 171 78 83 170 79 84 170 79 84 172 77 82 174 75 80 177 72 77 181 69 73 184 66 70 187 63 67 190 60 64 192 59 62 193 58 61 193 58 61 192 59 62 190 60 64 187 63 67 185 65 69 181 68 73 178 71 76 175 74 79 172 77 82 170 79 84 168 81 86 166 83 88 164 84 90 163 86 91 
177 72 77 177 73 77 176 73 78 176 73 78 176 73 78 177 73 77 177 72 77 178 72 76 178 71 76 179 71 75 179 70 75 179 70 75 179 70 75 179 70 75 179 71 75 178 71 76 178 72 76 177 73 77 176 74 78 175 75 79 174 76 80 173 77 81 172 78 82 171 78 83 170 79 84 170 79 84 169 80 85 169 80 85 169 80 85 168 80 86 168 81 86 168 81 86 167 82 87 166 83 88 164 84 90 162 86 92 160 88 94 158 91 96 155 93 99 152 96 102 149 98 105 147 100 107 146 101 108 146 101 108 147 100 107 150 98 104 153 95 101 158 90 96 164 85 90 170 79 84 175 74 79 180 70 74 182 67 72 182 67 72 180 70 74 173 76 81 163 86 91 148 99 106 131 116 123 111 104 143 89 83 165 67 63 187 45 43 209 27 25 227 12 12 242 3 3 251 0 0 255 3 2 251 12 12 242 28 26 226 48 46 206 73 68 181 99 93 155 126 118 128 151 97 103 172 77 82 189 61 65 201 50 53 207 45 47 206 45 48 200 51 54 189 61 65 175 74 79 158 90 96 141 107 113 124 116 130 108 102 146 95 90 159 86 81 168 80 76 174 79 74 175 81 76 173 87 81 167 95 90 159 107 101 147 121 113 133 135 112 119 151 97 103 166 82 88 181 69 73 194 57 60 204 47 50 211 40 43 214 37 40 213 38 41 208 43 46 198 52 56 185 65 69 168 81 86 149 99 105 130 117 124 111 104 143 94 89 160 81 76 173 73 69 181 70 66 184 73 69 181 82 77 172 96 91 158 114 108 140 135 112 119 157 91 97 178 71 76 197 53 57 213 39 41 223 29 31 229 24 25 229 23 25 225 27 29 217 35 37 205 46 49 193 58 61 180 70 74 168 81 86 159 90 95 152 96 102 149 99 105 149 99 105 152 96 102 158 90 96 166 83 88 175 74 79 184 66 70 191 59 63 198 53 56 202 49 52 204 47 50 204 47 50 201 49 53 198 53 56 193 58 61 187 63 67 182 68 72 177 72 77 174 76 80 171 78 83 170 79 84 170 79 84 172 77 82 174 75 80 177 72 77 181 69 73 184 66 70 187 63 67 189 61 65 191 59 63 191 59 63 191 59 63 190 60 64 188 62 66 186 64 68 183 67 71 180 70 74 177 72 77 174 75 80 172 77 82 169 80 85 167 81 87 166 83 88 165 84 89 163 85 91 
178 71 76 177 72 77 177 72 77 177 73 77 177 73 77 177 72 77 177 72 77 178 72 76 178 71 76 179 71 75 179 71 75 179 70 75 179 70 75 179 71 75 179 71 75 178 71 76 177 72 77 177 73 77 176 74 78 175 75 79 174 76 80 173 77 81 172 77 82 171 78 83 170 79 84 170 79 84 169 80 85 169 80 85 169 80 85 169 80 85 169 80 85 168 81 86 167 82 87 166 83 88 165 84 89 163 86 91 161 88 93 158 90 96 156 93 98 153 95 101 151 97 103 149 99 105 148 100 106 148 100 106 149 99 105 152 96 102 155 93 99 160 89 94 165 84 89 170 79 84 175 74 79 179 70 75 181 68 73 181 69 73 177 72 77 170 79 84 159 89 95 145 103 109 127 119 127 107 101 147 86 81 168 65 61 189 45 43 209 28 27 226 16 15 238 8 8 246 6 6 248 11 10 243 22 20 232 38 36 216 59 55 195 83 78 171 108 102 146 133 114 121 157 92 97 176 73 78 192 59 62 201 49 53 206 46 48 204 47 50 197 53 57 186 64 68 172 77 82 157 92 97 141 107 113 125 118 129 112 105 142 101 95 153 93 87 161 89 83 165 88 83 166 90 85 164 96 90 158 104 98 150 114 107 140 126 119 128 139 108 115 153 95 101 166 83 88 179 71 75 190 60 64 199 52 55 205 46 49 209 43 45 208 43 46 203 48 51 194 56 60 182 68 72 167 82 87 150 98 104 132 114 122 115 109 139 100 95 154 89 84 165 82 77 172 81 76 173 85 80 169 95 89 159 110 103 144 128 118 126 149 99 105 171 78 83 192 59 62 210 41 44 225 28 29 234 18 20 239 14 15 238 15 16 233 20 21 224 29 30 212 40 42 198 53 56 184 66 70 172 77 82 162 87 92 155 93 99 151 97 103 151 97 103 154 94 100 160 89 94 167 82 87 175 74 79 183 66 71 191 59 63 197 54 57 201 50 53 202 49 52 202 49 52 200 51 54 196 55 58 191 59 63 186 64 68 181 69 73 177 73 77 173 76 81 171 78 83 170 79 84 171 78 83 172 77 82 175 75 79 178 72 76 181 69 73 184 66 70 186 64 68 188 62 66 190 61 64 190 60 64 189 61 65 188 62 66 186 64 68 184 66 70 181 69 73 178 71 76 176 74 78 173 76 81 171 78 83 169 80 85 167 81 87 166 83 88 165 84 89 164 85 90 
179 71 75 178 71 76 178 72 76 177 72 77 177 72 77 177 72 77 178 72 76 178 72 76 178 71 76 178 71 76 179 71 75 179 71 75 179 71 75 179 71 75 178 71 76 178 72 76 177 72 77 177 73 77 176 74 78 175 75 79 174 75 80 173 76 81 172 77 82 171 78 83 171 78 83 170 79 84 170 79 84 170 79 84 169 80 85 169 80 85 169 80 85 169 80 85 168 81 86 167 82 87 166 83 88 164 84 90 162 86 92 160 88 94 158 91 96 155 93 99 153 95 101 152 96 102 151 97 103 151 97 103 152 96 102 155 93 99 158 90 96 162 86 92 167 82 87 172 78 82 176 74 78 179 71 75 180 69 74 179 71 75 175 74 79 168 81 86 157 91 97 143 104 111 127 119 127 108 102 146 89 83 165 69 65 185 52 49 202 37 35 217 26 24 228 20 19 234 20 19 234 25 24 229 37 34 217 53 50 201 73 69 181 95 90 159 119 112 135 142 105 112 163 86 91 181 69 73 193 57 61 201 50 53 204 47 50 201 50 53 194 56 60 183 66 71 170 79 84 156 92 98 142 105 112 129 118 125 118 111 136 109 102 145 103 97 151 100 94 154 100 94 154 103 97 151 108 102 146 116 109 138 124 117 130 134 113 120 145 102 109 156 92 98 167 81 87 178 72 76 187 63 67 195 55 59 200 50 54 203 48 51 203 48 51 199 52 55 191 59 63 180 69 74 167 82 87 152 96 102 136 111 118 121 114 133 109 102 145 99 93 155 94 88 160 94 88 160 99 93 155 109 103 145 124 117 130 142 105 112 163 86 91 184 66 70 204 47 50 221 31 33 235 18 19 243 10 11 247 6 7 245 8 9 239 14 15 229 23 25 216 35 38 202 49 52 188 62 66 176 74 78 165 84 89 158 91 96 154 94 100 153 95 101 156 92 98 161 87 93 168 81 86 176 74 78 183 67 71 190 60 64 195 55 59 199 52 55 200 51 54 200 51 54 197 53 57 194 57 60 189 61 65 184 66 70 180 70 74 176 74 78 173 76 81 171 78 83 170 79 84 171 78 83 173 76 81 175 74 79 178 72 76 181 69 73 184 66 70 186 64 68 187 63 67 188 62 66 188 62 66 187 63 67 186 64 68 184 66 70 182 68 72 179 70 75 177 73 77 174 75 80 172 77 82 170 79 84 169 80 85 168 81 86 167 82 87 166 83 88 165 84 89 
180 69 74 179 70 75 179 71 75 178 71 76 178 71 76 178 72 76 178 72 76 178 71 76 178 71 76 178 71 76 179 71 75 179 71 75 179 71 75 179 71 75 178 71 76 178 72 76 177 72 77 176 73 78 176 74 78 175 74 79 174 75 80 173 76 81 172 77 82 172 78 82 171 78 83 171 78 83 170 79 84 170 79 84 170 79 84 170 79 84 170 79 84 169 80 85 169 80 85 168 81 86 167 82 87 166 83 88 165 84 89 163 86 91 161 88 93 159 89 95 157 91 97 156 92 98 156 92 98 156 92 98 157 91 97 159 89 95 162 87 92 165 84 89 169 80 85 173 76 81 176 73 78 178 71 76 179 70 75 178 72 76 173 76 81 166 82 88 157 92 97 144 104 110 129 118 125 113 106 141 95 90 159 79 74 175 64 60 190 51 48 203 42 40 212 38 36 216 39 37 215 45 43 209 56 53 198 71 67 183 90 85 164 110 104 144 131 115 123 152 96 102 169 80 85 184 66 70 194 56 60 200 51 54 201 50 53 198 53 56 191 60 63 181 69 73 169 80 85 157 91 97 145 103 109 134 113 120 126 118 128 119 112 135 115 109 139 114 107 140 115 109 139 119 112 135 123 116 131 130 117 124 137 110 117 145 103 109 153 95 101 162 87 92 171 79 83 179 71 75 186 64 68 192 58 62 196 54 58 198 52 56 198 53 56 194 56 60 188 62 66 179 71 75 168 81 86 155 93 99 142 106 112 129 118 125 118 111 136 110 104 144 106 100 148 107 101 147 113 106 141 123 116 131 138 109 116 156 92 98 175 74 79 195 55 59 214 38 40 230 23 24 242 11 12 250 4 4 252 2 2 250 4 4 243 10 11 233 20 21 220 32 34 206 46 48 192 59 62 179 71 75 168 80 86 161 87 93 157 91 97 156 92 98 158 90 96 163 86 91 169 80 85 176 73 78 183 67 71 189 61 65 194 57 60 197 54 57 198 53 56 197 54 57 195 56 59 191 59 63 187 63 67 182 67 72 178 71 76 175 74 79 172 77 82 171 78 83 171 78 83 172 77 82 173 76 81 176 74 78 178 71 76 181 69 73 183 67 71 185 65 69 186 64 68 187 63 67 186 64 68 185 65 69 184 66 70 182 68 72 180 70 74 177 72 77 175 74 79 173 76 81 171 78 83 170 79 84 169 80 85 168 81 86 167 82 87 167 82 87 166 83 88 
181 68 73 180 69 74 180 70 74 179 70 75 179 71 75 179 71 75 179 71 75 179 71 75 179 71 75 179 71 75 179 71 75 179 71 75 179 71 75 178 71 76 178 71 76 178 72 76 177 72 77 176 73 78 176 74 78 175 74 79 174 75 80 173 76 81 173 76 81 172 77 82 172 78 82 171 78 83 171 78 83 171 78 83 171 78 83 170 79 84 170 79 84 170 79 84 170 79 84 170 79 84 169 80 85 168 81 86 167 81 87 166 83 88 165 84 89 164 85 90 163 86 91 162 87 92 162 87 92 162 87 92 163 86 91 164 85 90 166 83 88 169 80 85 172 78 82 174 75 80 177 73 77 178 72 76 178 71 76 176 73 78 172 77 82 166 83 88 158 91 96 147 101 107 134 113 120 121 114 133 106 100 148 93 87 161 80 76 174 70 66 184 64 60 190 61 58 193 63 59 191 69 65 185 79 74 175 92 87 162 108 102 146 126 118 128 144 104 110 160 88 94 175 74 79 187 63 67 194 56 60 198 53 56 198 53 56 194 57 60 187 63 67 178 71 76 168 81 86 158 90 96 149 99 105 141 107 113 135 112 119 131 116 123 129 117 125 130 117 124 132 115 122 135 112 119 140 107 114 145 102 109 151 97 103 157 91 97 163 86 91 169 80 85 175 74 79 181 69 73 186 64 68 190 60 64 193 57 61 195 56 59 194 56 60 191 59 63 186 64 68 178 71 76 169 80 85 158 90 96 147 100 107 137 110 117 128 118 126 122 115 132 120 113 134 121 114 133 127 119 127 137 110 117 151 97 103 168 81 86 186 64 68 204 47 50 221 31 33 236 17 18 247 7 7 253 1 1 255 0 0 251 2 3 244 9 10 234 19 20 221 31 33 207 44 47 194 57 60 181 68 73 171 78 83 164 85 90 160 88 94 159 89 95 161 88 93 165 84 89 170 79 84 176 73 78 182 68 72 187 63 67 191 59 63 194 57 60 195 56 59 194 57 60 191 59 63 188 62 66 184 65 70 181 69 73 177 72 77 174 75 80 172 77 82 171 78 83 171 78 83 172 77 82 174 75 80 176 73 78 179 71 75 181 69 73 183 67 71 184 66 70 185 65 69 185 65 69 184 66 70 183 67 71 181 68 73 180 70 74 177 72 77 175 74 79 174 76 80 172 77 82 171 78 83 170 79 84 169 80 85 168 81 86 168 81 86 168 81 86 168 81 86 
183 67 71 182 68 72 181 69 73 180 69 74 180 70 74 180 70 74 179 70 75 179 70 75 179 71 75 179 71 75 179 71 75 179 71 75 178 71 76 178 71 76 178 72 76 177 72 77 177 72 77 176 73 78 176 74 78 175 74 79 175 75 79 174 75 80 173 76 81 173 76 81 172 77 82 172 77 82 172 78 82 171 78 83 171 78 83 171 78 83 171 78 83 171 78 83 171 78 83 171 78 83 171 78 83 171 78 83 171 78 83 170 79 84 170 79 84 169 80 85 169 80 85 168 81 86 168 81 86 168 81 86 169 80 85 170 79 84 171 78 83 172 77 82 174 75 80 176 74 78 177 73 77 177 72 77 177 72 77 175 74 79 172 77 82 167 82 87 160 88 94 152 96 102 142 105 112 131 115 123 120 113 134 110 103 144 101 95 153 93 88 161 89 83 165 87 82 167 89 84 165 94 89 160 103 97 151 114 107 140 127 119 127 141 106 113 155 93 99 168 81 86 180 70 74 188 62 66 193 57 61 195 55 59 194 57 60 190 60 64 183 66 71 176 74 78 168 81 86 160 89 94 153 95 101 148 100 106 144 103 110 143 105 111 143 104 111 145 102 109 148 99 106 152 96 102 157 92 97 161 88 93 165 83 89 169 80 85 173 76 81 177 72 77 181 69 73 184 66 70 187 63 67 189 61 65 191 59 63 192 59 62 191 59 63 189 62 65 184 66 70 178 71 76 171 78 83 162 86 92 153 95 101 145 102 109 138 109 116 134 113 120 132 115 122 134 112 120 140 107 114 150 98 104 163 86 91 178 72 76 194 56 60 211 41 43 226 27 28 238 15 16 248 6 6 253 1 1 254 0 0 250 4 4 243 10 11 233 20 21 221 31 33 208 44 46 195 56 59 183 66 71 174 75 80 167 82 87 163 86 91 162 87 92 163 86 91 166 82 88 171 78 83 176 73 78 181 68 73 186 64 68 189 61 65 191 59 63 191 59 63 190 60 64 188 62 66 185 65 69 182 68 72 179 71 75 176 74 78 174 76 80 172 77 82 172 77 82 172 77 82 173 76 81 175 74 79 177 72 77 179 70 75 181 69 73 183 67 71 183 66 71 184 66 70 183 66 71 183 67 71 181 69 73 179 70 75 178 72 76 176 74 78 174 75 80 172 77 82 171 78 83 170 79 84 170 79 84 169 80 85 169 80 85 169 80 85 169 80 85 169 80 85 
184 66 70 183 67 71 183 67 71 182 68 72 181 68 73 181 69 73 180 69 74 180 70 74 180 70 74 179 70 75 179 71 75 179 71 75 178 71 76 178 72 76 178 72 76 177 72 77 177 73 77 176 73 78 176 73 78 176 74 78 175 74 79 175 75 79 174 75 80 174 76 80 173 76 81 173 77 81 172 77 82 172 77 82 172 77 82 172 77 82 172 77 82 172 77 82 172 77 82 173 77 81 173 76 81 173 76 81 174 75 80 174 75 80 175 75 79 175 74 79 175 74 79 175 74 79 175 74 79 176 74 78 176 74 78 176 74 78 176 73 78 176 73 78 177 73 77 177 72 77 177 72 77 177 72 77 176 73 78 175 75 79 172 77 82 168 80 86 164 85 90 158 90 96 151 97 103 144 104 110 136 111 118 129 117 125 123 116 131 118 111 136 115 108 139 114 107 140 115 109 139 120 113 134 126 119 128 135 112 119 145 103 109 155 93 99 165 83 89 175 75 79 183 67 71 188 62 66 191 59 63 191 59 63 189 61 65 185 64 69 180 70 74 174 75 80 168 81 86 162 87 92 158 91 96 155 93 99 154 94 100 154 94 100 156 92 98 160 89 94 164 85 90 168 81 86 172 77 82 176 74 78 179 71 75 181 68 73 183 66 71 185 65 69 186 64 68 188 62 66 189 61 65 190 61 64 190 60 64 190 60 64 189 61 65 187 63 67 183 67 71 178 71 76 173 77 81 166 83 88 159 89 95 153 95 101 148 100 106 145 103 109 144 104 110 146 101 108 152 96 102 161 88 93 172 77 82 186 64 68 200 51 54 214 38 40 227 25 27 238 15 16 245 8 9 249 4 5 250 4 4 246 7 8 239 14 15 230 23 24 218 34 36 206 45 48 195 56 59 184 66 70 176 74 78 169 80 85 166 83 88 164 84 90 165 83 89 168 81 86 172 77 82 176 73 78 180 69 74 184 66 70 186 64 68 188 62 66 188 62 66 187 63 67 185 65 69 182 67 72 180 70 74 177 72 77 175 74 79 173 76 81 172 77 82 172 77 82 173 76 81 174 75 80 176 73 78 178 71 76 180 70 74 181 68 73 182 67 72 183 67 71 183 67 71 182 68 72 181 69 73 179 70 75 178 72 76 176 73 78 174 75 80 173 76 81 172 78 82 171 78 83 170 79 84 170 79 84 170 79 84 170 79 84 171 78 83 171 78 83 171 78 83 
185 64 69 185 65 69 184 66 70 183 67 71 183 67 71 182 68 72 181 68 73 181 69 73 180 69 74 180 70 74 179 70 75 179 71 75 178 71 76 178 72 76 177 72 77 177 72 77 177 73 77 176 73 78 176 73 78 176 73 78 176 74 78 175 74 79 175 74 79 174 75 80 174 75 80 174 76 80 173 76 81 173 76 81 172 77 82 172 77 82 172 77 82 173 77 81 173 76 81 174 75 80 175 75 79 176 73 78 177 72 77 178 71 76 180 70 74 181 69 73 182 68 72 182 67 72 183 67 71 183 67 71 182 67 72 182 68 72 181 69 73 180 69 74 179 70 75 178 71 76 178 72 76 177 73 77 175 74 79 174 75 80 173 77 81 170 79 84 168 81 86 165 84 89 161 87 93 157 91 97 153 95 101 149 99 105 145 102 109 142 105 112 140 107 114 140 107 114 141 106 113 144 104 110 148 100 106 153 95 101 160 89 94 167 82 87 173 76 81 179 70 75 184 66 70 187 63 67 188 62 66 187 63 67 185 65 69 181 68 73 177 73 77 172 77 82 168 81 86 164 85 90 162 87 92 161 87 93 162 87 92 164 84 90 168 81 86 172 77 82 177 73 77 181 68 73 185 65 69 188 62 66 191 60 63 192 58 62 193 58 61 193 58 61 192 58 62 192 59 62 191 59 63 190 60 64 190 61 64 189 61 65 187 63 67 185 65 69 182 67 72 179 71 75 174 75 80 169 80 85 164 84 90 160 89 94 156 92 98 154 94 100 154 94 100 156 92 98 162 87 92 169 80 85 179 70 75 191 60 63 203 48 51 215 37 39 225 27 29 234 19 20 240 13 14 243 10 11 243 10 11 240 14 14 233 20 21 225 28 29 214 37 40 204 47 50 194 57 60 184 66 70 177 73 77 171 78 83 168 81 86 167 82 87 167 82 87 169 80 85 173 77 81 176 73 78 179 70 75 182 68 72 184 66 70 185 65 69 185 65 69 184 66 70 182 68 72 180 70 74 178 72 76 176 74 78 174 75 80 173 76 81 173 76 81 173 76 81 174 75 80 176 74 78 177 72 77 179 71 75 180 69 74 181 68 73 182 68 72 182 67 72 182 68 72 181 69 73 180 70 74 178 71 76 176 73 78 175 75 79 173 76 81 172 77 82 171 78 83 171 78 83 170 79 84 171 78 83 171 78 83 172 77 82 172 77 82 173 76 81 173 76 81 
187 63 67 186 64 68 185 64 69 185 65 69 184 66 70 183 67 71 182 67 72 182 68 72 181 69 73 180 70 74 179 70 75 179 71 75 178 72 76 177 72 77 177 72 77 177 73 77 177 73 77 176 73 78 176 73 78 176 73 78 176 73 78 176 73 78 176 73 78 176 74 78 175 74 79 175 75 79 174 75 80 174 76 80 173 76 81 173 76 81 173 76 81 173 76 81 174 76 80 175 75 79 176 73 78 178 72 76 180 70 74 182 68 72 184 66 70 186 64 68 188 62 66 189 61 65 189 61 65 189 61 65 189 61 65 188 63 66 186 64 68 184 66 70 182 68 72 180 70 74 178 72 76 176 73 78 175 75 79 174 75 80 173 76 81 173 76 81 172 77 82 172 77 82 171 78 83 171 79 83 169 80 85 168 81 86 167 82 87 165 83 89 164 84 90 164 85 90 164 85 90 165 84 89 167 82 87 169 80 85 172 77 82 175 74 79 179 71 75 182 68 72 184 66 70 185 65 69 184 65 70 183 67 71 181 69 73 178 72 76 174 75 80 171 78 83 168 81 86 166 83 88 166 83 88 166 82 88 169 80 85 172 77 82 177 73 77 182 68 72 187 63 67 191 59 63 195 55 59 198 52 56 200 51 54 201 50 53 200 51 54 199 52 55 197 53 57 195 55 59 193 57 61 191 59 63 190 60 64 188 62 66 186 64 68 184 65 70 182 68 72 179 70 75 176 73 78 172 77 82 169 80 85 165 83 89 163 86 91 162 87 92 162 87 92 164 84 90 169 80 85 175 74 79 184 66 70 193 57 61 203 48 51 213 39 41 221 31 33 228 24 26 233 20 21 235 18 19 235 18 19 231 21 23 226 27 28 218 34 36 209 42 45 200 51 54 191 59 63 184 66 70 177 72 77 172 77 82 170 79 84 169 80 85 169 80 85 171 78 83 173 76 81 176 74 78 178 71 76 180 69 74 182 68 72 182 68 72 182 68 72 181 69 73 180 70 74 178 72 76 176 73 78 175 75 79 174 75 80 173 76 81 173 76 81 174 75 80 175 74 79 177 73 77 178 71 76 180 70 74 181 69 73 182 68 72 182 68 72 182 68 72 181 69 73 180 70 74 179 71 75 177 72 77 175 74 79 174 75 80 173 77 81 172 77 82 171 78 83 171 78 83 171 78 83 172 78 82 172 77 82 173 76 81 174 75 80 175 75 79 175 74 79 
188 62 66 188 63 66 187 63 67 186 64 68 185 64 69 185 65 69 184 66 70 183 67 71 182 68 72 180 69 74 180 70 74 179 71 75 178 72 76 177 72 77 177 73 77 177 73 77 176 73 78 176 73 78 177 73 77 177 73 77 177 72 77 177 72 77 177 72 77 177 73 77 176 73 78 176 74 78 175 74 79 174 75 80 174 75 80 173 76 81 173 76 81 173 76 81 174 75 80 175 74 79 177 72 77 179 70 75 182 68 72 185 65 69 188 62 66 191 60 63 193 57 61 195 56 59 195 55 59 195 55 59 194 56 60 193 58 61 190 60 64 187 63 67 184 66 70 181 69 73 178 72 76 176 74 78 174 75 80 174 76 80 174 75 80 175 74 79 177 73 77 179 71 75 181 69 73 183 67 71 184 66 70 185 65 69 185 65 69 185 65 69 185 65 69 184 66 70 183 67 71 182 68 72 181 69 73 181 69 73 181 69 73 181 69 73 182 68 72 182 68 72 182 68 72 182 68 72 181 69 73 179 70 75 177 72 77 175 75 79 172 77 82 170 79 84 169 80 85 168 81 86 169 80 85 170 79 84 174 76 80 178 72 76 183 67 71 188 62 66 193 57 61 198 53 56 202 49 52 205 46 49 206 45 48 206 45 48 206 46 48 204 47 50 201 50 53 198 52 56 195 55 59 193 58 61 190 60 64 188 62 66 186 64 68 184 66 70 182 68 72 179 70 75 177 72 77 174 75 80 172 77 82 170 79 84 168 81 86 167 81 87 168 81 86 170 79 84 174 75 80 179 71 75 186 64 68 193 57 61 201 50 53 209 43 45 215 36 39 221 31 33 224 28 30 226 26 28 225 27 29 222 30 32 217 35 37 211 41 43 203 48 51 196 55 58 189 61 65 182 68 72 177 72 77 173 76 81 171 78 83 170 79 84 170 79 84 172 77 82 173 76 81 175 74 79 177 72 77 179 71 75 180 70 74 180 70 74 179 70 75 179 71 75 177 72 77 176 73 78 175 74 79 174 75 80 174 76 80 174 76 80 174 75 80 175 74 79 176 73 78 178 72 76 179 70 75 180 69 74 181 68 73 182 68 72 182 68 72 181 68 73 180 69 74 179 70 75 178 72 76 176 73 78 175 75 79 173 76 81 172 77 82 172 77 82 171 78 83 172 78 82 172 77 82 173 76 81 174 76 80 175 75 79 176 74 78 176 73 78 177 72 77 
189 61 65 189 61 65 188 62 66 188 63 66 187 63 67 186 64 68 185 65 69 183 66 71 182 68 72 181 69 73 180 70 74 179 71 75 178 72 76 177 73 77 176 73 78 176 73 78 176 73 78 177 73 77 177 73 77 177 72 77 178 72 76 178 71 76 178 71 76 178 71 76 178 72 76 177 72 77 176 73 78 175 74 79 175 75 79 174 75 80 173 76 81 174 76 80 174 75 80 176 74 78 178 72 76 180 69 74 184 66 70 187 63 67 191 59 63 194 56 60 197 54 57 199 52 55 200 51 54 200 51 54 199 52 55 197 54 57 193 57 61 190 61 64 185 64 69 181 68 73 178 72 76 175 74 79 174 75 80 174 76 80 175 75 79 177 72 77 180 69 74 184 65 70 189 62 65 193 58 61 196 54 58 199 52 55 201 50 53 201 50 53 201 50 53 199 52 55 197 54 57 194 56 60 191 59 63 189 62 65 186 64 68 184 66 70 182 68 72 181 69 73 179 70 75 178 71 76 177 72 77 176 74 78 174 75 80 173 77 81 171 78 83 170 79 84 169 80 85 170 79 84 171 78 83 173 76 81 177 73 77 181 69 73 186 64 68 191 59 63 196 54 58 201 50 53 205 46 49 208 43 46 209 42 45 210 42 44 209 43 45 207 45 47 204 47 50 200 50 54 197 54 57 194 57 60 191 60 63 188 62 66 185 65 69 183 67 71 181 68 73 179 70 75 178 72 76 176 74 78 174 75 80 173 77 81 172 78 82 171 78 83 172 77 82 174 76 80 177 73 77 181 69 73 186 64 68 191 59 63 197 53 57 203 48 51 208 43 46 212 39 42 215 37 39 216 36 38 215 37 39 212 39 42 208 43 46 203 48 51 197 53 57 191 59 63 185 64 69 180 69 74 176 73 78 173 76 81 172 77 82 171 78 83 171 78 83 172 77 82 174 75 80 175 74 79 176 73 78 177 72 77 178 72 76 178 72 76 177 72 77 177 73 77 176 74 78 175 74 79 174 75 80 174 76 80 174 76 80 174 75 80 175 74 79 176 73 78 177 72 77 179 71 75 180 70 74 181 69 73 182 68 72 182 68 72 182 68 72 181 69 73 180 70 74 179 71 75 177 72 77 176 74 78 174 75 80 173 76 81 172 77 82 172 77 82 172 77 82 172 77 82 173 76 81 174 75 80 175 74 79 176 73 78 177 72 77 178 72 76 179 71 75 
190 60 64 190 61 64 189 61 65 189 61 65 188 62 66 187 63 67 186 64 68 184 66 70 183 67 71 181 69 73 180 70 74 178 71 76 177 72 77 177 73 77 176 73 78 176 73 78 176 73 78 177 73 77 177 72 77 178 72 76 179 71 75 179 70 75 179 70 75 179 70 75 179 70 75 178 71 76 178 72 76 176 73 78 175 74 79 174 75 80 174 76 80 174 76 80 174 75 80 176 74 78 178 72 76 181 69 73 184 65 70 188 62 66 193 58 61 197 54 57 200 51 54 202 49 52 204 47 50 204 47 50 202 49 52 200 51 54 196 55 58 191 59 63 187 63 67 182 68 72 178 71 76 175 74 79 174 76 80 174 76 80 175 74 79 179 71 75 183 66 71 189 61 65 195 56 59 200 50 54 205 46 49 209 42 45 212 40 42 212 39 42 212 40 42 209 42 45 206 45 48 202 49 52 197 54 57 192 58 62 188 62 66 184 66 70 181 69 73 178 71 76 176 73 78 175 74 79 174 75 80 173 76 81 172 77 82 172 78 82 171 78 83 171 79 83 171 79 83 171 78 83 172 77 82 175 75 79 178 72 76 182 68 72 186 64 68 191 59 63 196 54 58 201 50 53 205 46 49 208 43 46 210 42 44 210 41 44 209 42 45 207 44 47 205 46 49 201 49 53 198 53 56 194 56 60 191 59 63 188 62 66 185 65 69 183 67 71 181 69 73 179 70 75 178 72 76 176 73 78 175 74 79 174 75 80 174 76 80 174 76 80 174 75 80 176 74 78 178 72 76 181 69 73 185 65 69 189 61 65 193 57 61 197 53 57 201 50 53 204 47 50 205 46 49 206 45 48 205 46 49 203 48 51 200 51 54 196 55 58 191 59 63 187 63 67 182 68 72 178 71 76 176 74 78 173 76 81 172 77 82 172 77 82 172 77 82 173 76 81 174 75 80 175 74 79 176 74 78 176 73 78 176 73 78 176 73 78 176 74 78 175 74 79 175 75 79 174 75 80 174 76 80 174 76 80 174 75 80 175 75 79 176 74 78 177 73 77 178 71 76 179 70 75 181 69 73 181 68 73 182 68 72 182 68 72 181 68 73 181 69 73 179 70 75 178 71 76 177 73 77 175 74 79 174 75 80 173 76 81 173 76 81 173 77 81 173 76 81 173 76 81 174 75 80 175 74 79 176 73 78 177 72 77 178 71 76 179 70 75 180 70 74 
190 60 64 190 60 64 190 60 64 190 61 64 189 61 65 188 62 66 186 64 68 185 65 69 183 67 71 181 68 73 180 70 74 178 71 76 177 72 77 176 73 78 176 74 78 176 74 78 176 73 78 177 73 77 178 72 76 178 71 76 179 70 75 180 69 74 181 69 73 181 69 73 181 69 73 180 70 74 179 71 75 178 72 76 176 73 78 175 74 79 174 75 80 174 76 80 174 75 80 175 74 79 178 72 76 181 69 73 184 65 70 189 61 65 193 57 61 198 53 56 201 50 53 204 47 50 206 45 48 206 45 48 204 47 50 202 49 52 197 53 57 193 58 61 187 63 67 182 67 72 178 72 76 175 74 79 173 76 81 174 76 80 176 73 78 180 70 74 185 64 69 192 58 62 199 52 55 205 46 49 211 40 43 216 36 38 218 34 36 219 33 35 218 34 36 215 37 39 210 41 44 205 46 49 199 52 55 192 58 62 187 63 67 182 68 72 178 72 76 175 74 79 173 76 81 172 77 82 172 77 82 172 78 82 172 77 82 172 77 82 172 77 82 172 77 82 172 77 82 173 77 81 173 76 81 175 74 79 177 72 77 181 69 73 184 65 70 189 61 65 193 57 61 198 53 56 202 49 52 205 46 49 207 44 47 208 43 46 208 43 46 207 45 47 204 47 50 201 50 53 198 53 56 194 56 60 191 59 63 188 63 66 185 65 69 182 68 72 180 69 74 179 71 75 177 72 77 176 73 78 175 74 79 175 75 79 174 75 80 175 75 79 175 74 79 176 73 78 178 72 76 180 70 74 182 67 72 185 65 69 188 62 66 191 59 63 194 57 60 196 55 58 197 54 57 197 54 57 196 55 58 194 56 60 192 59 62 189 61 65 185 64 69 182 68 72 179 70 75 177 73 77 175 75 79 173 76 81 173 77 81 172 77 82 173 76 81 173 76 81 174 75 80 175 75 79 175 74 79 175 74 79 175 74 79 175 74 79 175 75 79 174 75 80 174 76 80 173 76 81 173 76 81 174 76 80 174 75 80 175 74 79 176 73 78 178 72 76 179 71 75 180 70 74 181 69 73 181 68 73 182 68 72 182 68 72 181 69 73 180 70 74 179 71 75 178 72 76 176 73 78 175 74 79 174 75 80 173 76 81 173 76 81 173 76 81 173 76 81 174 75 80 175 74 79 176 73 78 177 72 77 178 71 76 179 70 75 180 69 74 181 69 73 
190 60 64 191 60 63 190 60 64 190 60 64 189 61 65 188 62 66 187 63 67 185 65 69 183 67 71 181 68 73 180 70 74 178 71 76 177 73 77 176 73 78 176 74 78 176 74 78 176 73 78 177 73 77 178 72 76 179 71 75 180 69 74 181 68 73 182 68 72 182 68 72 182 68 72 181 68 73 180 69 74 179 71 75 177 72 77 176 74 78 174 75 80 174 76 80 174 75 80 175 74 79 177 72 77 180 70 74 184 66 70 188 62 66 193 57 61 197 53 57 201 49 53 204 47 50 206 45 48 206 45 48 205 46 49 202 49 52 198 53 56 193 57 61 188 62 66 182 67 72 178 72 76 175 75 79 173 76 81 174 76 80 176 73 78 181 69 73 187 63 67 193 57 61 201 50 53 208 44 46 214 38 40 218 34 36 221 31 33 221 31 33 219 33 35 216 36 38 210 41 44 204 47 50 197 54 57 190 60 64 184 66 70 178 71 76 174 75 80 172 77 82 170 79 84 170 79 84 171 79 83 171 78 83 172 77 82 173 76 81 174 76 80 174 75 80 174 75 80 174 75 80 174 75 80 175 75 79 176 73 78 178 71 76 181 69 73 184 65 70 188 62 66 193 58 61 196 54 58 200 51 54 203 48 51 204 47 50 205 46 49 204 47 50 203 48 51 200 51 54 197 54 57 194 57 60 190 60 64 187 63 67 184 66 70 181 68 73 179 70 75 178 72 76 176 73 78 175 74 79 175 74 79 174 75 80 174 75 80 175 75 79 175 74 79 176 74 78 177 73 77 178 71 76 180 70 74 182 68 72 184 66 70 186 64 68 187 63 67 188 62 66 189 61 65 189 61 65 188 62 66 187 63 67 185 65 69 183 67 71 181 69 73 179 71 75 177 73 77 175 74 79 174 76 80 173 76 81 173 77 81 173 76 81 173 76 81 174 76 80 174 75 80 175 75 79 175 75 79 175 75 79 175 75 79 174 75 80 174 75 80 174 76 80 173 76 81 173 76 81 173 76 81 174 75 80 175 75 79 176 74 78 177 73 77 178 72 76 179 70 75 180 69 74 181 69 73 181 68 73 181 68 73 181 69 73 180 69 74 179 70 75 178 71 76 177 72 77 176 73 78 175 74 79 174 75 80 174 75 80 174 76 80 174 75 80 174 75 80 175 74 79 176 73 78 177 72 77 178 71 76 179 70 75 180 70 74 181 69 73 181 68 73 
190 60 64 191 60 63 191 60 63 190 60 64 190 61 64 188 62 66 187 63 67 185 65 69 183 66 71 181 68 73 180 70 74 178 72 76 177 73 77 176 74 78 175 74 79 175 74 79 176 74 78 177 73 77 178 71 76 179 70 75 181 69 73 182 68 72 183 67 71 183 66 71 183 66 71 183 67 71 181 68 73 180 70 74 178 71 76 176 73 78 175 75 79 174 75 80 174 76 80 174 75 80 176 73 78 179 71 75 183 67 71 187 63 67 192 59 62 196 54 58 200 51 54 203 48 51 205 46 49 206 46 48 204 47 50 202 49 52 198 53 56 193 58 61 187 63 67 182 68 72 178 72 76 175 75 79 173 76 81 174 76 80 176 73 78 181 69 73 187 63 67 194 57 60 201 50 53 208 44 46 213 38 41 217 34 37 220 32 34 219 33 35 217 35 37 213 39 41 207 45 47 200 51 54 192 58 62 185 64 69 179 70 75 174 75 80 171 78 83 169 80 85 169 80 85 169 80 85 171 78 83 172 77 82 174 75 80 175 74 79 176 73 78 176 73 78 176 74 78 175 74 79 174 75 80 174 75 80 174 75 80 175 74 79 177 73 77 179 70 75 182 67 72 186 64 68 190 60 64 194 57 60 197 54 57 199 52 55 200 50 54 201 50 53 200 51 54 198 53 56 196 55 58 193 58 61 189 61 65 186 64 68 183 67 71 181 69 73 178 71 76 177 73 77 175 74 79 175 75 79 174 75 80 174 76 80 174 76 80 174 75 80 174 75 80 175 74 79 176 74 78 177 73 77 178 72 76 179 71 75 180 69 74 181 68 73 182 68 72 183 67 71 183 67 71 183 67 71 182 68 72 181 69 73 180 70 74 179 71 75 177 72 77 176 74 78 174 75 80 174 76 80 173 76 81 173 76 81 173 76 81 173 76 81 173 76 81 174 75 80 174 75 80 174 75 80 174 75 80 174 75 80 174 75 80 174 75 80 173 76 81 173 76 81 173 76 81 173 76 81 173 76 81 174 75 80 175 74 79 176 73 78 177 72 77 178 71 76 179 70 75 180 70 74 181 69 73 181 69 73 181 69 73 180 69 74 180 70 74 179 71 75 178 72 76 177 73 77 176 74 78 175 74 79 174 75 80 174 75 80 174 75 80 174 75 80 175 74 79 176 74 78 177 73 77 178 72 76 179 71 75 180 70 74 180 69 74 181 69 73 181 68 73 
190 61 64 190 60 64 190 60 64 190 60 64 189 61 65 188 62 66 187 63 67 185 65 69 183 67 71 181 68 73 179 70 75 178 72 76 176 73 78 175 74 79 175 74 79 175 74 79 176 74 78 177 73 77 178 71 76 180 70 74 181 68 73 183 67 71 184 66 70 185 65 69 185 65 69 184 66 70 183 67 71 181 69 73 179 71 75 177 72 77 175 74 79 174 75 80 173 76 81 174 75 80 175 74 79 178 72 76 181 69 73 185 65 69 190 61 64 194 56 60 198 53 56 201 50 53 203 48 51 204 47 50 203 48 51 200 51 54 196 54 58 192 59 62 187 63 67 182 68 72 178 72 76 175 75 79 173 76 81 174 76 80 176 73 78 180 69 74 186 64 68 192 58 62 199 52 55 205 46 49 210 41 44 214 38 40 215 36 39 215 37 39 212 40 42 207 44 47 201 50 53 194 57 60 187 63 67 180 70 74 175 75 79 170 79 84 168 81 86 167 82 87 168 81 86 170 79 84 172 77 82 174 75 80 177 73 77 178 71 76 179 70 75 179 71 75 178 71 76 176 73 78 175 75 79 173 76 81 172 77 82 171 78 83 172 77 82 174 76 80 176 73 78 180 70 74 183 66 71 187 63 67 191 60 63 194 57 60 196 55 58 197 54 57 197 54 57 196 55 58 194 57 60 191 59 63 188 62 66 185 65 69 182 67 72 180 70 74 177 72 77 176 74 78 174 75 80 173 76 81 173 76 81 173 76 81 173 76 81 173 76 81 174 76 80 174 75 80 175 75 79 175 74 79 176 73 78 177 73 77 177 72 77 178 71 76 178 71 76 179 71 75 179 71 75 178 71 76 178 72 76 177 72 77 176 73 78 175 74 79 174 75 80 174 76 80 173 76 81 173 77 81 173 77 81 173 77 81 173 76 81 173 76 81 174 76 80 174 75 80 174 75 80 174 75 80 174 75 80 174 75 80 174 75 80 174 76 80 173 76 81 173 76 81 173 76 81 173 76 81 174 76 80 174 75 80 175 74 79 176 73 78 177 72 77 178 71 76 179 71 75 180 70 74 180 69 74 180 69 74 180 69 74 180 70 74 179 71 75 178 71 76 177 72 77 176 73 78 176 74 78 175 74 79 175 75 79 174 75 80 174 75 80 175 74 79 175 74 79 176 73 78 177 72 77 178 71 76 179 71 75 180 70 74 180 69 74 181 69 73 181 69 73 
189 61 65 189 61 65 190 61 64 189 61 65 189 61 65 188 62 66 187 63 67 185 65 69 183 67 71 181 69 73 179 71 75 177 72 77 176 73 78 175 74 79 175 75 79 175 74 79 176 74 78 177 73 77 178 71 76 180 70 74 182 68 72 183 66 71 185 65 69 185 65 69 185 64 69 185 65 69 184 66 70 182 68 72 180 70 74 178 72 76 176 73 78 174 75 80 173 76 81 173 76 81 175 75 79 177 73 77 179 70 75 183 67 71 187 63 67 191 59 63 195 55 59 198 53 56 200 51 54 201 50 53 200 51 54 198 53 56 194 56 60 190 60 64 186 64 68 181 69 73 177 72 77 174 75 80 173 76 81 174 76 80 176 74 78 180 70 74 185 65 69 190 60 64 196 54 58 201 49 53 206 45 48 208 43 46 209 42 45 208 44 46 204 47 50 200 51 54 193 57 61 187 63 67 180 69 74 175 75 79 170 79 84 167 82 87 166 83 88 166 83 88 168 81 86 171 78 83 174 75 80 177 72 77 180 70 74 182 68 72 182 67 72 182 68 72 180 69 74 178 72 76 175 74 79 172 77 82 170 79 84 168 81 86 168 81 86 169 80 85 171 78 83 174 76 80 177 72 77 181 69 73 185 65 69 188 62 66 191 59 63 193 58 61 193 57 61 193 58 61 191 59 63 189 61 65 187 63 67 184 66 70 181 69 73 179 71 75 176 73 78 175 75 79 173 76 81 172 77 82 172 77 82 172 77 82 172 77 82 172 77 82 173 76 81 173 76 81 174 75 80 174 75 80 175 74 79 175 74 79 176 74 78 176 73 78 176 73 78 176 73 78 176 73 78 176 74 78 175 74 79 175 75 79 174 75 80 173 76 81 173 76 81 173 77 81 172 77 82 172 77 82 172 77 82 173 77 81 173 76 81 173 76 81 174 76 80 174 75 80 174 75 80 174 75 80 174 75 80 174 75 80 174 76 80 173 76 81 173 76 81 173 76 81 173 76 81 173 76 81 174 75 80 174 75 80 175 74 79 176 73 78 177 72 77 178 72 76 179 71 75 179 70 75 179 70 75 180 70 74 179 70 75 179 71 75 178 71 76 177 72 77 177 73 77 176 73 78 175 74 79 175 74 79 175 75 79 175 75 79 175 75 79 175 74 79 176 74 78 177 73 77 177 72 77 178 71 76 179 71 75 180 70 74 180 70 74 180 69 74 181 69 73 
188 62 66 188 62 66 189 61 65 189 62 65 188 62 66 187 63 67 186 64 68 184 66 70 182 67 72 180 69 74 179 71 75 177 72 77 176 74 78 175 74 79 174 75 80 175 75 79 176 74 78 177 73 77 178 71 76 180 69 74 182 68 72 184 66 70 185 65 69 186 64 68 186 64 68 186 64 68 185 65 69 183 67 71 181 69 73 179 71 75 177 73 77 175 75 79 174 76 80 173 76 81 174 75 80 175 74 79 178 72 76 181 69 73 185 65 69 188 62 66 192 59 62 195 56 59 196 54 58 197 53 57 197 54 57 195 56 59 192 58 62 188 62 66 184 66 70 180 69 74 177 72 77 174 75 80 173 76 81 174 76 80 175 74 79 179 71 75 183 67 71 188 62 66 192 58 62 197 54 57 200 51 54 202 49 52 202 49 52 200 51 54 196 54 58 192 59 62 186 64 68 180 70 74 175 75 79 170 79 84 167 82 87 165 84 89 165 84 89 167 82 87 169 80 85 173 76 81 177 72 77 181 69 73 184 66 70 185 65 69 186 64 68 185 65 69 182 67 72 179 70 75 176 74 78 172 77 82 169 80 85 166 83 88 165 84 89 165 84 89 166 82 88 169 80 85 172 77 82 176 73 78 180 70 74 184 66 70 187 63 67 189 61 65 190 60 64 190 60 64 189 61 65 187 63 67 185 65 69 183 67 71 180 70 74 178 72 76 175 74 79 174 76 80 172 77 82 172 77 82 171 78 83 171 78 83 171 78 83 172 77 82 172 77 82 173 76 81 174 76 80 174 75 80 175 75 79 175 74 79 175 74 79 175 74 79 175 74 79 175 74 79 175 74 79 175 75 79 174 75 80 174 76 80 173 76 81 173 77 81 172 77 82 172 77 82 172 77 82 172 77 82 172 77 82 173 77 81 173 76 81 173 76 81 174 75 80 174 75 80 174 75 80 174 75 80 174 75 80 174 75 80 174 76 80 173 76 81 173 76 81 173 76 81 173 76 81 173 76 81 174 75 80 174 75 80 175 74 79 176 73 78 177 73 77 177 72 77 178 71 76 178 71 76 179 71 75 179 71 75 178 71 76 178 72 76 177 72 77 177 73 77 176 73 78 176 74 78 175 74 79 175 75 79 175 75 79 175 75 79 175 74 79 175 74 79 176 73 78 177 73 77 177 72 77 178 71 76 179 71 75 179 70 75 180 70 74 180 70 74 180 70 74 
186 64 68 187 63 67 187 63 67 187 63 67 187 63 67 186 64 68 185 65 69 183 66 71 182 68 72 180 70 74 178 71 76 177 73 77 175 74 79 175 75 79 174 75 80 175 75 79 175 74 79 177 73 77 178 71 76 180 69 74 182 68 72 184 66 70 185 65 69 186 64 68 186 64 68 186 64 68 185 65 69 184 66 70 182 68 72 179 70 75 177 72 77 175 74 79 174 75 80 173 76 81 173 76 81 174 75 80 176 73 78 179 71 75 182 68 72 185 65 69 188 62 66 191 59 63 193 58 61 193 57 61 193 57 61 192 59 62 189 61 65 186 64 68 183 67 71 180 70 74 177 73 77 174 75 80 173 76 81 174 76 80 175 74 79 178 72 76 181 69 73 185 65 69 188 62 66 192 59 62 194 57 60 195 56 59 194 56 60 192 58 62 188 62 66 184 66 70 179 70 75 174 75 80 170 79 84 166 82 88 164 84 90 164 85 90 165 83 89 168 81 86 172 77 82 176 73 78 180 69 74 184 66 70 187 63 67 189 61 65 189 61 65 187 63 67 184 66 70 181 69 73 176 73 78 172 77 82 168 81 86 165 84 89 163 85 91 163 86 91 164 85 90 166 83 88 169 80 85 173 77 81 177 73 77 180 69 74 183 67 71 186 64 68 187 63 67 187 63 67 187 63 67 185 65 69 183 66 71 181 69 73 179 71 75 177 73 77 175 75 79 173 76 81 172 77 82 171 78 83 171 78 83 171 78 83 171 78 83 172 77 82 173 77 81 173 76 81 174 75 80 175 75 79 175 74 79 175 74 79 176 74 78 176 74 78 176 74 78 175 74 79 175 74 79 175 75 79 174 75 80 174 76 80 173 76 81 173 77 81 172 77 82 172 77 82 172 77 82 172 77 82 173 77 81 173 76 81 173 76 81 174 76 80 174 75 80 174 75 80 174 75 80 174 75 80 174 75 80 174 75 80 174 76 80 173 76 81 173 76 81 173 76 81 173 76 81 174 76 80 174 75 80 174 75 80 175 74 79 176 74 78 176 73 78 177 72 77 177 72 77 178 72 76 178 72 76 178 72 76 177 72 77 177 72 77 177 73 77 176 73 78 176 74 78 175 74 79 175 74 79 175 75 79 175 75 79 175 75 79 175 74 79 176 74 78 176 73 78 177 73 77 177 72 77 178 72 76 178 71 76 179 71 75 179 71 75 179 70 75 179 71 75 
185 65 69 186 64 68 186 64 68 186 64 68 186 64 68 185 65 69 184 66 70 183 67 71 181 69 73 179 70 75 178 72 76 176 73 78 175 74 79 174 75 80 174 75 80 174 75 80 175 74 79 177 73 77 178 71 76 180 70 74 182 68 72 184 66 70 185 65 69 186 64 68 186 64 68 186 64 68 185 65 69 184 66 70 182 68 72 180 70 74 178 72 76 176 73 78 174 75 80 173 76 81 173 76 81 174 76 80 175 74 79 177 72 77 180 70 74 182 68 72 185 65 69 187 63 67 189 61 65 189 61 65 189 61 65 188 62 66 187 63 67 184 66 70 181 68 73 179 71 75 176 73 78 174 75 80 174 76 80 174 76 80 175 75 79 177 73 77 179 70 75 182 68 72 185 65 69 187 63 67 188 62 66 188 62 66 187 63 67 185 65 69 181 68 73 178 72 76 173 76 81 170 79 84 166 82 88 164 84 90 164 85 90 165 84 89 167 82 87 170 79 84 175 75 79 179 70 75 184 66 70 187 63 67 190 60 64 191 59 63 191 59 63 189 61 65 186 64 68 182 68 72 177 72 77 173 77 81 168 81 86 165 84 89 163 86 91 162 86 92 163 86 91 165 84 89 168 81 86 171 78 83 174 75 80 178 72 76 181 69 73 183 67 71 184 65 70 185 65 69 185 65 69 183 66 71 182 68 72 180 70 74 178 72 76 176 74 78 174 75 80 172 77 82 172 78 82 171 78 83 171 78 83 171 78 83 172 77 82 172 77 82 173 76 81 174 75 80 175 75 79 175 74 79 176 73 78 176 73 78 177 73 77 177 73 77 176 73 78 176 73 78 176 74 78 175 74 79 175 75 79 174 75 80 174 76 80 173 76 81 173 76 81 173 77 81 173 77 81 173 76 81 173 76 81 173 76 81 174 76 80 174 75 80 174 75 80 174 75 80 174 75 80 174 75 80 174 75 80 174 75 80 174 76 80 173 76 81 173 76 81 173 76 81 173 76 81 174 76 80 174 75 80 174 75 80 175 74 79 175 74 79 176 73 78 176 73 78 177 73 77 177 73 77 177 72 77 177 73 77 177 73 77 176 73 78 176 73 78 175 74 79 175 74 79 175 75 79 175 75 79 175 75 79 175 75 79 175 74 79 175 74 79 176 74 78 176 73 78 177 73 77 177 72 77 178 72 76 178 71 76 178 71 76 178 71 76 178 71 76 178 71 76 
183 67 71 184 66 70 184 65 70 185 65 69 184 66 70 184 66 70 183 67 71 182 68 72 180 69 74 179 71 75 177 72 77 176 73 78 175 74 79 174 75 80 174 75 80 174 75 80 175 74 79 176 73 78 178 72 76 180 70 74 181 68 73 183 67 71 185 65 69 186 64 68 186 64 68 186 64 68 185 65 69 184 66 70 182 67 72 180 69 74 178 71 76 177 73 77 175 74 79 174 76 80 173 76 81 173 76 81 174 75 80 176 74 78 177 72 77 180 70 74 182 68 72 184 66 70 185 65 69 186 64 68 186 64 68 185 65 69 184 66 70 182 68 72 180 70 74 178 72 76 176 74 78 174 75 80 174 76 80 174 76 80 174 75 80 176 74 78 177 72 77 179 70 75 181 69 73 182 68 72 183 67 71 182 67 72 181 69 73 179 71 75 176 74 78 173 77 81 169 80 85 167 82 87 165 84 89 164 85 90 164 84 90 166 83 88 169 80 85 173 76 81 178 72 76 182 68 72 186 64 68 190 60 64 192 58 62 193 57 61 192 58 62 190 60 64 187 63 67 183 67 71 178 71 76 174 76 80 169 80 85 166 83 88 164 84 90 163 85 91 164 85 90 165 83 89 168 81 86 171 78 83 174 75 80 177 72 77 180 70 74 181 68 73 183 67 71 183 67 71 183 67 71 182 68 72 180 70 74 178 71 76 177 73 77 175 74 79 173 76 81 172 77 82 172 78 82 171 78 83 171 78 83 172 77 82 172 77 82 173 76 81 174 75 80 175 74 79 176 74 78 177 73 77 177 72 77 178 72 76 178 72 76 178 72 76 178 72 76 177 72 77 177 72 77 176 73 78 176 74 78 175 74 79 174 75 80 174 75 80 174 76 80 173 76 81 173 76 81 173 76 81 173 76 81 174 76 80 174 75 80 174 75 80 174 75 80 174 75 80 174 75 80 174 75 80 174 75 80 174 75 80 174 76 80 173 76 81 173 76 81 173 76 81 173 76 81 174 76 80 174 75 80 174 75 80 175 75 79 175 74 79 175 74 79 176 74 78 176 73 78 176 73 78 176 73 78 176 73 78 176 73 78 176 74 78 175 74 79 175 74 79 175 75 79 175 75 79 174 75 80 174 75 80 175 75 79 175 74 79 175 74 79 176 74 78 176 73 78 177 73 77 177 72 77 177 72 77 178 72 76 178 72 76 178 72 76 178 72 76 177 72 77 
182 68 72 182 67 72 183 67 71 183 67 71 183 67 71 182 67 72 182 68 72 180 69 74 179 70 75 178 71 76 177 73 77 176 74 78 175 75 79 174 75 80 174 75 80 174 75 80 175 74 79 176 73 78 178 72 76 179 70 75 181 69 73 182 67 72 184 66 70 185 65 69 185 65 69 185 64 69 185 65 69 184 66 70 182 67 72 181 69 73 179 71 75 177 72 77 175 74 79 174 75 80 173 76 81 173 76 81 174 76 80 175 75 79 176 73 78 177 72 77 179 71 75 181 69 73 182 68 72 182 67 72 183 67 71 182 68 72 181 68 73 180 70 74 178 71 76 177 73 77 175 74 79 174 75 80 174 75 80 174 76 80 174 75 80 175 74 79 176 73 78 177 72 77 178 71 76 179 71 75 178 71 76 178 72 76 176 73 78 174 75 80 172 77 82 169 80 85 167 82 87 165 83 89 165 84 89 165 84 89 166 83 88 169 80 85 172 77 82 176 73 78 180 69 74 185 65 69 189 62 65 192 59 62 193 57 61 194 57 60 193 58 61 191 60 63 187 63 67 183 67 71 179 71 75 175 74 79 171 78 83 168 80 86 167 82 87 166 83 88 166 83 88 168 81 86 170 79 84 172 77 82 175 75 79 177 72 77 179 70 75 181 69 73 181 68 73 181 68 73 181 69 73 180 70 74 179 71 75 177 72 77 176 74 78 174 75 80 173 76 81 172 77 82 172 77 82 172 77 82 172 77 82 173 77 81 173 76 81 174 75 80 175 74 79 176 73 78 177 72 77 178 72 76 179 71 75 179 71 75 179 70 75 179 70 75 179 71 75 179 71 75 178 71 76 177 72 77 177 73 77 176 73 78 175 74 79 175 75 79 174 75 80 174 75 80 174 76 80 174 76 80 174 76 80 174 75 80 174 75 80 174 75 80 174 75 80 174 75 80 174 75 80 174 75 80 174 75 80 174 75 80 174 76 80 173 76 81 173 76 81 173 76 81 173 76 81 173 76 81 174 76 80 174 75 80 174 75 80 175 75 79 175 74 79 175 74 79 176 74 78 176 74 78 176 74 78 175 74 79 175 74 79 175 74 79 175 74 79 175 75 79 174 75 80 174 75 80 174 75 80 174 75 80 175 75 79 175 74 79 175 74 79 176 74 78 176 73 78 177 73 77 177 73 77 177 72 77 177 72 77 177 72 77 177 72 77 177 73 77 177 73 77 
180 70 74 181 69 73 181 69 73 181 68 73 181 68 73 181 69 73 180 69 74 179 70 75 178 71 76 177 72 77 176 73 78 175 74 79 175 75 79 174 75 80 174 75 80 174 75 80 175 74 79 176 74 78 177 72 77 179 71 75 180 70 74 182 68 72 183 67 71 184 66 70 184 65 70 185 65 69 184 66 70 183 66 71 182 68 72 181 69 73 179 70 75 178 72 76 176 73 78 175 75 79 174 75 80 174 76 80 174 76 80 174 75 80 175 74 79 176 74 78 177 72 77 178 71 76 179 71 75 180 70 74 180 70 74 179 70 75 179 71 75 178 71 76 177 72 77 176 73 78 175 74 79 174 75 80 174 75 80 174 76 80 174 75 80 174 75 80 175 74 79 176 74 78 176 74 78 176 74 78 175 74 79 174 75 80 173 76 81 171 78 83 170 79 84 168 81 86 167 82 87 166 83 88 166 83 88 167 82 87 169 80 85 171 78 83 175 74 79 179 71 75 183 67 71 187 63 67 190 60 64 192 58 62 193 57 61 193 57 61 192 58 62 190 60 64 187 63 67 184 66 70 180 70 74 176 73 78 173 76 81 171 78 83 170 79 84 169 80 85 170 79 84 171 78 83 172 77 82 174 75 80 176 73 78 178 71 76 179 70 75 180 69 74 181 69 73 180 69 74 180 70 74 179 71 75 177 72 77 176 73 78 175 75 79 174 76 80 173 76 81 172 77 82 172 77 82 172 77 82 173 76 81 174 76 80 174 75 80 175 74 79 176 73 78 177 72 77 178 71 76 179 70 75 180 70 74 180 70 74 180 69 74 180 69 74 180 70 74 180 70 74 179 71 75 178 71 76 177 72 77 177 73 77 176 73 78 175 74 79 175 75 79 174 75 80 174 75 80 174 75 80 174 75 80 174 75 80 174 75 80 174 75 80 174 75 80 174 75 80 174 75 80 174 75 80 174 75 80 174 75 80 174 76 80 173 76 81 173 76 81 173 76 81 173 76 81 173 76 81 174 76 80 174 75 80 174 75 80 175 75 79 175 75 79 175 74 79 175 74 79 175 74 79 175 74 79 175 74 79 175 74 79 175 75 79 174 75 80 174 75 80 174 75 80 174 75 80 174 75 80 175 75 79 175 75 79 175 74 79 175 74 79 176 74 78 176 73 78 176 73 78 177 73 77 177 73 77 177 73 77 177 73 77 177 73 77 176 73 78 176 73 78 
179 71 75 179 70 75 180 70 74 180 70 74 180 70 74 180 70 74 179 71 75 178 71 76 178 72 76 177 73 77 176 74 78 175 74 79 174 75 80 174 75 80 174 75 80 174 75 80 175 75 79 176 74 78 177 73 77 178 72 76 179 70 75 181 69 73 182 68 72 183 67 71 183 67 71 183 66 71 183 67 71 183 67 71 182 68 72 181 69 73 179 70 75 178 72 76 176 73 78 175 74 79 174 75 80 174 75 80 174 76 80 174 75 80 174 75 80 175 74 79 176 74 78 176 73 78 177 73 77 177 72 77 177 72 77 177 72 77 177 72 77 176 73 78 176 74 78 175 74 79 175 75 79 174 75 80 174 75 80 174 76 80 174 75 80 174 75 80 174 75 80 174 75 80 174 75 80 174 75 80 173 76 81 173 77 81 171 78 83 170 79 84 169 80 85 168 81 86 167 82 87 167 82 87 168 81 86 169 80 85 172 78 82 174 75 80 178 72 76 181 69 73 184 65 70 187 63 67 190 60 64 192 59 62 192 58 62 192 58 62 191 60 63 189 61 65 186 64 68 183 67 71 180 69 74 178 72 76 176 74 78 174 75 80 173 76 81 173 76 81 174 76 80 175 75 79 176 73 78 177 72 77 178 71 76 179 70 75 180 70 74 180 69 74 180 70 74 179 70 75 179 71 75 177 72 77 176 73 78 175 74 79 174 75 80 173 76 81 173 76 81 173 76 81 173 76 81 173 76 81 174 75 80 175 75 79 176 74 78 177 73 77 178 72 76 178 71 76 179 70 75 180 70 74 181 69 73 181 69 73 181 69 73 181 69 73 181 69 73 180 70 74 179 70 75 179 71 75 178 72 76 177 72 77 176 73 78 176 74 78 175 74 79 175 75 79 174 75 80 174 75 80 174 75 80 174 75 80 174 75 80 174 75 80 174 75 80 174 75 80 174 75 80 174 75 80 174 75 80 174 75 80 174 76 80 173 76 81 173 76 81 173 76 81 173 76 81 173 76 81 174 76 80 174 75 80 174 75 80 174 75 80 175 75 79 175 75 79 175 74 79 175 74 79 175 75 79 175 75 79 175 75 79 174 75 80 174 75 80 174 75 80 174 75 80 174 75 80 174 75 80 175 75 79 175 74 79 175 74 79 176 74 78 176 73 78 176 73 78 177 73 77 177 73 77 177 73 77 177 73 77 177 73 77 176 73 78 176 73 78 176 74 78 
177 72 77 178 72 76 178 71 76 178 71 76 178 71 76 178 71 76 178 72 76 177 72 77 177 73 77 176 73 78 175 74 79 175 75 79 174 75 80 174 75 80 174 75 80 174 75 80 175 75 79 175 74 79 176 73 78 177 72 77 178 71 76 179 70 75 180 69 74 181 68 73 182 68 72 182 68 72 182 68 72 182 68 72 181 69 73 180 70 74 179 71 75 178 72 76 177 73 77 176 74 78 175 74 79 174 75 80 174 75 80 174 75 80 174 75 80 174 75 80 175 75 79 175 74 79 175 74 79 176 74 78 176 74 78 176 74 78 175 74 79 175 74 79 175 75 79 174 75 80 174 75 80 174 75 80 174 76 80 174 76 80 174 76 80 174 76 80 174 75 80 174 76 80 174 76 80 173 76 81 173 77 81 172 77 82 171 78 83 170 79 84 169 80 85 169 80 85 169 80 85 170 79 84 171 78 83 172 77 82 174 75 80 177 72 77 180 70 74 183 67 71 185 65 69 187 63 67 189 61 65 190 60 64 190 60 64 190 61 64 188 62 66 187 63 67 185 65 69 183 67 71 181 69 73 179 71 75 178 72 76 177 72 77 177 73 77 177 72 77 178 72 76 178 71 76 179 70 75 180 70 74 181 69 73 181 69 73 181 69 73 180 69 74 180 70 74 179 71 75 178 72 76 176 73 78 175 74 79 174 75 80 174 76 80 173 76 81 173 76 81 173 76 81 174 76 80 174 75 80 175 74 79 176 74 78 177 73 77 178 72 76 178 71 76 179 70 75 180 70 74 181 69 73 181 69 73 181 69 73 181 69 73 181 69 73 180 69 74 180 70 74 179 70 75 178 71 76 178 72 76 177 73 77 176 73 78 176 74 78 175 74 79 175 75 79 174 75 80 174 75 80 174 75 80 174 75 80 174 75 80 174 75 80 174 75 80 174 75 80 174 75 80 174 75 80 174 75 80 174 76 80 174 76 80 173 76 81 173 76 81 173 76 81 173 76 81 174 76 80 174 76 80 174 75 80 174 75 80 174 75 80 175 75 79 175 75 79 175 75 79 175 75 79 175 75 79 175 75 79 174 75 80 174 75 80 174 75 80 174 75 80 174 75 80 174 75 80 175 75 79 175 74 79 175 74 79 176 74 78 176 74 78 176 73 78 176 73 78 177 73 77 177 73 77 177 73 77 177 73 77 176 73 78 176 73 78 176 74 78 175 74 79 
176 73 78 177 73 77 177 72 77 177 72 77 177 72 77 177 72 77 177 73 77 176 73 78 176 73 78 176 74 78 175 74 79 175 75 79 174 75 80 174 75 80 174 75 80 174 75 80 174 75 80 175 74 79 176 74 78 177 73 77 177 72 77 178 71 76 179 70 75 180 70 74 180 69 74 181 69 73 181 69 73 180 69 74 180 70 74 179 70 75 179 71 75 178 72 76 177 72 77 176 73 78 175 74 79 175 74 79 175 75 79 174 75 80 174 75 80 174 75 80 174 75 80 174 75 80 174 75 80 174 75 80 174 75 80 174 75 80 174 75 80 174 75 80 174 75 80 174 76 80 174 76 80 174 76 80 173 76 81 174 76 80 174 76 80 174 76 80 174 76 80 173 76 81 173 76 81 173 76 81 172 77 82 172 77 82 171 78 83 171 78 83 171 78 83 171 78 83 171 78 83 172 77 82 173 76 81 175 74 79 177 73 77 179 70 75 181 68 73 183 67 71 185 65 69 186 64 68 187 63 67 188 62 66 187 63 67 187 63 67 186 64 68 184 65 70 183 67 71 182 68 72 181 69 73 180 70 74 180 70 74 180 70 74 180 70 74 180 69 74 181 69 73 182 68 72 182 67 72 183 67 71 183 67 71 182 68 72 181 68 73 180 69 74 179 70 75 178 72 76 177 73 77 175 74 79 175 75 79 174 75 80 173 76 81 173 76 81 173 76 81 174 76 80 174 75 80 175 74 79 176 74 78 177 73 77 178 72 76 178 71 76 179 70 75 180 70 74 180 69 74 181 69 73 181 69 73 181 69 73 181 69 73 180 69 74 180 70 74 179 70 75 179 71 75 178 72 76 177 72 77 176 73 78 176 74 78 175 74 79 175 74 79 175 75 79 174 75 80 174 75 80 174 75 80 174 75 80 174 75 80 174 75 80 174 75 80 174 75 80 174 75 80 174 75 80 174 75 80 174 76 80 174 76 80 173 76 81 173 76 81 173 76 81 173 76 81 174 76 80 174 75 80 174 75 80 174 75 80 174 75 80 175 75 79 175 75 79 175 75 79 175 75 79 175 75 79 174 75 80 174 75 80 174 75 80 174 75 80 174 75 80 174 75 80 175 75 79 175 75 79 175 74 79 175 74 79 176 74 78 176 73 78 176 73 78 177 73 77 177 73 77 177 73 77 177 73 77 177 73 77 176 73 78 176 73 78 176 74 78 175 74 79 
175 74 79 176 74 78 176 73 78 176 73 78 176 73 78 176 73 78 176 73 78 176 74 78 175 74 79 175 74 79 175 75 79 174 75 80 174 75 80 174 75 80 174 75 80 174 75 80 174 75 80 175 75 79 175 74 79 176 74 78 176 73 78 177 72 77 178 72 76 178 71 76 179 71 75 179 70 75 179 70 75 179 70 75 179 71 75 179 71 75 178 71 76 178 72 76 177 72 77 176 73 78 176 74 78 175 74 79 175 74 79 175 75 79 174 75 80 174 75 80 174 75 80 174 75 80 174 75 80 174 75 80 174 76 80 174 76 80 173 76 81 173 76 81 173 76 81 173 76 81 173 76 81 173 76 81 173 76 81 173 76 81 173 76 81 174 76 80 174 76 80 173 76 81 173 76 81 173 76 81 173 76 81 172 77 82 172 77 82 172 77 82 172 77 82 173 76 81 173 76 81 174 75 80 176 74 78 177 72 77 179 71 75 180 69 74 182 68 72 183 67 71 184 66 70 185 65 69 185 65 69 185 65 69 184 66 70 184 66 70 183 67 71 182 68 72 181 69 73 181 69 73 180 69 74 180 69 74 181 69 73 181 68 73 182 68 72 183 67 71 184 66 70 184 66 70 184 65 70 184 66 70 184 66 70 183 67 71 182 68 72 180 69 74 179 71 75 177 72 77 176 73 78 175 75 79 174 75 80 173 76 81 173 76 81 173 76 81 174 76 80 174 75 80 175 74 79 176 74 78 177 73 77 177 72 77 178 71 76 179 71 75 179 70 75 180 70 74 180 70 74 180 69 74 180 69 74 180 70 74 180 70 74 179 70 75 179 71 75 178 71 76 178 72 76 177 73 77 176 73 78 176 74 78 175 74 79 175 75 79 174 75 80 174 75 80 174 75 80 174 75 80 174 75 80 174 75 80 174 75 80 174 75 80 174 75 80 174 75 80 174 75 80 174 75 80 174 75 80 174 76 80 174 76 80 173 76 81 173 76 81 174 76 80 174 76 80 174 75 80 174 75 80 174 75 80 174 75 80 175 75 79 175 75 79 175 75 79 175 75 79 175 75 79 175 75 79 174 75 80 174 75 80 174 75 80 174 75 80 174 75 80 175 75 79 175 75 79 175 74 79 175 74 79 176 74 78 176 73 78 176 73 78 177 73 77 177 73 77 177 73 77 177 73 77 177 73 77 177 73 77 176 73 78 176 73 78 176 74 78 175 74 79 
175 75 79 175 74 79 175 74 79 175 74 79 175 74 79 175 74 79 175 74 79 175 74 79 175 74 79 175 75 79 174 75 80 174 75 80 174 75 80 174 75 80 174 75 80 174 75 80 174 75 80 174 75 80 175 74 79 175 74 79 176 74 78 176 73 78 177 73 77 177 72 77 177 72 77 178 72 76 178 72 76 178 72 76 178 72 76 178 72 76 177 72 77 177 72 77 177 73 77 176 73 78 176 73 78 176 74 78 175 74 79 175 74 79 175 74 79 175 75 79 174 75 80 174 75 80 174 75 80 174 76 80 173 76 81 173 76 81 173 76 81 173 76 81 173 76 81 173 76 81 173 76 81 173 76 81 173 76 81 173 76 81 173 76 81 173 76 81 174 76 80 174 76 80 173 76 81 173 76 81 173 76 81 173 76 81 173 76 81 174 76 80 174 75 80 175 75 79 175 74 79 176 73 78 177 72 77 179 71 75 180 70 74 181 69 73 182 68 72 182 67 72 183 67 71 183 67 71 182 68 72 182 68 72 181 69 73 180 69 74 180 70 74 179 70 75 179 70 75 179 70 75 180 70 74 180 69 74 181 68 73 183 67 71 184 66 70 185 65 69 185 65 69 186 64 68 186 64 68 185 65 69 184 66 70 183 67 71 181 68 73 180 70 74 178 72 76 176 73 78 175 74 79 174 75 80 173 76 81 173 76 81 173 76 81 173 76 81 174 75 80 175 75 79 175 74 79 176 73 78 177 72 77 178 72 76 178 71 76 179 71 75 179 70 75 179 70 75 180 70 74 179 70 75 179 70 75 179 71 75 179 71 75 178 71 76 178 72 76 177 72 77 176 73 78 176 74 78 175 74 79 175 75 79 174 75 80 174 75 80 174 75 80 174 75 80 174 75 80 174 75 80 174 75 80 174 75 80 174 75 80 174 75 80 174 75 80 174 75 80 174 75 80 174 75 80 174 76 80 174 76 80 174 76 80 174 76 80 174 76 80 174 76 80 174 75 80 174 75 80 174 75 80 174 75 80 175 75 79 175 75 79 175 74 79 175 74 79 175 75 79 175 75 79 175 75 79 174 75 80 174 75 80 174 75 80 174 75 80 175 75 79 175 75 79 175 74 79 175 74 79 176 74 78 176 73 78 176 73 78 177 73 77 177 73 77 177 72 77 177 72 77 177 72 77 177 73 77 177 73 77 176 73 78 176 73 78 175 74 79 175 74 79 
174 75 80 174 75 80 175 75 79 175 75 79 175 75 79 175 75 79 175 75 79 175 75 79 174 75 80 174 75 80 174 75 80 174 75 80 174 75 80 174 75 80 174 75 80 174 75 80 174 75 80 174 75 80 174 75 80 175 75 79 175 74 79 175 74 79 176 74 78 176 73 78 176 73 78 176 73 78 177 73 77 177 73 77 177 73 77 177 73 77 177 73 77 177 73 77 176 73 78 176 73 78 176 73 78 176 73 78 176 74 78 175 74 79 175 74 79 175 74 79 175 75 79 174 75 80 174 75 80 174 76 80 173 76 81 173 76 81 173 76 81 173 77 81 173 77 81 173 77 81 173 77 81 173 76 81 173 76 81 173 76 81 173 76 81 173 76 81 174 76 80 174 76 80 174 75 80 174 75 80 174 75 80 174 75 80 174 75 80 175 75 79 175 74 79 176 73 78 177 73 77 178 72 76 178 71 76 179 70 75 180 70 74 181 69 73 181 69 73 181 69 73 181 69 73 180 70 74 179 70 75 179 71 75 178 72 76 177 72 77 177 72 77 177 72 77 177 72 77 178 72 76 179 71 75 180 69 74 182 68 72 183 67 71 184 66 70 185 65 69 186 64 68 186 64 68 186 64 68 185 65 69 184 66 70 182 68 72 180 69 74 179 71 75 177 72 77 176 74 78 174 75 80 174 76 80 173 76 81 173 76 81 173 76 81 174 76 80 174 75 80 175 74 79 176 73 78 177 73 77 177 72 77 178 71 76 178 71 76 179 71 75 179 71 75 179 71 75 179 71 75 178 71 76 178 71 76 178 72 76 177 72 77 177 73 77 176 73 78 176 74 78 175 74 79 175 75 79 174 75 80 174 75 80 174 75 80 174 76 80 174 76 80 174 76 80 174 76 80 174 75 80 174 75 80 174 75 80 174 75 80 174 75 80 174 75 80 174 75 80 174 75 80 174 75 80 174 76 80 174 76 80 174 76 80 174 76 80 174 75 80 174 75 80 174 75 80 174 75 80 175 75 79 175 75 79 175 74 79 175 74 79 175 74 79 175 74 79 175 74 79 175 75 79 175 75 79 174 75 80 174 75 80 174 75 80 174 75 80 175 75 79 175 74 79 175 74 79 176 74 78 176 73 78 176 73 78 177 73 77 177 72 77 177 72 77 177 72 77 177 72 77 177 72 77 177 73 77 177 73 77 176 73 78 176 74 78 175 74 79 175 74 79 
174 75 80 174 75 80 174 75 80 174 75 80 174 75 80 174 75 80 174 75 80 174 75 80 174 75 80 174 75 80 174 75 80 174 75 80 174 75 80 174 75 80 174 75 80 174 75 80 174 75 80 174 75 80 174 75 80 174 75 80 174 75 80 175 75 79 175 75 79 175 74 79 175 74 79 175 74 79 175 74 79 176 74 78 176 74 78 176 74 78 176 74 78 176 73 78 176 73 78 176 73 78 176 73 78 176 73 78 176 74 78 176 74 78 176 74 78 175 74 79 175 74 79 175 75 79 174 75 80 174 75 80 173 76 81 173 76 81 173 76 81 173 77 81 172 77 82 172 77 82 172 77 82 173 77 81 173 76 81 173 76 81 173 76 81 173 76 81 174 76 80 174 75 80 174 75 80 174 75 80 174 75 80 175 75 79 175 74 79 176 74 78 176 73 78 177 73 77 177 72 77 178 71 76 179 71 75 179 70 75 179 70 75 180 70 74 179 70 75 179 71 75 178 71 76 178 72 76 177 73 77 176 73 78 175 74 79 175 74 79 175 74 79 175 74 79 176 74 78 177 73 77 178 71 76 180 70 74 181 69 73 183 67 71 184 66 70 185 65 69 185 65 69 185 65 69 185 65 69 184 66 70 182 67 72 181 69 73 179 70 75 178 72 76 176 73 78 175 75 79 174 75 80 173 76 81 173 76 81 173 76 81 174 76 80 174 75 80 175 74 79 176 74 78 176 73 78 177 72 77 178 72 76 178 71 76 178 71 76 178 71 76 178 71 76 178 71 76 178 72 76 177 72 77 177 73 77 176 73 78 176 74 78 175 74 79 175 75 79 174 75 80 174 75 80 174 76 80 173 76 81 173 76 81 173 76 81 173 76 81 173 76 81 173 76 81 174 76 80 174 76 80 174 75 80 174 75 80 174 75 80 174 75 80 174 75 80 174 75 80 174 75 80 174 76 80 174 76 80 174 76 80 174 75 80 174 75 80 174 75 80 174 75 80 175 75 79 175 75 79 175 74 79 175 74 79 175 74 79 175 74 79 175 74 79 175 74 79 175 74 79 175 75 79 175 75 79 174 75 80 174 75 80 174 75 80 175 75 79 175 75 79 175 74 79 175 74 79 176 74 78 176 73 78 177 73 77 177 73 77 177 72 77 177 72 77 177 72 77 177 72 77 177 72 77 177 72 77 177 73 77 176 73 78 176 74 78 175 74 79 175 74 79 
174 76 80 174 75 80 174 75 80 174 75 80 174 75 80 174 75 80 174 75 80 174 75 80 174 75 80 174 75 80 174 75 80 174 75 80 174 75 80 174 75 80 174 75 80 174 75 80 174 75 80 174 75 80 174 75 80 174 75 80 174 75 80 174 75 80 174 75 80 174 75 80 174 75 80 174 75 80 174 75 80 175 75 79 175 75 79 175 74 79 175 74 79 175 74 79 175 74 79 176 74 78 176 74 78 176 74 78 176 74 78 176 74 78 176 74 78 175 74 79 175 74 79 175 74 79 174 75 80 174 75 80 174 76 80 173 76 81 173 76 81 173 77 81 172 77 82 172 77 82 172 77 82 173 77 81 173 77 81 173 76 81 173 76 81 173 76 81 174 76 80 174 75 80 174 75 80 174 75 80 175 75 79 175 74 79 175 74 79 176 73 78 176 73 78 177 72 77 177 72 77 178 72 76 178 71 76 178 71 76 178 71 76 178 71 76 178 72 76 177 72 77 176 73 78 176 74 78 175 75 79 174 75 80 174 76 80 173 76 81 173 76 81 174 75 80 175 75 79 176 73 78 177 72 77 179 71 75 180 69 74 182 68 72 183 67 71 183 66 71 184 66 70 183 66 71 183 67 71 182 68 72 181 69 73 179 70 75 178 72 76 176 73 78 175 74 79 174 75 80 173 76 81 173 76 81 173 76 81 173 76 81 174 75 80 175 75 79 175 74 79 176 73 78 177 73 77 177 72 77 178 72 76 178 72 76 178 72 76 178 72 76 177 72 77 177 72 77 177 73 77 176 73 78 176 74 78 175 74 79 175 75 79 174 75 80 174 75 80 173 76 81 173 76 81 173 76 81 173 76 81 173 76 81 173 76 81 173 76 81 173 76 81 173 76 81 174 76 80 174 76 80 174 75 80 174 75 80 174 75 80 174 75 80 174 75 80 174 75 80 174 76 80 174 76 80 174 76 80 174 75 80 174 75 80 174 75 80 174 75 80 175 75 79 175 74 79 175 74 79 175 74 79 175 74 79 175 74 79 175 74 79 175 74 79 175 74 79 175 74 79 175 75 79 175 75 79 174 75 80 174 75 80 174 75 80 175 75 79 175 75 79 175 74 79 175 74 79 176 74 78 176 73 78 177 73 77 177 72 77 177 72 77 177 72 77 177 72 77 177 72 77 177 72 77 177 73 77 177 73 77 176 73 78 176 74 78 175 74 79 175 74 79 
174 76 80 174 76 80 174 76 80 174 75 80 174 75 80 174 75 80 174 75 80 174 75 80 174 75 80 174 75 80 174 75 80 174 75 80 174 75 80 174 75 80 174 75 80 174 75 80 174 75 80 174 75 80 174 75 80 174 75 80 174 75 80 174 75 80 174 75 80 174 75 80 174 75 80 174 75 80 174 75 80 174 75 80 174 75 80 174 75 80 174 75 80 175 75 79 175 74 79 175 74 79 175 74 79 176 74 78 176 74 78 176 74 78 176 74 78 176 74 78 175 74 79 175 74 79 175 75 79 174 75 80 174 75 80 174 76 80 173 76 81 173 76 81 173 77 81 173 77 81 173 77 81 173 77 81 173 77 81 173 76 81 173 76 81 173 76 81 174 76 80 174 75 80 174 75 80 174 75 80 175 75 79 175 74 79 175 74 79 176 74 78 176 73 78 177 73 77 177 73 77 177 72 77 177 72 77 177 72 77 177 72 77 177 73 77 176 73 78 175 74 79 175 75 79 174 75 80 173 76 81 173 77 81 172 77 82 172 77 82 173 77 81 173 76 81 174 75 80 175 74 79 177 73 77 178 72 76 179 70 75 180 69 74 181 69 73 181 68 73 182 68 72 181 68 73 181 69 73 180 70 74 178 71 76 177 72 77 176 73 78 175 74 79 174 75 80 173 76 81 173 76 81 173 76 81 173 76 81 174 75 80 174 75 80 175 74 79 176 74 78 176 73 78 177 72 77 177 72 77 178 72 76 178 72 76 177 72 77 177 72 77 177 73 77 176 73 78 176 74 78 175 74 79 175 75 79 174 75 80 174 76 80 173 76 81 173 76 81 173 76 81 173 76 81 173 76 81 173 76 81 173 76 81 173 76 81 173 76 81 174 76 80 174 76 80 174 75 80 174 75 80 174 75 80 174 75 80 174 75 80 174 75 80 174 75 80 174 76 80 174 76 80 174 76 80 174 75 80 174 75 80 174 75 80 174 75 80 175 75 79 175 74 79 175 74 79 175 74 79 175 74 79 176 74 78 176 74 78 175 74 79 175 74 79 175 74 79 175 74 79 175 75 79 174 75 80 174 75 80 174 75 80 174 75 80 174 75 80 175 75 79 175 74 79 176 74 78 176 73 78 176 73 78 177 73 77 177 72 77 177 72 77 177 72 77 177 72 77 177 72 77 177 72 77 177 73 77 176 73 78 176 73 78 175 74 79 175 74 79 175 75 79 
174 76 80 174 76 80 174 76 80 174 76 80 174 76 80 174 75 80 174 75 80 174 75 80 174 75 80 174 75 80 174 75 80 174 75 80 174 75 80 174 75 80 174 75 80 174 75 80 174 75 80 174 75 80 174 75 80 174 75 80 174 75 80 174 76 80 174 76 80 174 76 80 173 76 81 173 76 81 173 76 81 174 76 80 174 76 80 174 76 80 174 75 80 174 75 80 174 75 80 175 75 79 175 74 79 175 74 79 175 74 79 175 74 79 176 74 78 175 74 79 175 74 79 175 74 79 175 74 79 174 75 80 174 75 80 174 75 80 173 76 81 173 76 81 173 76 81 173 76 81 173 76 81 173 76 81 173 76 81 173 76 81 173 76 81 173 76 81 173 76 81 174 76 80 174 75 80 174 75 80 174 75 80 175 75 79 175 74 79 175 74 79 175 74 79 176 74 78 176 73 78 176 73 78 176 73 78 176 74 78 176 74 78 175 74 79 175 75 79 174 75 80 173 76 81 173 76 81 172 77 82 172 77 82 172 77 82 172 77 82 172 77 82 173 76 81 174 75 80 175 74 79 176 73 78 177 72 77 178 72 76 179 71 75 179 70 75 179 70 75 179 70 75 179 71 75 178 71 76 177 72 77 176 73 78 175 74 79 174 75 80 174 76 80 173 76 81 173 76 81 173 76 81 173 76 81 174 76 80 174 75 80 175 74 79 176 74 78 176 73 78 177 73 77 177 72 77 177 72 77 177 72 77 177 72 77 177 73 77 176 73 78 176 73 78 175 74 79 175 74 79 174 75 80 174 75 80 173 76 81 173 76 81 173 76 81 173 76 81 173 76 81 173 76 81 173 76 81 173 76 81 173 76 81 174 76 80 174 75 80 174 75 80 174 75 80 174 75 80 174 75 80 174 75 80 174 75 80 174 75 80 174 75 80 174 76 80 174 76 80 174 76 80 174 76 80 174 75 80 174 75 80 174 75 80 175 75 79 175 74 79 175 74 79 175 74 79 176 74 78 176 74 78 176 74 78 176 74 78 175 74 79 175 74 79 175 74 79 175 75 79 174 75 80 174 75 80 174 75 80 174 75 80 174 75 80 174 75 80 175 75 79 175 74 79 176 74 78 176 73 78 176 73 78 177 73 77 177 72 77 177 72 77 177 72 77 177 72 77 177 72 77 177 73 77 177 73 77 176 73 78 176 74 78 175 74 79 175 74 79 175 75 79 
174 75 80 174 75 80 174 75 80 174 75 80 174 75 80 174 75 80 174 75 80 174 75 80 174 75 80 174 75 80 174 75 80 174 75 80 174 75 80 174 75 80 174 75 80 174 75 80 174 75 80 174 75 80 174 75 80 174 75 80 174 75 80 174 76 80 174 76 80 174 76 80 173 76 81 173 76 81 173 76 81 173 76 81 173 76 81 173 76 81 174 76 80 174 75 80 174 75 80 174 75 80 175 75 79 175 75 79 175 74 79 175 74 79 175 74 79 175 74 79 175 74 79 175 74 79 175 74 79 175 75 79 174 75 80 174 75 80 174 75 80 174 76 80 173 76 81 173 76 81 173 76 81 173 76 81 173 76 81 173 76 81 173 76 81 173 76 81 173 76 81 174 76 80 174 76 80 174 75 80 174 75 80 174 75 80 174 75 80 174 75 80 175 75 79 175 75 79 175 75 79 175 75 79 175 75 79 174 75 80 174 75 80 174 75 80 174 76 80 173 76 81 173 76 81 172 77 82 172 77 82 172 77 82 172 77 82 172 77 82 173 76 81 173 76 81 174 75 80 175 74 79 176 74 78 176 73 78 177 73 77 177 72 77 177 72 77 177 72 77 177 72 77 176 73 78 176 74 78 175 74 79 174 75 80 174 76 80 173 76 81 173 76 81 173 76 81 173 76 81 173 76 81 174 76 80 174 75 80 175 74 79 176 74 78 176 73 78 177 73 77 177 72 77 177 72 77 177 72 77 177 72 77 177 73 77 176 73 78 176 74 78 175 74 79 175 75 79 174 75 80 174 75 80 173 76 81 173 76 81 173 76 81 173 76 81 173 76 81 173 76 81 173 76 81 174 76 80 174 75 80 174 75 80 174 75 80 174 75 80 175 75 79 175 75 79 175 75 79 174 75 80 174 75 80 174 75 80 174 75 80 174 75 80 174 76 80 174 76 80 174 76 80 174 76 80 174 75 80 174 75 80 174 75 80 175 75 79 175 74 79 175 74 79 176 74 78 176 74 78 176 74 78 176 74 78 176 74 78 175 74 79 175 74 79 175 75 79 174 75 80 174 75 80 174 75 80 174 75 80 174 75 80 174 75 80 174 75 80 175 75 79 175 74 79 176 74 78 176 73 78 176 73 78 177 73 77 177 72 77 177 72 77 177 72 77 177 72 77 177 73 77 177 73 77 176 73 78 176 74 78 175 74 79 175 74 79 175 75 79 174 75 80 
174 75 80 174 75 80 174 75 80 174 75 80 174 75 80 174 75 80 174 75 80 174 75 80 174 75 80 174 75 80 174 75 80 174 75 80 174 75 80 174 75 80 174 75 80 174 75 80 174 75 80 174 75 80 174 75 80 174 75 80 174 75 80 174 75 80 174 75 80 174 76 80 174 76 80 173 76 81 173 76 81 173 76 81 173 76 81 173 76 81 173 76 81 174 76 80 174 75 80 174 75 80 174 75 80 174 75 80 175 75 79 175 75 79 175 74 79 175 74 79 175 74 79 175 74 79 175 75 79 175 75 79 174 75 80 174 75 80 174 75 80 174 75 80 174 76 80 174 76 80 173 76 81 173 76 81 173 76 81 173 76 81 173 76 81 173 76 81 173 76 81 173 76 81 173 76 81 173 76 81 173 76 81 173 76 81 173 76 81 173 76 81 173 76 81 173 76 81 173 76 81 173 76 81 173 76 81 173 76 81 173 76 81 173 76 81 173 76 81 173 76 81 173 77 81 173 77 81 173 77 81 173 76 81 173 76 81 173 76 81 174 76 80 174 75 80 175 75 79 175 74 79 175 74 79 176 74 78 176 73 78 176 73 78 176 74 78 175 74 79 175 74 79 174 75 80 174 75 80 173 76 81 173 76 81 172 77 82 172 77 82 172 77 82 173 77 81 173 76 81 174 76 80 174 75 80 175 74 79 176 74 78 176 73 78 177 73 77 177 72 77 177 72 77 177 72 77 177 72 77 177 73 77 176 73 78 176 74 78 175 74 79 175 75 79 174 75 80 174 75 80 173 76 81 173 76 81 173 76 81 173 76 81 173 76 81 173 76 81 174 75 80 174 75 80 174 75 80 175 75 79 175 74 79 175 74 79 175 74 79 175 74 79 175 74 79 175 74 79 175 75 79 175 75 79 174 75 80 174 75 80 174 75 80 174 76 80 174 76 80 174 76 80 174 76 80 174 75 80 174 75 80 175 75 79 175 74 79 175 74 79 175 74 79 176 74 78 176 74 78 176 74 78 176 74 78 175 74 79 175 74 79 175 75 79 174 75 80 174 75 80 174 75 80 174 75 80 174 75 80 174 75 80 174 75 80 174 75 80 175 75 79 175 74 79 176 74 78 176 73 78 176 73 78 177 73 77 177 73 77 177 72 77 177 73 77 177 73 77 177 73 77 176 73 78 176 74 78 175 74 79 175 74 79 175 75 79 174 75 80 174 75 80 
174 75 80 174 75 80 174 75 80 174 75 80 174 75 80 174 75 80 174 75 80 174 75 80 174 75 80 174 75 80 174 75 80 174 75 80 174 75 80 174 75 80 174 75 80 174 75 80 174 75 80 174 75 80 174 75 80 174 75 80 174 75 80 174 75 80 174 75 80 174 75 80 174 75 80 174 76 80 174 76 80 174 76 80 174 76 80 173 76 81 173 76 81 174 76 80 174 76 80 174 75 80 174 75 80 174 75 80 174 75 80 174 75 80 175 75 79 175 75 79 175 75 79 175 75 79 175 75 79 175 75 79 175 75 79 174 75 80 174 75 80 174 75 80 174 75 80 174 75 80 174 75 80 174 76 80 174 76 80 174 76 80 174 76 80 173 76 81 173 76 81 173 76 81 173 76 81 173 76 81 173 76 81 173 76 81 173 77 81 173 77 81 173 77 81 172 77 82 172 77 82 172 77 82 172 77 82 172 77 82 172 77 82 173 77 81 173 77 81 173 76 81 173 76 81 173 76 81 173 76 81 174 76 80 174 75 80 174 75 80 175 75 79 175 74 79 175 74 79 175 74 79 175 74 79 175 74 79 175 74 79 175 74 79 175 75 79 174 75 80 174 76 80 173 76 81 172 77 82 172 77 82 172 77 82 172 77 82 172 77 82 172 77 82 173 76 81 173 76 81 174 75 80 175 74 79 176 74 78 176 73 78 177 73 77 177 72 77 177 72 77 177 72 77 177 72 77 177 73 77 176 73 78 176 73 78 175 74 79 175 74 79 174 75 80 174 75 80 174 76 80 173 76 81 173 76 81 173 76 81 174 76 80 174 75 80 174 75 80 175 75 79 175 74 79 175 74 79 176 74 78 176 73 78 176 73 78 176 73 78 176 73 78 176 74 78 175 74 79 175 74 79 175 75 79 174 75 80 174 75 80 174 75 80 174 76 80 174 76 80 174 76 80 174 75 80 174 75 80 174 75 80 175 75 79 175 74 79 175 74 79 176 74 78 176 74 78 176 74 78 176 74 78 175 74 79 175 74 79 175 74 79 175 75 79 174 75 80 174 75 80 174 76 80 174 76 80 174 76 80 174 75 80 174 75 80 174 75 80 175 75 79 175 74 79 176 74 78 176 73 78 176 73 78 177 73 77 177 73 77 177 73 77 177 73 77 176 73 78 176 73 78 176 74 78 175 74 79 175 74 79 175 75 79 174 75 80 174 75 80 174 75 80 
174 75 80 174 75 80 174 75 80 174 75 80 174 75 80 174 75 80 174 75 80 174 75 80 174 75 80 174 75 80 174 75 80 174 75 80 174 75 80 174 75 80 174 75 80 174 75 80 174 75 80 174 75 80 174 75 80 174 75 80 174 75 80 174 75 80 174 75 80 174 75 80 174 75 80 174 75 80 174 75 80 174 75 80 174 75 80 174 76 80 174 76 80 174 76 80 174 76 80 174 76 80 174 76 80 174 75 80 174 75 80 174 75 80 174 75 80 174 75 80 174 75 80 174 75 80 174 75 80 175 75 79 175 75 79 174 75 80 174 75 80 174 75 80 174 75 80 174 75 80 174 75 80 174 75 80 174 75 80 174 75 80 174 75 80 174 76 80 173 76 81 173 76 81 173 76 81 173 76 81 173 77 81 172 77 82 172 77 82 172 77 82 172 77 82 172 77 82 172 77 82 172 77 82 172 77 82 172 77 82 172 77 82 172 77 82 173 76 81 173 76 81 174 76 80 174 75 80 174 75 80 175 75 79 175 74 79 175 74 79 176 74 78 176 73 78 176 73 78 176 74 78 176 74 78 175 74 79 175 74 79 174 75 80 174 75 80 173 76 81 173 77 81 172 77 82 172 77 82 172 78 82 172 78 82 172 77 82 172 77 82 173 77 81 173 76 81 174 75 80 175 75 79 175 74 79 176 73 78 177 73 77 177 72 77 177 72 77 177 72 77 177 72 77 177 72 77 177 73 77 176 73 78 176 74 78 175 74 79 175 75 79 174 75 80 174 75 80 174 76 80 174 76 80 174 76 80 174 75 80 174 75 80 175 75 79 175 74 79 176 74 78 176 73 78 176 73 78 177 73 77 177 73 77 177 73 77 177 73 77 177 73 77 176 73 78 176 74 78 175 74 79 175 74 79 174 75 80 174 75 80 174 75 80 174 76 80 174 76 80 174 76 80 174 75 80 174 75 80 174 75 80 175 75 79 175 74 79 175 74 79 176 74 78 176 74 78 176 74 78 175 74 79 175 74 79 175 74 79 175 75 79 174 75 80 174 75 80 174 76 80 174 76 80 174 76 80 174 76 80 174 76 80 174 75 80 174 75 80 175 75 79 175 74 79 176 74 78 176 73 78 176 73 78 176 73 78 176 73 78 176 73 78 176 73 78 176 73 78 176 74 78 175 74 79 175 74 79 175 75 79 174 75 80 174 75 80 174 75 80 174 76 80 
174 75 80 174 75 80 174 75 80 174 75 80 174 75 80 174 75 80 174 75 80 174 75 80 174 75 80 174 75 80 174 75 80 174 75 80 174 75 80 174 75 80 174 75 80 174 75 80 174 75 80 174 75 80 174 75 80 174 75 80 174 75 80 175 75 79 175 75 79 175 75 79 175 75 79 174 75 80 174 75 80 174 75 80 174 75 80 174 75 80 174 75 80 174 75 80 174 75 80 174 76 80 174 76 80 174 76 80 174 76 80 174 75 80 174 75 80 174 75 80 174 75 80 174 75 80 174 75 80 174 75 80 174 75 80 175 75 79 175 75 79 175 75 79 175 75 79 175 75 79 175 75 79 174 75 80 174 75 80 174 75 80 174 75 80 174 75 80 174 76 80 173 76 81 173 76 81 173 77 81 172 77 82 172 77 82 172 77 82 172 78 82 171 78 83 171 78 83 171 78 83 171 78 83 172 78 82 172 77 82 172 77 82 173 76 81 173 76 81 174 76 80 174 75 80 175 74 79 175 74 79 176 74 78 176 73 78 176 73 78 177 73 77 177 73 77 177 73 77 176 73 78 176 74 78 175 74 79 175 75 79 174 75 80 173 76 81 173 76 81 172 77 82 172 77 82 172 77 82 172 77 82 172 77 82 172 77 82 173 76 81 173 76 81 174 75 80 175 75 79 175 74 79 176 73 78 177 73 77 177 72 77 177 72 77 177 72 77 177 72 77 177 72 77 177 73 77 176 73 78 176 74 78 175 74 79 175 75 79 174 75 80 174 75 80 174 75 80 174 75 80 174 75 80 174 75 80 175 75 79 175 74 79 175 74 79 176 73 78 176 73 78 177 72 77 177 72 77 178 72 76 178 72 76 178 72 76 177 72 77 177 72 77 177 73 77 176 73 78 176 74 78 175 74 79 174 75 80 174 75 80 174 75 80 174 76 80 174 76 80 174 76 80 174 75 80 174 75 80 174 75 80 175 75 79 175 74 79 175 74 79 175 74 79 175 74 79 175 74 79 175 74 79 175 74 79 175 75 79 174 75 80 174 75 80 174 76 80 174 76 80 173 76 81 173 76 81 174 76 80 174 75 80 174 75 80 174 75 80 175 74 79 175 74 79 176 74 78 176 73 78 176 73 78 176 73 78 176 73 78 176 73 78 176 73 78 176 74 78 175 74 79 175 74 79 175 75 79 174 75 80 174 75 80 174 75 80 174 76 80 174 76 80 
174 75 80 174 75 80 174 75 80 174 75 80 174 75 80 174 75 80 174 75 80 174 75 80 174 75 80 174 75 80 174 75 80 174 75 80 174 75 80 174 75 80 174 75 80 174 75 80 174 75 80 174 75 80 174 75 80 175 75 79 175 75 79 175 75 79 175 74 79 175 74 79 175 74 79 175 74 79 175 75 79 175 75 79 175 75 79 174 75 80 174 75 80 174 75 80 174 75 80 174 75 80 174 76 80 174 76 80 174 76 80 174 76 80 174 76 80 174 76 80 174 75 80 174 75 80 174 75 80 174 75 80 174 75 80 174 75 80 175 75 79 175 75 79 175 75 79 175 75 79 175 75 79 175 75 79 175 75 79 174 75 80 174 75 80 174 75 80 174 76 80 173 76 81 173 76 81 173 77 81 172 77 82 172 77 82 172 77 82 171 78 83 171 78 83 171 78 83 171 78 83 171 78 83 172 77 82 172 77 82 173 77 81 173 76 81 174 75 80 174 75 80 175 74 79 176 74 78 176 73 78 177 73 77 177 72 77 177 72 77 177 72 77 177 72 77 177 73 77 177 73 77 176 73 78 175 74 79 175 75 79 174 75 80 174 76 80 173 76 81 173 77 81 172 77 82 172 77 82 172 77 82 173 77 81 173 76 81 174 76 80 174 75 80 175 74 79 176 74 78 176 73 78 177 73 77 177 72 77 177 72 77 177 72 77 177 72 77 177 72 77 177 73 77 176 73 78 176 73 78 175 74 79 175 74 79 175 75 79 174 75 80 174 75 80 174 75 80 174 75 80 174 75 80 175 75 79 175 74 79 176 74 78 176 73 78 177 73 77 177 72 77 178 72 76 178 72 76 178 71 76 178 71 76 178 71 76 178 72 76 177 72 77 177 73 77 176 73 78 176 74 78 175 74 79 174 75 80 174 75 80 174 76 80 174 76 80 174 76 80 174 76 80 174 75 80 174 75 80 174 75 80 175 75 79 175 74 79 175 74 79 175 74 79 175 74 79 175 74 79 175 74 79 175 75 79 174 75 80 174 75 80 174 75 80 174 76 80 173 76 81 173 76 81 174 76 80 174 76 80 174 75 80 174 75 80 175 75 79 175 74 79 175 74 79 176 74 78 176 73 78 176 73 78 176 73 78 176 73 78 176 74 78 176 74 78 175 74 79 175 74 79 175 75 79 174 75 80 174 75 80 174 75 80 174 76 80 174 76 80 174 76 80 
174 75 80 174 75 80 174 75 80 174 75 80 174 75 80 174 75 80 174 75 80 174 75 80 174 75 80 174 75 80 174 75 80 174 75 80 174 75 80 174 75 80 174 75 80 174 75 80 174 75 80 174 75 80 174 75 80 175 75 79 175 75 79 175 74 79 175 74 79 175 74 79 175 74 79 175 74 79 175 74 79 175 74 79 175 74 79 175 75 79 175 75 79 174 75 80 174 75 80 174 75 80 174 75 80 174 76 80 174 76 80 174 76 80 174 76 80 174 76 80 174 76 80 174 76 80 174 75 80 174 75 80 174 75 80 174 75 80 175 75 79 175 75 79 175 75 79 175 74 79 175 74 79 175 74 79 175 75 79 175 75 79 174 75 80 174 75 80 174 75 80 174 76 80 173 76 81 173 76 81 172 77 82 172 77 82 172 77 82 172 77 82 172 78 82 172 78 82 172 77 82 172 77 82 172 77 82 173 77 81 173 76 81 174 75 80 174 75 80 175 74 79 176 74 78 176 73 78 177 73 77 177 72 77 177 72 77 178 72 76 178 72 76 177 72 77 177 72 77 177 73 77 176 73 78 176 74 78 175 74 79 174 75 80 174 75 80 174 76 80 173 76 81 173 76 81 173 76 81 173 76 81 174 76 80 174 75 80 175 75 79 175 74 79 176 74 78 176 73 78 177 73 77 177 72 77 177 72 77 177 72 77 177 72 77 177 72 77 177 73 77 176 73 78 176 73 78 175 74 79 175 74 79 175 75 79 174 75 80 174 75 80 174 75 80 174 75 80 174 75 80 175 75 79 175 74 79 176 74 78 176 73 78 177 73 77 177 72 77 178 72 76 178 71 76 178 71 76 178 71 76 178 71 76 178 71 76 178 72 76 177 72 77 177 73 77 176 73 78 175 74 79 175 74 79 174 75 80 174 75 80 174 76 80 174 76 80 174 76 80 174 76 80 174 75 80 174 75 80 174 75 80 175 75 79 175 74 79 175 74 79 175 74 79 175 74 79 175 74 79 175 75 79 174 75 80 174 75 80 174 75 80 174 76 80 173 76 81 173 76 81 173 76 81 174 76 80 174 75 80 174 75 80 175 75 79 175 74 79 175 74 79 176 74 78 176 74 78 176 73 78 176 73 78 176 73 78 176 74 78 176 74 78 175 74 79 175 74 79 175 75 79 174 75 80 174 75 80 174 75 80 174 76 80 174 76 80 174 76 80 174 76 80 
174 75 80 174 75 80 174 75 80 174 75 80 174 75 80 174 75 80 174 75 80 174 75 80 174 75 80 174 75 80 174 75 80 174 75 80 174 75 80 174 75 80 174 75 80 174 75 80 174 75 80 174 75 80 175 75 79 175 75 79 175 74 79 175 74 79 175 74 79 175 74 79 175 74 79 175 74 79 175 74 79 175 74 79 175 74 79 175 74 79 175 74 79 175 75 79 174 75 80 174 75 80 174 75 80 174 75 80 174 76 80 174 76 80 173 76 81 173 76 81 174 76 80 174 76 80 174 76 80 174 75 80 174 75 80 174 75 80 174 75 80 175 75 79 175 75 79 175 74 79 175 74 79 175 74 79 175 74 79 175 75 79 175 75 79 174 75 80 174 75 80 174 75 80 173 76 81 173 76 81 173 76 81 173 77 81 172 77 82 172 77 82 172 77 82 172 77 82 172 77 82 173 77 81 173 76 81 173 76 81 174 75 80 174 75 80 175 74 79 176 74 78 176 73 78 177 73 77 177 72 77 177 72 77 178 72 76 178 72 76 178 72 76 177 72 77 177 72 77 177 73 77 176 73 78 176 74 78 175 74 79 175 75 79 174 75 80 174 75 80 174 75 80 174 75 80 174 75 80 175 75 79 175 74 79 175 74 79 176 74 78 176 73 78 177 73 77 177 72 77 177 72 77 177 72 77 177 72 77 177 72 77 177 72 77 177 73 77 176 73 78 176 74 78 175 74 79 175 74 79 175 75 79 174 75 80 174 75 80 174 75 80 174 75 80 174 75 80 175 75 79 175 74 79 175 74 79 176 73 78 177 73 77 177 72 77 178 72 76 178 72 76 178 71 76 178 71 76 178 71 76 178 71 76 178 72 76 178 72 76 177 72 77 176 73 78 176 74 78 175 74 79 175 75 79 174 75 80 174 75 80 174 76 80 174 76 80 174 76 80 174 75 80 174 75 80 174 75 80 174 75 80 175 75 79 175 74 79 175 74 79 175 74 79 175 75 79 175 75 79 174 75 80 174 75 80 174 75 80 174 76 80 174 76 80 173 76 81 173 76 81 174 76 80 174 75 80 174 75 80 174 75 80 175 74 79 175 74 79 175 74 79 176 74 78 176 73 78 176 73 78 176 73 78 176 74 78 176 74 78 175 74 79 175 74 79 175 75 79 174 75 80 174 75 80 174 75 80 174 76 80 174 76 80 174 76 80 174 76 80 174 76 80 
174 75 80 174 75 80 174 75 80 174 75 80 174 75 80 174 75 80 174 75 80 174 75 80 174 75 80 174 75 80 174 75 80 174 75 80 174 75 80 174 75 80 174 75 80 174 75 80 174 75 80 174 75 80 175 75 79 175 75 79 175 74 79 175 74 79 175 74 79 175 74 79 175 74 79 175 74 79 175 74 79 175 74 79 175 74 79 175 74 79 175 74 79 175 74 79 175 75 79 174 75 80 174 75 80 174 75 80 174 75 80 174 76 80 174 76 80 173 76 81 173 76 81 174 76 80 174 76 80 174 75 80 174 75 80 174 75 80 174 75 80 174 75 80 175 75 79 175 75 79 175 74 79 175 74 79 175 74 79 175 75 79 175 75 79 174 75 80 174 75 80 174 75 80 174 75 80 174 76 80 173 76 81 173 76 81 173 76 81 173 76 81 173 76 81 173 76 81 173 76 81 173 76 81 174 76 80 174 75 80 174 75 80 175 74 79 175 74 79 176 74 78 176 73 78 177 73 77 177 72 77 177 72 77 177 72 77 177 72 77 177 72 77 177 73 77 177 73 77 176 73 78 176 73 78 176 74 78 175 74 79 175 74 79 175 74 79 175 74 79 175 74 79 175 74 79 175 74 79 176 74 78 176 73 78 176 73 78 177 73 77 177 72 77 177 72 77 177 72 77 177 72 77 177 72 77 177 72 77 177 73 77 177 73 77 176 73 78 176 74 78 175 74 79 175 74 79 175 75 79 174 75 80 174 75 80 174 75 80 174 75 80 174 75 80 174 75 80 175 74 79 175 74 79 176 74 78 176 73 78 177 73 77 177 72 77 178 72 76 178 72 76 178 71 76 178 71 76 178 71 76 178 72 76 178 72 76 177 72 77 177 73 77 176 73 78 175 74 79 175 74 79 174 75 80 174 75 80 174 75 80 174 76 80 174 76 80 174 76 80 174 75 80 174 75 80 174 75 80 174 75 80 175 75 79 175 75 79 175 75 79 175 75 79 175 75 79 174 75 80 174 75 80 174 75 80 174 76 80 174 76 80 174 76 80 174 76 80 174 76 80 174 75 80 174 75 80 174 75 80 175 75 79 175 74 79 175 74 79 176 74 78 176 73 78 176 73 78 176 73 78 176 74 78 176 74 78 175 74 79 175 74 79 175 75 79 174 75 80 174 75 80 174 75 80 174 75 80 174 76 80 174 76 80 174 76 80 174 75 80 174 75 80 
174 75 80 174 75 80 174 75 80 174 75 80 174 75 80 174 75 80 174 75 80 174 75 80 174 75 80 174 75 80 174 75 80 174 75 80 174 75 80 174 75 80 174 75 80 174 75 80 174 75 80 174 75 80 174 75 80 175 75 79 175 75 79 175 74 79 175 74 79 175 74 79 175 74 79 175 74 79 175 74 79 175 74 79 175 74 79 175 74 79 175 74 79 175 74 79 175 75 79 175 75 79 174 75 80 174 75 80 174 75 80 174 75 80 174 76 80 174 76 80 174 76 80 174 76 80 174 76 80 174 76 80 174 75 80 174 75 80 174 75 80 174 75 80 174 75 80 175 75 79 175 75 79 175 75 79 175 75 79 175 75 79 175 75 79 175 75 79 174 75 80 174 75 80 174 75 80 174 75 80 174 76 80 174 76 80 174 76 80 173 76 81 174 76 80 174 76 80 174 76 80 174 75 80 174 75 80 175 75 79 175 74 79 175 74 79 176 74 78 176 74 78 176 73 78 176 73 78 177 73 77 177 73 77 177 73 77 177 73 77 176 73 78 176 73 78 176 73 78 176 73 78 176 74 78 176 74 78 176 74 78 175 74 79 176 74 78 176 74 78 176 73 78 176 73 78 176 73 78 177 73 77 177 72 77 177 72 77 177 72 77 178 72 76 178 72 76 177 72 77 177 72 77 177 72 77 177 73 77 176 73 78 176 73 78 176 74 78 175 74 79 175 75 79 174 75 80 174 75 80 174 75 80 174 75 80 174 75 80 174 75 80 174 75 80 175 75 79 175 74 79 175 74 79 176 74 78 176 73 78 177 73 77 177 72 77 177 72 77 178 72 76 178 72 76 178 72 76 178 72 76 177 72 77 177 73 77 176 73 78 176 73 78 175 74 79 175 74 79 175 75 79 174 75 80 174 75 80 174 76 80 174 76 80 174 76 80 174 75 80 174 75 80 174 75 80 174 75 80 174 75 80 175 75 79 175 75 79 175 75 79 174 75 80 174 75 80 174 75 80 174 75 80 174 76 80 174 76 80 174 76 80 174 76 80 174 76 80 174 75 80 174 75 80 174 75 80 175 75 79 175 74 79 175 74 79 176 74 78 176 73 78 176 73 78 176 73 78 176 73 78 176 74 78 176 74 78 175 74 79 175 74 79 175 75 79 174 75 80 174 75 80 174 75 80 174 76 80 174 76 80 174 76 80 174 75 80 174 75 80 174 75 80 
174 75 80 174 75 80 174 75 80 174 75 80 174 75 80 174 75 80 174 75 80 174 75 80 174 75 80 174 75 80 174 75 80 174 75 80 174 75 80 174 75 80 174 75 80 174 75 80 174 75 80 174 75 80 174 75 80 175 75 79 175 75 79 175 74 79 175 74 79 175 74 79 175 74 79 175 74 79 175 74 79 175 74 79 175 74 79 175 74 79 175 74 79 175 74 79 175 74 79 175 75 79 174 75 80 174 75 80 174 75 80 174 75 80 174 75 80 174 76 80 174 76 80 174 76 80 174 76 80 174 76 80 174 76 80 174 75 80 174 75 80 174 75 80 174 75 80 174 75 80 174 75 80 174 75 80 174 75 80 174 75 80 175 75 79 174 75 80 174 75 80 174 75 80 174 75 80 174 75 80 174 75 80 174 75 80 174 75 80 174 75 80 174 75 80 174 75 80 174 75 80 175 75 79 175 75 79 175 74 79 175 74 79 175 74 79 175 74 79 176 74 78 176 74 78 176 74 78 176 73 78 176 74 78 176 74 78 176 74 78 176 74 78 176 74 78 175 74 79 175 74 79 175 74 79 175 74 79 176 74 78 176 74 78 176 73 78 176 73 78 177 73 77 177 73 77 177 72 77 177 72 77 178 72 76 178 72 76 178 72 76 178 72 76 178 72 76 177 72 77 177 72 77 177 73 77 176 73 78 176 74 78 175 74 79 175 74 79 175 75 79 174 75 80 174 75 80 174 75 80 174 75 80 174 75 80 174 75 80 174 75 80 174 75 80 175 75 79 175 74 79 175 74 79 176 74 78 176 73 78 176 73 78 177 73 77 177 72 77 177 72 77 177 72 77 177 72 77 177 73 77 177 73 77 176 73 78 176 74 78 175 74 79 175 74 79 174 75 80 174 75 80 174 75 80 174 76 80 174 76 80 174 76 80 174 75 80 174 75 80 174 75 80 174 75 80 174 75 80 175 75 79 175 75 79 175 75 79 174 75 80 174 75 80 174 75 80 174 75 80 174 75 80 174 76 80 174 76 80 174 76 80 174 76 80 174 75 80 174 75 80 174 75 80 175 75 79 175 74 79 175 74 79 176 74 78 176 73 78 176 73 78 176 73 78 176 73 78 176 73 78 176 74 78 175 74 79 175 74 79 175 75 79 174 75 80 174 75 80 174 75 80 174 75 80 174 76 80 174 76 80 174 75 80 174 75 80 174 75 80 174 75 80 
174 75 80 174 75 80 174 75 80 174 75 80 174 75 80 174 75 80 174 75 80 174 75 80 174 75 80 174 75 80 174 75 80 174 75 80 174 75 80 174 75 80 174 75 80 174 75 80 174 75 80 174 75 80 174 75 80 174 75 80 175 75 79 175 75 79 175 75 79 175 74 79 175 74 79 175 74 79 175 74 79 175 74 79 175 74 79 175 74 79 175 74 79 175 74 79 175 75 79 175 75 79 174 75 80 174 75 80 174 75 80 174 75 80 174 75 80 174 75 80 174 76 80 174 76 80 174 76 80 174 76 80 174 76 80 174 76 80 174 76 80 174 75 80 174 75 80 174 75 80 174 75 80 174 75 80 174 75 80 174 75 80 174 75 80 174 75 80 174 75 80 174 75 80 174 75 80 175 75 79 175 75 79 175 75 79 175 75 79 175 75 79 175 75 79 175 75 79 175 74 79 175 74 79 175 74 79 175 74 79 175 74 79 175 74 79 175 74 79 175 74 79 175 74 79 175 74 79 175 74 79 175 74 79 175 74 79 175 74 79 175 74 79 175 75 79 175 75 79 175 74 79 175 74 79 175 74 79 175 74 79 176 74 78 176 73 78 176 73 78 177 73 77 177 72 77 177 72 77 178 72 76 178 72 76 178 72 76 178 72 76 178 72 76 177 72 77 177 72 77 177 73 77 176 73 78 176 74 78 175 74 79 175 75 79 174 75 80 174 75 80 174 75 80 174 76 80 174 76 80 174 76 80 174 76 80 174 75 80 174 75 80 174 75 80 175 75 79 175 74 79 175 74 79 176 74 78 176 73 78 176 73 78 176 73 78 176 73 78 176 73 78 176 73 78 176 73 78 176 73 78 176 74 78 175 74 79 175 74 79 175 75 79 174 75 80 174 75 80 174 75 80 174 76 80 174 76 80 174 76 80 174 75 80 174 75 80 174 75 80 174 75 80 174 75 80 174 75 80 175 75 79 174 75 80 174 75 80 174 75 80 174 75 80 174 75 80 174 75 80 174 76 80 174 76 80 174 76 80 174 76 80 174 75 80 174 75 80 174 75 80 175 75 79 175 74 79 175 74 79 176 74 78 176 73 78 176 73 78 176 73 78 176 73 78 176 73 78 176 74 78 176 74 78 175 74 79 175 74 79 175 75 79 174 75 80 174 75 80 174 75 80 174 76 80 174 76 80 174 75 80 174 75 80 174 75 80 174 75 80 175 75 79 
174 75 80 174 75 80 174 75 80 174 75 80 174 75 80 174 75 80 174 75 80 174 75 80 174 75 80 174 75 80 174 75 80 174 75 80 174 75 80 174 75 80 174 75 80 174 75 80 174 75 80 174 75 80 174 75 80 174 75 80 174 75 80 174 75 80 175 75 79 175 75 79 175 75 79 175 75 79 175 74 79 175 74 79 175 74 79 175 74 79 175 75 79 175 75 79 175 75 79 175 75 79 174 75 80 174 75 80 174 75 80 174 75 80 174 75 80 174 75 80 174 75 80 174 75 80 174 76 80 174 76 80 174 76 80 174 76 80 174 76 80 174 76 80 174 76 80 174 76 80 174 76 80 174 75 80 174 75 80 174 75 80 174 75 80 174 75 80 174 75 80 174 75 80 175 75 79 175 75 79 175 75 79 175 74 79 175 74 79 175 74 79 175 74 79 175 74 79 175 74 79 175 74 79 175 74 79 175 74 79 175 74 79 175 74 79 175 75 79 175 75 79 175 75 79 174 75 80 174 75 80 174 75 80 174 75 80 174 75 80 174 75 80 174 75 80 174 75 80 174 75 80 175 75 79 175 74 79 175 74 79 176 74 78 176 73 78 176 73 78 177 73 77 177 72 77 177 72 77 178 72 76 178 72 76 178 72 76 178 72 76 177 72 77 177 73 77 177 73 77 176 73 78 176 74 78 175 74 79 175 75 79 174 75 80 174 75 80 174 76 80 173 76 81 173 76 81 173 76 81 174 76 80 174 76 80 174 75 80 174 75 80 174 75 80 175 75 79 175 74 79 175 74 79 175 74 79 176 74 78 176 74 78 176 74 78 176 74 78 176 74 78 176 74 78 175 74 79 175 74 79 175 74 79 175 75 79 174 75 80 174 75 80 174 75 80 174 76 80 174 76 80 174 76 80 174 76 80 174 76 80 174 75 80 174 75 80 174 75 80 174 75 80 174 75 80 175 75 79 175 75 79 174 75 80 174 75 80 174 75 80 174 75 80 174 75 80 174 76 80 174 76 80 174 76 80 174 76 80 174 75 80 174 75 80 174 75 80 175 75 79 175 74 79 175 74 79 176 74 78 176 74 78 176 73 78 176 73 78 176 73 78 176 73 78 176 73 78 176 74 78 175 74 79 175 74 79 175 75 79 174 75 80 174 75 80 174 75 80 174 75 80 174 75 80 174 75 80 174 75 80 174 75 80 174 75 80 174 75 80 175 75 79 
174 75 80 174 75 80 174 75 80 174 75 80 174 75 80 174 75 80 174 75 80 174 75 80 174 75 80 174 75 80 174 75 80 174 75 80 174 75 80 174 75 80 174 75 80 174 75 80 174 75 80 174 75 80 174 75 80 174 75 80 174 75 80 174 75 80 174 75 80 174 75 80 174 75 80 174 75 80 175 75 79 175 75 79 175 75 79 175 75 79 175 75 79 174 75 80 174 75 80 174 75 80 174 75 80 174 75 80 174 75 80 174 75 80 174 75 80 174 75 80 174 75 80 174 75 80 174 75 80 174 76 80 174 76 80 174 76 80 173 76 81 173 76 81 173 76 81 173 76 81 173 76 81 173 76 81 174 76 80 174 76 80 174 75 80 174 75 80 174 75 80 174 75 80 174 75 80 175 75 79 175 74 79 175 74 79 175 74 79 175 74 79 175 74 79 175 74 79 175 74 79 175 74 79 175 74 79 175 75 79 175 75 79 174 75 80 174 75 80 174 75 80 174 75 80 174 76 80 174 76 80 174 76 80 173 76 81 173 76 81 173 76 81 174 76 80 174 75 80 174 75 80 174 75 80 175 75 79 175 74 79 175 74 79 176 74 78 176 73 78 176 73 78 177 73 77 177 72 77 177 72 77 177 72 77 177 72 77 177 73 77 177 73 77 176 73 78 176 73 78 175 74 79 175 74 79 175 75 79 174 75 80 174 75 80 174 76 80 173 76 81 173 76 81 173 76 81 173 76 81 174 76 80 174 76 80 174 75 80 174 75 80 174 75 80 175 75 79 175 74 79 175 74 79 175 74 79 175 74 79 175 74 79 175 74 79 175 74 79 175 74 79 175 74 79 175 75 79 175 75 79 174 75 80 174 75 80 174 75 80 174 76 80 173 76 81 173 76 81 173 76 81 174 76 80 174 76 80 174 75 80 174 75 80 174 75 80 174 75 80 174 75 80 175 75 79 175 75 79 175 75 79 174 75 80 174 75 80 174 75 80 174 75 80 174 75 80 174 76 80 174 76 80 174 76 80 174 76 80 174 75 80 174 75 80 174 75 80 175 75 79 175 74 79 175 74 79 176 74 78 176 73 78 176 73 78 176 73 78 176 73 78 176 73 78 176 74 78 175 74 79 175 74 79 175 74 79 175 75 79 174 75 80 174 75 80 174 75 80 174 75 80 174 75 80 174 75 80 174 75 80 174 75 80 174 75 80 175 75 79 175 74 79 
174 75 80 174 75 80 174 75 80 174 75 80 174 75 80 174 75 80 174 75 80 174 75 80 174 75 80 174 75 80 174 75 80 174 75 80 174 75 80 174 75 80 174 75 80 174 75 80 174 75 80 174 75 80 174 75 80 174 75 80 174 75 80 174 75 80 174 75 80 174 75 80 174 75 80 174 75 80 174 75 80 174 75 80 174 75 80 174 75 80 174 75 80 174 75 80 174 75 80 174 75 80 174 75 80 174 75 80 174 75 80 174 75 80 174 75 80 174 75 80 174 75 80 174 75 80 174 75 80 174 75 80 174 76 80 174 76 80 173 76 81 173 76 81 173 76 81 173 76 81 173 76 81 173 76 81 173 76 81 173 76 81 174 76 80 174 76 80 174 75 80 174 75 80 174 75 80 175 75 79 175 75 79 175 74 79 175 74 79 175 74 79 175 74 79 175 74 79 175 74 79 175 75 79 175 75 79 174 75 80 174 75 80 174 75 80 174 76 80 174 76 80 173 76 81 173 76 81 173 76 81 173 76 81 173 76 81 173 76 81 173 76 81 173 76 81 173 76 81 174 76 80 174 75 80 174 75 80 175 75 79 175 74 79 175 74 79 176 74 78 176 73 78 176 73 78 176 73 78 176 73 78 176 73 78 176 73 78 176 73 78 176 73 78 176 74 78 175 74 79 175 74 79 175 75 79 174 75 80 174 75 80 174 76 80 173 76 81 173 76 81 173 76 81 173 76 81 173 76 81 174 76 80 174 75 80 174 75 80 174 75 80 174 75 80 175 75 79 175 74 79 175 74 79 175 74 79 175 74 79 175 74 79 175 74 79 175 74 79 175 75 79 175 75 79 174 75 80 174 75 80 174 75 80 174 76 80 173 76 81 173 76 81 173 76 81 173 76 81 173 76 81 174 76 80 174 76 80 174 75 80 174 75 80 174 75 80 174 75 80 175 75 79 175 75 79 175 75 79 174 75 80 174 75 80 174 75 80 174 75 80 174 75 80 174 75 80 174 76 80 174 76 80 174 76 80 174 75 80 174 75 80 174 75 80 175 75 79 175 74 79 175 74 79 175 74 79 176 74 78 176 74 78 176 73 78 176 73 78 176 73 78 176 74 78 176 74 78 175 74 79 175 74 79 175 75 79 174 75 80 174 75 80 174 75 80 174 75 80 174 75 80 174 75 80 174 75 80 174 75 80 174 75 80 174 75 80 175 75 79 175 74 79 
174 75 80 174 75 80 174 75 80 174 75 80 174 75 80 174 75 80 174 75 80 174 76 80 174 76 80 174 76 80 174 76 80 174 75 80 174 75 80 174 75 80 174 75 80 174 75 80 174 75 80 174 75 80 174 75 80 174 75 80 174 75 80 174 75 80 174 75 80 174 75 80 174 75 80 174 75 80 174 75 80 174 75 80 174 75 80 174 75 80 174 75 80 174 75 80 174 75 80 174 75 80 174 75 80 174 75 80 174 75 80 174 75 80 174 75 80 174 75 80 174 75 80 174 75 80 174 75 80 174 75 80 174 76 80 174 76 80 173 76 81 173 76 81 173 76 81 173 76 81 173 76 81 173 76 81 173 76 81 173 76 81 173 76 81 174 76 80 174 76 80 174 75 80 174 75 80 174 75 80 175 75 79 175 75 79 175 75 79 175 75 79 175 75 79 175 75 79 175 75 79 174 75 80 174 75 80 174 75 80 174 76 80 173 76 81 173 76 81 173 76 81 173 76 81 173 76 81 173 76 81 173 76 81 173 76 81 173 76 81 173 76 81 173 76 81 173 76 81 174 76 80 174 75 80 174 75 80 174 75 80 175 75 79 175 75 79 175 74 79 175 74 79 175 74 79 175 74 79 176 74 78 176 74 78 175 74 79 175 74 79 175 74 79 175 74 79 175 75 79 174 75 80 174 75 80 174 75 80 174 76 80 174 76 80 173 76 81 173 76 81 173 76 81 173 76 81 174 76 80 174 76 80 174 75 80 174 75 80 174 75 80 175 75 79 175 75 79 175 74 79 175 74 79 175 74 79 175 74 79 175 74 79 175 75 79 175 75 79 174 75 80 174 75 80 174 75 80 174 75 80 174 76 80 173 76 81 173 76 81 173 76 81 173 76 81 173 76 81 173 76 81 174 76 80 174 75 80 174 75 80 174 75 80 174 75 80 175 75 79 175 75 79 175 75 79 175 75 79 174 75 80 174 75 80 174 75 80 174 75 80 174 75 80 174 75 80 174 76 80 174 76 80 174 75 80 174 75 80 174 75 80 174 75 80 175 75 79 175 74 79 175 74 79 175 74 79 176 74 78 176 74 78 176 74 78 176 74 78 176 74 78 175 74 79 175 74 79 175 74 79 175 75 79 174 75 80 174 75 80 174 75 80 174 75 80 174 75 80 174 75 80 174 75 80 174 75 80 174 75 80 174 75 80 175 75 79 175 75 79 175 74 79 
174 75 80 174 75 80 174 75 80 174 75 80 174 75 80 174 75 80 174 76 80 174 76 80 174 76 80 174 76 80 174 76 80 174 76 80 174 76 80 174 75 80 174 75 80 174 75 80 174 75 80 174 75 80 174 75 80 174 75 80 174 75 80 174 75 80 174 75 80 174 75 80 174 75 80 174 76 80 174 76 80 174 76 80 174 76 80 174 76 80 174 76 80 174 76 80 174 75 80 174 75 80 174 75 80 174 75 80 174 75 80 174 75 80 174 75 80 174 75 80 174 75 80 174 75 80 174 75 80 174 75 80 174 75 80 174 76 80 174 76 80 173 76 81 173 76 81 173 76 81 173 76 81 173 76 81 173 76 81 173 76 81 173 76 81 173 76 81 174 76 80 174 76 80 174 75 80 174 75 80 174 75 80 174 75 80 174 75 80 174 75 80 174 75 80 174 75 80 174 75 80 174 75 80 174 75 80 174 76 80 173 76 81 173 76 81 173 76 81 173 76 81 173 76 81 173 76 81 173 76 81 173 76 81 173 76 81 173 76 81 173 76 81 173 76 81 174 76 80 174 76 80 174 75 80 174 75 80 174 75 80 174 75 80 174 75 80 174 75 80 174 75 80 175 75 79 175 75 79 175 75 79 175 75 79 175 75 79 175 75 79 174 75 80 174 75 80 174 75 80 174 75 80 174 75 80 174 75 80 174 76 80 174 76 80 174 76 80 174 76 80 174 76 80 174 76 80 174 75 80 174 75 80 174 75 80 174 75 80 174 75 80 175 75 79 175 75 79 175 74 79 175 74 79 175 74 79 175 74 79 175 75 79 175 75 79 174 75 80 174 75 80 174 75 80 174 75 80 174 76 80 174 76 80 173 76 81 173 76 81 173 76 81 173 76 81 174 76 80 174 76 80 174 75 80 174 75 80 174 75 80 174 75 80 174 75 80 175 75 79 175 75 79 175 75 79 175 75 79 174 75 80 174 75 80 174 75 80 174 75 80 174 75 80 174 75 80 174 76 80 174 75 80 174 75 80 174 75 80 174 75 80 174 75 80 175 75 79 175 74 79 175 74 79 175 74 79 175 74 79 176 74 78 176 74 78 175 74 79 175 74 79 175 74 79 175 74 79 175 75 79 175 75 79 174 75 80 174 75 80 174 75 80 174 75 80 174 75 80 174 75 80 174 75 80 174 75 80 174 75 80 174 75 80 175 75 79 175 75 79 175 74 79 
174 75 80 174 75 80 174 75 80 174 75 80 174 75 80 174 75 80 174 76 80 174 76 80 174 76 80 174 76 80 174 76 80 174 76 80 174 76 80 174 76 80 174 75 80 174 75 80 174 75 80 174 75 80 174 75 80 174 75 80 174 75 80 174 75 80 174 76 80 174 76 80 174 76 80 174 76 80 174 76 80 174 76 80 174 76 80 174 76 80 174 76 80 174 76 80 174 76 80 174 76 80 174 76 80 174 75 80 174 75 80 174 75 80 174 75 80 174 75 80 174 75 80 174 75 80 174 75 80 174 75 80 174 75 80 174 75 80 174 76 80 174 76 80 173 76 81 173 76 81 173 76 81 173 76 81 173 76 81 173 76 81 173 76 81 173 76 81 173 76 81 174 76 80 174 76 80 174 75 80 174 75 80 174 75 80 174 75 80 174 75 80 174 75 80 174 75 80 174 75 80 174 76 80 173 76 81 173 76 81 173 76 81 173 76 81 173 76 81 173 76 81 173 76 81 173 76 81 173 76 81 173 76 81 173 76 81 173 76 81 174 76 80 174 75 80 174 75 80 174 75 80 174 75 80 174 75 80 174 75 80 174 75 80 174 75 80 174 75 80 174 75 80 174 75 80 174 75 80 174 75 80 174 75 80 174 75 80 174 75 80 174 75 80 174 75 80 174 75 80 174 75 80 174 75 80 174 75 80 174 75 80 174 75 80 174 75 80 174 75 80 174 75 80 174 75 80 174 75 80 174 75 80 174 75 80 174 75 80 175 75 79 175 75 79 175 75 79 175 75 79 175 74 79 175 74 79 175 75 79 175 75 79 175 75 79 174 75 80 174 75 80 174 75 80 174 75 80 174 75 80 174 76 80 174 76 80 174 76 80 174 76 80 174 76 80 174 75 80 174 75 80 174 75 80 174 75 80 174 75 80 174 75 80 175 75 79 175 75 79 175 75 79 175 75 79 174 75 80 174 75 80 174 75 80 174 75 80 174 75 80 174 75 80 174 75 80 174 75 80 174 75 80 174 75 80 174 75 80 174 75 80 174 75 80 175 75 79 175 74 79 175 74 79 175 74 79 175 74 79 175 74 79 175 74 79 175 74 79 175 74 79 175 74 79 175 75 79 174 75 80 174 75 80 174 75 80 174 75 80 174 75 80 174 75 80 174 75 80 174 75 80 174 75 80 174 75 80 174 75 80 174 75 80 175 75 79 175 75 79 175 74 79 
174 75 80 174 75 80 174 75 80 174 75 80 174 75 80 174 75 80 174 76 80 174 76 80 174 76 80 174 76 80 174 76 80 174 76 80 174 76 80 174 76 80 174 76 80 174 76 80 174 75 80 174 75 80 174 75 80 174 75 80 174 75 80 174 75 80 174 76 80 174 76 80 174 76 80 174 76 80 174 76 80 174 76 80 173 76 81 173 76 81 173 76 81 173 76 81 173 76 81 174 76 80 174 76 80 174 76 80 174 76 80 174 75 80 174 75 80 174 75 80 174 75 80 174 75 80 174 75 80 174 75 80 174 75 80 174 75 80 174 75 80 174 75 80 174 76 80 174 76 80 173 76 81 173 76 81 173 76 81 173 76 81 173 76 81 173 76 81 173 76 81 173 76 81 173 76 81 174 76 80 174 76 80 174 76 80 174 76 80 174 76 80 174 76 80 174 76 80 173 76 81 173 76 81 173 76 81 173 76 81 173 76 81 173 76 81 173 76 81 173 76 81 173 76 81 173 76 81 173 76 81 174 76 80 174 75 80 174 75 80 174 75 80 174 75 80 174 75 80 174 75 80 174 75 80 174 75 80 174 75 80 174 76 80 174 76 80 173 76 81 173 76 81 173 76 81 173 76 81 173 76 81 173 76 81 173 76 81 173 76 81 174 76 80 174 76 80 174 75 80 174 75 80 174 75 80 174 75 80 174 75 80 174 75 80 174 75 80 174 75 80 174 75 80 174 75 80 174 75 80 174 75 80 174 75 80 175 75 79 175 75 79 175 75 79 175 75 79 175 75 79 175 74 79 175 74 79 175 75 79 175 75 79 175 75 79 175 75 79 174 75 80 174 75 80 174 75 80 174 75 80 174 75 80 174 75 80 174 75 80 174 75 80 174 75 80 174 75 80 174 75 80 174 75 80 174 75 80 174 75 80 175 75 79 175 75 79 175 75 79 175 75 79 174 75 80 174 75 80 174 75 80 174 75 80 174 75 80 174 75 80 174 75 80 174 75 80 174 75 80 174 75 80 174 75 80 174 75 80 174 75 80 174 75 80 175 75 79 175 75 79 175 74 79 175 74 79 175 74 79 175 74 79 175 74 79 175 74 79 175 75 79 175 75 79 174 75 80 174 75 80 174 75 80 174 75 80 174 75 80 174 75 80 174 75 80 174 75 80 174 75 80 174 75 80 174 75 80 174 75 80 174 75 80 175 75 79 175 75 79 175 75 79 
174 75 80 174 75 80 174 75 80 174 75 80 174 75 80 174 75 80 174 76 80 174 76 80 174 76 80 174 76 80 174 76 80 174 76 80 174 76 80 174 76 80 174 76 80 174 76 80 174 76 80 174 75 80 174 75 80 174 75 80 174 75 80 174 75 80 174 75 80 174 76 80 174 76 80 174 76 80 174 76 80 174 76 80 174 76 80 174 76 80 173 76 81 173 76 81 173 76 81 173 76 81 174 76 80 174 76 80 174 76 80 174 76 80 174 75 80 174 75 80 174 75 80 174 75 80 174 75 80 174 75 80 174 75 80 174 75 80 174 75 80 174 75 80 174 75 80 174 75 80 174 76 80 174 76 80 174 76 80 173 76 81 173 76 81 173 76 81 173 76 81 173 76 81 173 76 81 173 76 81 173 76 81 173 76 81 173 76 81 173 76 81 173 76 81 173 76 81 173 76 81 173 76 81 173 76 81 173 76 81 173 76 81 173 76 81 173 76 81 173 76 81 174 76 80 174 76 80 174 75 80 174 75 80 174 75 80 175 75 79 175 75 79 175 75 79 175 75 79 175 75 79 174 75 80 174 75 80 174 75 80 174 76 80 173 76 81 173 76 81 173 76 81 173 76 81 173 76 81 173 76 81 173 76 81 173 76 81 173 76 81 173 76 81 174 76 80 174 75 80 174 75 80 174 75 80 174 75 80 174 75 80 174 75 80 174 75 80 174 75 80 174 75 80 175 75 79 175 75 79 175 75 79 175 75 79 175 75 79 175 75 79 175 75 79 175 75 79 175 75 79 175 74 79 175 74 79 175 74 79 175 74 79 175 74 79 175 75 79 175 75 79 175 75 79 175 75 79 175 75 79 174 75 80 174 75 80 174 75 80 174 75 80 174 75 80 174 75 80 174 75 80 174 75 80 174 75 80 175 75 79 175 75 79 175 75 79 174 75 80 174 75 80 174 75 80 174 75 80 174 75 80 174 75 80 174 75 80 174 75 80 174 75 80 174 75 80 174 75 80 174 75 80 174 75 80 174 75 80 174 75 80 174 75 80 174 75 80 175 75 79 175 75 79 175 75 79 175 75 79 175 75 79 175 75 79 175 75 79 174 75 80 174 75 80 174 75 80 174 75 80 174 75 80 174 75 80 174 75 80 174 75 80 174 75 80 174 75 80 174 75 80 174 75 80 174 75 80 174 75 80 174 75 80 175 75 79 175 75 79 175 75 79 
174 75 80 174 75 80 174 75 80 174 75 80 174 75 80 174 75 80 174 75 80 174 75 80 174 76 80 174 76 80 174 76 80 174 76 80 174 76 80 174 76 80 174 76 80 174 76 80 174 76 80 174 76 80 174 75 80 174 75 80 174 75 80 174 75 80 174 75 80 174 75 80 174 75 80 174 75 80 174 75 80 174 76 80 174 76 80 174 76 80 174 76 80 174 76 80 174 76 80 174 76 80 174 76 80 174 76 80 174 76 80 174 76 80 174 76 80 174 75 80 174 75 80 174 75 80 174 75 80 174 75 80 174 75 80 174 75 80 174 75 80 174 75 80 174 75 80 174 75 80 174 75 80 174 75 80 174 75 80 174 76 80 174 76 80 173 76 81 173 76 81 173 76 81 173 76 81 173 76 81 173 76 81 173 76 81 173 76 81 173 76 81 173 76 81 173 76 81 173 76 81 173 76 81 173 76 81 173 76 81 173 76 81 173 76 81 173 76 81 174 76 80 174 75 80 174 75 80 174 75 80 175 75 79 175 74 79 175 74 79 175 74 79 175 74 79 175 74 79 175 74 79 175 75 79 174 75 80 174 75 80 174 75 80 173 76 81 173 76 81 173 76 81 173 76 81 173 76 81 173 76 81 173 76 81 173 76 81 173 76 81 174 76 80 174 75 80 174 75 80 174 75 80 174 75 80 175 75 79 175 75 79 175 75 79 175 75 79 175 75 79 175 75 79 175 75 79 175 75 79 175 75 79 175 75 79 175 75 79 175 75 79 175 75 79 175 75 79 175 75 79 175 74 79 175 74 79 175 74 79 175 74 79 175 74 79 175 74 79 175 74 79 175 74 79 175 74 79 175 74 79 175 74 79 175 74 79 175 75 79 175 75 79 175 75 79 175 75 79 175 75 79 175 75 79 175 75 79 175 75 79 174 75 80 174 75 80 174 75 80 174 75 80 174 75 80 174 75 80 174 75 80 174 75 80 174 75 80 174 75 80 174 75 80 174 75 80 174 75 80 174 75 80 174 75 80 174 75 80 174 75 80 174 75 80 174 75 80 174 75 80 174 75 80 174 75 80 174 75 80 174 75 80 174 75 80 174 75 80 174 75 80 174 75 80 174 75 80 174 75 80 174 75 80 174 75 80 174 75 80 174 75 80 174 75 80 174 75 80 174 75 80 174 75 80 174 75 80 174 75 80 174 75 80 174 75 80 174 75 80 174 75 80 
174 75 80 174 75 80 174 75 80 174 75 80 174 75 80 174 75 80 174 75 80 174 75 80 174 75 80 174 75 80 174 76 80 174 76 80 174 76 80 174 76 80 174 76 80 174 76 80 174 76 80 174 76 80 174 75 80 174 75 80 174 75 80 174 75 80 174 75 80 174 75 80 174 75 80 174 75 80 174 75 80 174 75 80 174 75 80 174 75 80 174 75 80 174 75 80 174 76 80 174 76 80 174 76 80 174 76 80 174 76 80 174 76 80 174 76 80 174 76 80 174 75 80 174 75 80 174 75 80 174 75 80 174 75 80 174 75 80 175 75 79 175 75 79 175 75 79 175 75 79 174 75 80 174 75 80 174 75 80 174 75 80 174 76 80 174 76 80 173 76 81 173 76 81 173 76 81 173 76 81 173 76 81 173 76 81 173 76 81 173 76 81 173 76 81 173 76 81 173 76 81 173 76 81 173 76 81 173 76 81 173 76 81 174 76 80 174 75 80 174 75 80 174 75 80 175 75 79 175 74 79 175 74 79 175 74 79 176 74 78 176 74 78 176 74 78 175 74 79 175 74 79 175 74 79 175 75 79 174 75 80 174 75 80 174 76 80 173 76 81 173 76 81 173 76 81 173 76 81 173 76 81 173 76 81 173 76 81 174 76 80 174 75 80 174 75 80 174 75 80 175 75 79 175 75 79 175 74 79 175 74 79 175 74 79 175 74 79 175 74 79 175 74 79 175 74 79 175 75 79 175 75 79 175 75 79 175 75 79 175 75 79 175 75 79 175 75 79 175 75 79 175 74 79 175 74 79 175 74 79 175 74 79 175 74 79 175 74 79 175 74 79 175 74 79 175 74 79 175 74 79 175 74 79 175 74 79 175 74 79 175 74 79 175 74 79 175 74 79 175 75 79 175 75 79 175 75 79 175 75 79 174 75 80 174 75 80 174 75 80 174 75 80 174 75 80 174 75 80 174 75 80 174 75 80 174 75 80 174 75 80 174 75 80 174 75 80 174 75 80 174 75 80 174 75 80 174 75 80 174 75 80 174 75 80 174 75 80 174 75 80 174 75 80 174 75 80 174 75 80 174 75 80 174 75 80 174 75 80 174 75 80 174 75 80 174 75 80 174 75 80 174 75 80 174 75 80 174 75 80 174 75 80 174 75 80 174 75 80 174 75 80 174 75 80 174 75 80 174 75 80 174 75 80 174 75 80 174 75 80 174 75 80 
174 75 80 174 75 80 174 75 80 174 75 80 174 75 80 174 75 80 174 75 80 174 75 80 174 75 80 174 75 80 174 75 80 174 75 80 174 76 80 174 76 80 174 76 80 174 76 80 174 76 80 174 76 80 174 75 80 174 75 80 174 75 80 174 75 80 174 75 80 174 75 80 174 75 80 174 75 80 174 75 80 174 75 80 174 75 80 174 75 80 174 75 80 174 75 80 174 75 80 174 75 80 174 76 80 174 76 80 174 76 80 174 76 80 174 76 80 174 76 80 174 75 80 174 75 80 174 75 80 174 75 80 174 75 80 175 75 79 175 75 79 175 74 79 175 74 79 175 74 79 175 75 79 175 75 79 174 75 80 174 75 80 174 75 80 174 75 80 174 76 80 173 76 81 173 76 81 173 76 81 173 76 81 173 76 81 173 76 81 173 76 81 173 76 81 173 76 81 173 76 81 173 76 81 173 76 81 174 76 80 174 76 80 174 75 80 174 75 80 174 75 80 175 75 79 175 74 79 175 74 79 175 74 79 176 74 78 176 74 78 176 74 78 176 74 78 176 74 78 175 74 79 175 74 79 175 74 79 175 75 79 174 75 80 174 75 80 174 76 80 174 76 80 173 76 81 173 76 81 174 76 80 174 76 80 174 75 80 174 75 80 174 75 80 175 75 79 175 75 79 175 74 79 175 74 79 175 74 79 175 74 79 175 74 79 175 74 79 175 74 79 175 74 79 175 74 79 175 75 79 175 75 79 175 75 79 175 75 79 175 75 79 175 75 79 175 75 79 175 75 79 175 74 79 175 74 79 175 74 79 175 74 79 175 74 79 176 74 78 176 74 78 176 74 78 176 74 78 176 74 78 176 74 78 176 74 78 175 74 79 175 74 79 175 74 79 175 74 79 175 74 79 175 75 79 175 75 79 174 75 80 174 75 80 174 75 80 174 75 80 174 75 80 174 75 80 174 75 80 174 75 80 174 75 80 174 75 80 174 75 80 174 75 80 174 75 80 174 75 80 174 75 80 174 75 80 174 75 80 174 75 80 174 75 80 174 75 80 174 75 80 174 75 80 174 75 80 174 75 80 174 75 80 174 75 80 174 75 80 174 75 80 174 75 80 174 75 80 174 75 80 174 75 80 174 75 80 174 75 80 174 75 80 174 75 80 174 75 80 174 75 80 174 75 80 174 75 80 174 75 80 174 75 80 174 75 80 174 75 80 174 75 80 
174 75 80 174 75 80 174 75 80 174 75 80 174 75 80 174 75 80 174 75 80 174 75 80 174 75 80 174 75 80 174 75 80 174 75 80 174 75 80 174 75 80 174 76 80 174 76 80 174 76 80 174 76 80 174 75 80 174 75 80 174 75 80 174 75 80 174 75 80 174 75 80 174 75 80 174 75 80 175 75 79 175 75 79 175 75 79 174 75 80 174 75 80 174 75 80 174 75 80 174 75 80 174 75 80 174 75 80 174 76 80 174 76 80 174 76 80 174 76 80 174 75 80 174 75 80 174 75 80 174 75 80 175 75 79 175 75 79 175 74 79 175 74 79 175 74 79 175 74 79 175 74 79 175 74 79 175 75 79 174 75 80 174 75 80 174 75 80 174 75 80 174 76 80 173 76 81 173 76 81 173 76 81 173 76 81 173 76 81 173 76 81 173 76 81 173 76 81 173 76 81 173 76 81 174 76 80 174 75 80 174 75 80 174 75 80 174 75 80 175 75 79 175 74 79 175 74 79 175 74 79 176 74 78 176 74 78 176 74 78 176 73 78 176 74 78 176 74 78 176 74 78 175 74 79 175 74 79 175 75 79 175 75 79 174 75 80 174 75 80 174 75 80 174 75 80 174 75 80 174 75 80 174 75 80 174 75 80 175 75 79 175 75 79 175 74 79 175 74 79 175 74 79 175 74 79 175 74 79 175 74 79 175 74 79 175 74 79 175 74 79 175 74 79 175 75 79 175 75 79 175 75 79 174 75 80 174 75 80 174 75 80 174 75 80 175 75 79 175 75 79 175 75 79 175 74 79 175 74 79 175 74 79 175 74 79 176 74 78 176 74 78 176 73 78 176 73 78 176 73 78 176 73 78 176 74 78 176 74 78 175 74 79 175 74 79 175 74 79 175 74 79 175 75 79 174 75 80 174 75 80 174 75 80 174 75 80 174 75 80 174 75 80 174 75 80 174 75 80 174 75 80 174 75 80 174 75 80 174 75 80 174 75 80 174 75 80 174 75 80 174 75 80 174 75 80 174 75 80 174 75 80 174 75 80 174 75 80 174 75 80 174 75 80 174 75 80 174 75 80 174 75 80 174 75 80 174 75 80 174 75 80 174 75 80 174 75 80 174 75 80 174 75 80 174 75 80 174 75 80 174 75 80 174 75 80 174 75 80 174 75 80 174 75 80 174 75 80 174 75 80 174 75 80 174 75 80 174 75 80 174 75 80 
174 75 80 174 75 80 174 75 80 174 75 80 174 75 80 174 75 80 174 75 80 174 75 80 174 75 80 174 75 80 174 75 80 174 75 80 174 75 80 174 75 80 174 75 80 174 76 80 174 76 80 174 76 80 174 75 80 174 75 80 174 75 80 174 75 80 174 75 80 174 75 80 175 75 79 175 75 79 175 75 79 175 74 79 175 74 79 175 74 79 175 75 79 175 75 79 174 75 80 174 75 80 174 75 80 174 75 80 174 75 80 174 76 80 174 76 80 174 76 80 174 75 80 174 75 80 174 75 80 174 75 80 175 75 79 175 75 79 175 74 79 175 74 79 175 74 79 175 74 79 175 74 79 175 74 79 175 74 79 175 75 79 174 75 80 174 75 80 174 75 80 174 75 80 174 76 80 174 76 80 173 76 81 173 76 81 173 76 81 173 76 81 173 76 81 174 76 80 174 76 80 174 76 80 174 75 80 174 75 80 174 75 80 174 75 80 175 75 79 175 75 79 175 74 79 175 74 79 175 74 79 176 74 78 176 74 78 176 74 78 176 74 78 176 74 78 176 74 78 176 74 78 175 74 79 175 74 79 175 74 79 175 74 79 175 75 79 175 75 79 175 75 79 175 75 79 175 75 79 175 75 79 175 74 79 175 74 79 175 74 79 175 74 79 175 74 79 175 74 79 175 74 79 175 74 79 175 74 79 175 74 79 175 74 79 175 74 79 175 74 79 175 75 79 175 75 79 174 75 80 174 75 80 174 75 80 174 75 80 174 75 80 174 75 80 174 75 80 175 75 79 175 75 79 175 74 79 175 74 79 175 74 79 176 74 78 176 74 78 176 74 78 176 73 78 176 73 78 176 73 78 176 73 78 176 74 78 176 74 78 175 74 79 175 74 79 175 74 79 175 75 79 175 75 79 174 75 80 174 75 80 174 75 80 174 75 80 174 75 80 174 75 80 174 75 80 174 75 80 174 75 80 174 75 80 174 75 80 174 75 80 174 75 80 174 75 80 174 75 80 174 75 80 174 75 80 174 75 80 174 75 80 174 75 80 174 75 80 174 75 80 174 75 80 174 75 80 174 75 80 174 75 80 174 75 80 174 75 80 174 75 80 174 75 80 174 75 80 174 75 80 174 75 80 174 75 80 174 75 80 174 75 80 174 75 80 174 75 80 174 75 80 174 75 80 174 75 80 174 75 80 174 75 80 174 75 80 174 75 80 174 75 80 
174 75 80 174 75 80 174 75 80 174 75 80 174 75 80 174 75 80 174 75 80 174 75 80 174 75 80 174 75 80 174 75 80 174 75 80 174 75 80 174 75 80 174 75 80 174 76 80 174 76 80 174 76 80 174 75 80 174 75 80 174 75 80 174 75 80 174 75 80 175 75 79 175 75 79 175 74 79 175 74 79 175 74 79 175 74 79 175 74 79 175 74 79 175 74 79 175 75 79 175 75 79 174 75 80 174 75 80 174 75 80 174 75 80 174 75 80 174 75 80 174 75 80 174 75 80 174 75 80 174 75 80 175 75 79 175 74 79 175 74 79 175 74 79 175 74 79 175 74 79 175 74 79 175 74 79 175 74 79 175 74 79 175 75 79 174 75 80 174 75 80 174 75 80 174 75 80 174 75 80 174 76 80 174 76 80 174 76 80 174 76 80 174 75 80 174 75 80 174 75 80 174 75 80 174 75 80 174 75 80 174 75 80 174 75 80 175 75 79 175 75 79 175 74 79 175 74 79 175 74 79 175 74 79 175 74 79 175 74 79 175 74 79 175 74 79 175 74 79 175 74 79 175 74 79 175 74 79 175 74 79 175 74 79 175 74 79 175 74 79 175 74 79 175 74 79 175 74 79 175 74 79 175 74 79 176 74 78 176 74 78 176 74 78 176 74 78 176 74 78 176 74 78 176 74 78 175 74 79 175 74 79 175 74 79 175 74 79 175 75 79 175 75 79 174 75 80 174 75 80 174 75 80 174 75 80 174 75 80 174 75 80 174 75 80 174 75 80 174 75 80 175 75 79 175 74 79 175 74 79 175 74 79 176 74 78 176 74 78 176 74 78 176 73 78 176 73 78 176 73 78 176 73 78 176 74 78 176 74 78 175 74 79 175 74 79 175 74 79 175 75 79 174 75 80 174 75 80 174 75 80 174 75 80 174 75 80 174 75 80 174 76 80 174 75 80 174 75 80 174 75 80 174 75 80 174 75 80 174 75 80 174 75 80 174 75 80 174 75 80 174 75 80 174 75 80 174 75 80 174 75 80 174 75 80 174 75 80 174 75 80 174 76 80 174 76 80 174 76 80 174 75 80 174 75 80 174 75 80 174 75 80 174 75 80 174 75 80 174 75 80 174 75 80 174 75 80 174 75 80 174 75 80 174 75 80 174 75 80 174 75 80 174 75 80 174 75 80 174 75 80 174 75 80 174 75 80 174 75 80 174 75 80 
174 75 80 174 75 80 174 75 80 174 75 80 174 75 80 174 75 80 174 75 80 174 75 80 174 75 80 174 75 80 174 75 80 174 75 80 174 75 80 174 75 80 174 75 80 174 76 80 174 76 80 174 76 80 174 75 80 174 75 80 174 75 80 174 75 80 174 75 80 175 75 79 175 75 79 175 74 79 175 74 79 175 74 79 175 74 79 175 74 79 175 74 79 175 74 79 175 74 79 175 75 79 175 75 79 174 75 80 174 75 80 174 75 80 174 75 80 174 75 80 174 75 80 174 75 80 174 75 80 174 75 80 175 75 79 175 75 79 175 74 79 175 74 79 175 74 79 175 74 79 175 74 79 175 74 79 175 74 79 175 74 79 175 75 79 175 75 79 174 75 80 174 75 80 174 75 80 174 75 80 174 75 80 174 75 80 174 75 80 174 75 80 174 75 80 174 75 80 174 75 80 174 75 80 174 75 80 174 75 80 174 75 80 174 75 80 174 75 80 174 75 80 175 75 79 175 75 79 175 75 79 175 74 79 175 74 79 175 74 79 175 74 79 175 74 79 175 74 79 175 74 79 175 74 79 175 74 79 175 74 79 175 74 79 175 74 79 175 74 79 176 74 78 176 74 78 176 74 78 176 73 78 176 73 78 176 73 78 176 73 78 176 73 78 176 73 78 176 74 78 176 74 78 175 74 79 175 74 79 175 74 79 175 75 79 175 75 79 174 75 80 174 75 80 174 75 80 174 75 80 174 75 80 174 75 80 174 75 80 174 75 80 174 75 80 174 75 80 174 75 80 175 75 79 175 75 79 175 74 79 175 74 79 175 74 79 176 74 78 176 74 78 176 74 78 176 73 78 176 74 78 176 74 78 176 74 78 175 74 79 175 74 79 175 74 79 175 75 79 174 75 80 174 75 80 174 75 80 174 75 80 174 75 80 174 76 80 174 76 80 174 76 80 174 76 80 174 75 80 174 75 80 174 75 80 174 75 80 174 75 80 174 75 80 174 75 80 174 75 80 174 75 80 174 75 80 174 75 80 174 75 80 174 75 80 174 76 80 174 76 80 174 76 80 174 76 80 174 75 80 174 75 80 174 75 80 174 75 80 174 75 80 174 75 80 174 75 80 174 75 80 174 75 80 174 75 80 174 75 80 174 75 80 174 75 80 174 75 80 174 75 80 174 75 80 174 75 80 174 75 80 174 75 80 174 75 80 174 75 80 174 75 80 
174 75 80 174 75 80 174 75 80 174 75 80 174 75 80 174 75 80 174 75 80 174 75 80 174 75 80 174 75 80 174 75 80 174 75 80 174 75 80 174 75 80 174 75 80 174 75 80 174 76 80 174 76 80 174 75 80 174 75 80 174 75 80 174 75 80 174 75 80 175 75 79 175 74 79 175 74 79 175 74 79 175 74 79 175 74 79 176 74 78 175 74 79 175 74 79 175 74 79 175 74 79 175 75 79 174 75 80 174 75 80 174 75 80 174 75 80 174 75 80 174 75 80 174 75 80 174 75 80 174 75 80 175 75 79 175 75 79 175 74 79 175 74 79 175 74 79 175 74 79 175 74 79 175 74 79 175 74 79 175 74 79 175 75 79 175 75 79 175 75 79 174 75 80 174 75 80 174 75 80 174 75 80 174 75 80 174 75 80 174 75 80 174 75 80 174 75 80 174 75 80 174 75 80 174 75 80 174 75 80 174 75 80 174 75 80 174 75 80 174 75 80 174 75 80 174 75 80 174 75 80 174 75 80 174 75 80 174 75 80 175 75 79 175 75 79 175 75 79 175 75 79 175 74 79 175 74 79 175 74 79 175 74 79 175 74 79 176 74 78 176 74 78 176 73 78 176 73 78 176 73 78 176 73 78 176 73 78 176 73 78 176 73 78 176 73 78 176 74 78 176 74 78 175 74 79 175 74 79 175 75 79 174 75 80 174 75 80 174 75 80 174 75 80 174 75 80 174 76 80 174 76 80 174 76 80 174 76 80 174 75 80 174 75 80 174 75 80 174 75 80 174 75 80 175 75 79 175 74 79 175 74 79 175 74 79 175 74 79 176 74 78 176 74 78 176 74 78 176 74 78 176 74 78 175 74 79 175 74 79 175 74 79 175 75 79 174 75 80 174 75 80 174 75 80 174 75 80 174 76 80 174 76 80 174 76 80 174 76 80 174 76 80 174 75 80 174 75 80 174 75 80 174 75 80 174 75 80 174 75 80 174 75 80 174 75 80 174 75 80 174 75 80 174 75 80 174 75 80 174 75 80 174 76 80 174 76 80 174 76 80 174 76 80 174 75 80 174 75 80 174 75 80 174 75 80 174 75 80 174 75 80 174 75 80 174 75 80 174 75 80 174 75 80 174 75 80 174 75 80 174 75 80 174 75 80 174 75 80 174 75 80 174 75 80 174 75 80 174 75 80 174 75 80 174 75 80 174 75 80 174 75 80 
174 75 80 174 75 80 174 75 80 174 75 80 174 75 80 174 75 80 174 75 80 174 75 80 174 75 80 174 75 80 174 75 80 174 75 80 174 75 80 174 75 80 174 75 80 174 75 80 174 76 80 174 76 80 174 76 80 174 75 80 174 75 80 174 75 80 174 75 80 175 75 79 175 74 79 175 74 79 175 74 79 175 74 79 176 74 78 176 74 78 176 74 78 175 74 79 175 74 79 175 74 79 175 74 79 175 75 79 174 75 80 174 75 80 174 75 80 174 75 80 174 75 80 174 75 80 174 75 80 174 75 80 174 75 80 175 75 79 175 75 79 175 74 79 175 74 79 175 74 79 175 74 79 175 74 79 175 74 79 175 74 79 175 75 79 175 75 79 175 75 79 175 75 79 175 75 79 175 75 79 174 75 80 174 75 80 174 75 80 174 75 80 174 75 80 174 75 80 174 75 80 174 75 80 174 75 80 174 75 80 174 75 80 174 75 80 174 75 80 174 75 80 174 75 80 174 75 80 174 75 80 174 75 80 174 75 80 174 75 80 174 75 80 174 75 80 174 75 80 174 75 80 175 75 79 175 75 79 175 74 79 175 74 79 175 74 79 176 74 78 176 73 78 176 73 78 176 73 78 176 73 78 176 73 78 176 73 78 176 73 78 176 73 78 176 73 78 176 74 78 175 74 79 175 74 79 175 75 79 174 75 80 174 75 80 174 75 80 174 76 80 174 76 80 173 76 81 173 76 81 173 76 81 173 76 81 174 76 80 174 76 80 174 75 80 174 75 80 174 75 80 174 75 80 175 75 79 175 75 79 175 74 79 175 74 79 175 74 79 175 74 79 175 74 79 175 74 79 175 74 79 175 74 79 175 74 79 175 74 79 175 75 79 174 75 80 174 75 80 174 75 80 174 75 80 174 76 80 174 76 80 174 76 80 174 76 80 174 76 80 174 75 80 174 75 80 174 75 80 174 75 80 174 75 80 174 75 80 174 75 80 174 75 80 174 75 80 174 75 80 174 75 80 174 75 80 174 75 80 174 76 80 174 76 80 174 76 80 174 76 80 174 75 80 174 75 80 174 75 80 174 75 80 174 75 80 174 75 80 174 75 80 174 75 80 174 75 80 174 75 80 175 75 79 175 75 79 174 75 80 174 75 80 174 75 80 174 75 80 174 75 80 174 75 80 174 75 80 174 75 80 174 75 80 174 75 80 174 75 80 174 76 80 
174 75 80 174 75 80 174 75 80 174 75 80 174 75 80 174 75 80 175 75 79 175 75 79 175 75 79 174 75 80 174 75 80 174 75 80 174 75 80 174 75 80 174 75 80 174 75 80 174 76 80 174 76 80 174 76 80 174 75 80 174 75 80 174 75 80 174 75 80 175 75 79 175 74 79 175 74 79 175 74 79 175 74 79 176 74 78 176 74 78 176 74 78 175 74 79 175 74 79 175 74 79 175 74 79 175 75 79 175 75 79 174 75 80 174 75 80 174 75 80 174 75 80 174 75 80 174 75 80 174 75 80 174 75 80 175 75 79 175 75 79 175 75 79 175 75 79 175 75 79 175 75 79 175 75 79 175 75 79 175 75 79 175 75 79 175 75 79 175 75 79 175 75 79 175 75 79 175 75 79 175 75 79 175 75 79 175 75 79 175 75 79 174 75 80 174 75 80 174 75 80 174 75 80 174 75 80 174 75 80 174 76 80 174 76 80 173 76 81 173 76 81 173 76 81 173 76 81 173 76 81 173 76 81 174 76 80 174 76 80 174 76 80 174 75 80 174 75 80 174 75 80 174 75 80 174 75 80 175 75 79 175 74 79 175 74 79 176 74 78 176 74 78 176 73 78 176 73 78 176 73 78 176 73 78 176 73 78 176 73 78 176 73 78 176 74 78 175 74 79 175 74 79 175 75 79 174 75 80 174 75 80 174 75 80 174 76 80 173 76 81 173 76 81 173 76 81 173 76 81 173 76 81 173 76 81 173 76 81 174 76 80 174 75 80 174 75 80 174 75 80 174 75 80 175 75 79 175 75 79 175 74 79 175 74 79 175 74 79 175 74 79 175 74 79 175 74 79 175 74 79 175 74 79 175 75 79 175 75 79 174 75 80 174 75 80 174 75 80 174 75 80 174 76 80 174 76 80 174 76 80 174 76 80 174 76 80 174 76 80 174 75 80 174 75 80 174 75 80 174 75 80 174 75 80 174 75 80 174 75 80 174 75 80 174 75 80 174 75 80 174 75 80 174 75 80 174 76 80 174 76 80 174 76 80 174 76 80 174 75 80 174 75 80 174 75 80 174 75 80 174 75 80 174 75 80 174 75 80 174 75 80 174 75 80 175 75 79 175 75 79 175 75 79 175 75 79 175 75 79 174 75 80 174 75 80 174 75 80 174 75 80 174 75 80 174 75 80 174 75 80 174 75 80 174 75 80 174 75 80 174 76 80 
174 75 80 174 75 80 174 75 80 174 75 80 174 75 80 174 75 80 175 75 79 175 75 79 175 75 79 174 75 80 174 75 80 174 75 80 174 75 80 174 75 80 174 75 80 174 75 80 174 76 80 174 76 80 174 76 80 174 75 80 174 75 80 174 75 80 174 75 80 174 75 80 175 75 79 175 74 79 175 74 79 175 74 79 175 74 79 175 74 79 175 74 79 175 74 79 175 74 79 175 74 79 175 74 79 175 75 79 175 75 79 174 75 80 174 75 80 174 75 80 174 75 80 174 75 80 174 75 80 174 75 80 174 75 80 174 75 80 174 75 80 174 75 80 175 75 79 175 75 79 175 75 79 175 75 79 175 75 79 175 75 79 175 75 79 175 75 79 175 75 79 175 75 79 175 75 79 175 75 79 175 75 79 175 75 79 175 75 79 175 75 79 174 75 80 174 75 80 174 75 80 174 75 80 174 76 80 173 76 81 173 76 81 173 76 81 173 76 81 173 76 81 173 76 81 173 76 81 173 76 81 173 76 81 173 76 81 173 76 81 173 76 81 173 76 81 174 76 80 174 76 80 174 75 80 174 75 80 174 75 80 175 75 79 175 74 79 175 74 79 176 74 78 176 74 78 176 73 78 176 73 78 176 73 78 176 73 78 176 73 78 176 74 78 176 74 78 175 74 79 175 74 79 174 75 80 174 75 80 174 75 80 174 76 80 173 76 81 173 76 81 173 76 81 173 76 81 173 76 81 173 76 81 173 76 81 173 76 81 174 76 80 174 75 80 174 75 80 174 75 80 174 75 80 175 75 79 175 75 79 175 74 79 175 74 79 175 74 79 175 74 79 175 74 79 175 74 79 175 75 79 175 75 79 174 75 80 174 75 80 174 75 80 174 75 80 174 76 80 174 76 80 174 76 80 174 76 80 174 76 80 174 76 80 174 76 80 174 75 80 174 75 80 174 75 80 174 75 80 174 75 80 174 75 80 174 75 80 174 75 80 174 75 80 174 75 80 174 75 80 174 75 80 174 75 80 174 76 80 174 76 80 174 76 80 174 75 80 174 75 80 174 75 80 174 75 80 174 75 80 174 75 80 174 75 80 174 75 80 175 75 79 175 75 79 175 75 79 175 75 79 175 75 79 175 75 79 174 75 80 174 75 80 174 75 80 174 75 80 174 75 80 174 75 80 174 75 80 174 75 80 174 75 80 174 75 80 174 76 80 174 76 80 
174 75 80 174 75 80 174 75 80 174 75 80 174 75 80 174 75 80 175 75 79 175 75 79 175 75 79 174 75 80 174 75 80 174 75 80 174 75 80 174 75 80 174 75 80 174 75 80 174 76 80 174 76 80 174 76 80 174 76 80 174 75 80 174 75 80 174 75 80 174 75 80 175 75 79 175 74 79 175 74 79 175 74 79 175 74 79 175 74 79 175 74 79 175 74 79 175 74 79 175 74 79 175 74 79 175 74 79 175 75 79 175 75 79 174 75 80 174 75 80 174 75 80 174 75 80 174 75 80 174 75 80 174 75 80 174 75 80 174 75 80 174 75 80 174 75 80 174 75 80 174 75 80 174 75 80 174 75 80 174 75 80 174 75 80 175 75 79 175 75 79 175 75 79 175 75 79 175 75 79 175 75 79 175 75 79 175 75 79 174 75 80 174 75 80 174 75 80 174 75 80 174 76 80 173 76 81 173 76 81 173 76 81 173 76 81 173 76 81 173 76 81 173 76 81 173 76 81 173 76 81 173 76 81 173 76 81 173 76 81 173 76 81 173 76 81 173 76 81 174 76 80 174 76 80 174 75 80 174 75 80 174 75 80 175 75 79 175 74 79 175 74 79 176 74 78 176 74 78 176 74 78 176 73 78 176 74 78 176 74 78 175 74 79 175 74 79 175 74 79 175 75 79 174 75 80 174 75 80 174 76 80 173 76 81 173 76 81 173 76 81 173 76 81 173 76 81 173 76 81 173 76 81 173 76 81 174 76 80 174 76 80 174 75 80 174 75 80 174 75 80 174 75 80 175 75 79 175 75 79 175 74 79 175 74 79 175 74 79 175 74 79 175 75 79 175 75 79 175 75 79 174 75 80 174 75 80 174 75 80 174 75 80 174 76 80 174 76 80 174 76 80 174 76 80 174 76 80 174 76 80 174 76 80 174 75 80 174 75 80 174 75 80 174 75 80 174 75 80 174 75 80 174 75 80 174 75 80 174 75 80 174 75 80 174 75 80 174 75 80 174 75 80 174 75 80 174 76 80 174 76 80 174 76 80 174 75 80 174 75 80 174 75 80 174 75 80 174 75 80 174 75 80 174 75 80 175 75 79 175 75 79 175 75 79 175 75 79 175 75 79 175 75 79 175 75 79 174 75 80 174 75 80 174 75 80 174 75 80 174 75 80 174 75 80 174 75 80 174 75 80 174 75 80 174 76 80 174 76 80 174 76 80 
174 75 80 174 75 80 174 75 80 174 75 80 174 75 80 174 75 80 174 75 80 175 75 79 174 75 80 174 75 80 174 75 80 174 75 80 174 75 80 174 75 80 174 75 80 174 75 80 174 76 80 174 76 80 174 76 80 174 76 80 174 75 80 174 75 80 174 75 80 174 75 80 174 75 80 175 75 79 175 74 79 175 74 79 175 74 79 175 74 79 175 74 79 175 74 79 175 74 79 175 74 79 175 74 79 175 75 79 175 75 79 175 75 79 174 75 80 174 75 80 174 75 80 174 75 80 174 75 80 174 75 80 174 75 80 174 75 80 174 75 80 174 75 80 174 75 80 174 75 80 174 75 80 174 75 80 174 75 80 174 75 80 174 75 80 174 75 80 175 75 79 175 75 79 175 75 79 175 75 79 175 75 79 175 75 79 174 75 80 174 75 80 174 75 80 174 75 80 174 76 80 173 76 81 173 76 81 173 76 81 173 76 81 173 76 81 173 76 81 173 76 81 173 76 81 173 76 81 173 76 81 173 76 81 173 76 81 173 76 81 173 76 81 173 76 81 173 76 81 173 76 81 173 76 81 174 76 80 174 75 80 174 75 80 174 75 80 175 75 79 175 74 79 175 74 79 175 74 79 175 74 79 175 74 79 175 74 79 175 74 79 175 74 79 175 74 79 175 75 79 174 75 80 174 75 80 174 76 80 173 76 81 173 76 81 173 76 81 173 76 81 173 76 81 173 76 81 173 76 81 173 76 81 173 76 81 174 76 80 174 75 80 174 75 80 174 75 80 174 75 80 175 75 79 175 75 79 175 75 79 175 74 79 175 74 79 175 74 79 175 75 79 175 75 79 175 75 79 174 75 80 174 75 80 174 75 80 174 75 80 174 76 80 174 76 80 174 76 80 173 76 81 174 76 80 174 76 80 174 76 80 174 75 80 174 75 80 174 75 80 174 75 80 174 75 80 174 75 80 174 75 80 174 75 80 174 75 80 174 75 80 174 75 80 174 75 80 174 75 80 174 75 80 174 75 80 174 76 80 174 76 80 174 76 80 174 75 80 174 75 80 174 75 80 174 75 80 174 75 80 174 75 80 174 75 80 175 75 79 175 75 79 175 75 79 175 75 79 175 75 79 175 75 79 174 75 80 174 75 80 174 75 80 174 75 80 174 75 80 174 75 80 174 75 80 174 75 80 174 75 80 174 76 80 174 76 80 174 76 80 174 76 80 
174 75 80 174 75 80 174 75 80 174 75 80 174 75 80 174 75 80 174 75 80 174 75 80 174 75 80 174 75 80 174 75 80 174 75 80 174 75 80 174 75 80 174 75 80 174 75 80 174 76 80 174 76 80 174 76 80 174 76 80 174 75 80 174 75 80 174 75 80 174 75 80 174 75 80 174 75 80 175 75 79 175 75 79 175 74 79 175 74 79 175 74 79 175 74 79 175 74 79 175 74 79 175 75 79 175 75 79 175 75 79 175 75 79 174 75 80 174 75 80 174 75 80 174 75 80 174 75 80 174 75 80 174 75 80 174 75 80 174 75 80 174 75 80 174 75 80 174 75 80 174 75 80 174 75 80 174 75 80 174 75 80 174 75 80 174 75 80 174 75 80 175 75 79 175 75 79 175 75 79 175 75 79 174 75 80 174 75 80 174 75 80 174 75 80 174 76 80 173 76 81 173 76 81 173 76 81 173 76 81 173 77 81 173 77 81 173 76 81 173 76 81 173 76 81 173 76 81 173 76 81 173 76 81 173 76 81 173 76 81 173 76 81 173 76 81 173 76 81 173 76 81 173 76 81 173 76 81 174 76 80 174 76 80 174 75 80 174 75 80 174 75 80 175 75 79 175 74 79 175 74 79 175 74 79 175 74 79 175 74 79 175 75 79 175 75 79 174 75 80 174 75 80 174 76 80 174 76 80 173 76 81 173 76 81 173 76 81 173 76 81 173 76 81 173 76 81 173 76 81 173 76 81 174 76 80 174 75 80 174 75 80 174 75 80 174 75 80 175 75 79 175 75 79 175 75 79 175 74 79 175 74 79 175 74 79 175 75 79 175 75 79 175 75 79 174 75 80 174 75 80 174 75 80 174 75 80 174 76 80 174 76 80 174 76 80 173 76 81 173 76 81 174 76 80 174 76 80 174 75 80 174 75 80 174 75 80 174 75 80 174 75 80 174 75 80 174 75 80 174 75 80 174 75 80 174 75 80 174 75 80 174 75 80 174 75 80 174 75 80 174 75 80 174 76 80 174 76 80 174 76 80 174 75 80 174 75 80 174 75 80 174 75 80 174 75 80 174 75 80 174 75 80 174 75 80 175 75 79 175 75 79 175 75 79 175 75 79 174 75 80 174 75 80 174 75 80 174 75 80 174 75 80 174 75 80 174 75 80 174 75 80 174 75 80 174 75 80 174 76 80 174 76 80 174 76 80 174 76 80 174 75 80 
174 75 80 174 75 80 174 75 80 174 75 80 174 75 80 174 75 80 174 75 80 174 75 80 174 75 80 174 75 80 174 75 80 174 75 80 174 75 80 174 75 80 174 75 80 174 76 80 174 76 80 174 76 80 174 76 80 174 76 80 174 76 80 174 75 80 174 75 80 174 75 80 174 75 80 174 75 80 174 75 80 175 75 79 175 75 79 175 75 79 175 75 79 175 75 79 175 75 79 175 75 79 175 75 79 175 75 79 175 75 79 175 75 79 174 75 80 174 75 80 174 75 80 174 75 80 174 75 80 174 75 80 174 75 80 174 75 80 174 75 80 174 76 80 174 76 80 174 76 80 174 76 80 174 76 80 174 75 80 174 75 80 174 75 80 174 75 80 174 75 80 174 75 80 174 75 80 174 75 80 174 75 80 174 75 80 174 75 80 174 75 80 174 76 80 173 76 81 173 76 81 173 76 81 173 76 81 173 77 81 173 77 81 173 76 81 173 76 81 173 76 81 173 76 81 173 76 81 174 76 80 174 76 80 174 76 80 174 76 80 174 76 80 174 76 80 174 76 80 173 76 81 173 76 81 173 76 81 173 76 81 173 76 81 174 76 80 174 75 80 174 75 80 174 75 80 174 75 80 175 75 79 175 75 79 175 75 79 175 75 79 174 75 80 174 75 80 174 75 80 174 75 80 174 76 80 173 76 81 173 76 81 173 76 81 173 76 81 173 76 81 173 76 81 173 76 81 173 76 81 174 76 80 174 75 80 174 75 80 174 75 80 174 75 80 175 75 79 175 75 79 175 75 79 175 74 79 175 74 79 175 74 79 175 74 79 175 75 79 175 75 79 175 75 79 174 75 80 174 75 80 174 75 80 174 75 80 174 76 80 174 76 80 174 76 80 174 76 80 174 76 80 174 76 80 174 76 80 174 75 80 174 75 80 174 75 80 174 75 80 174 75 80 174 75 80 174 75 80 174 75 80 174 75 80 174 75 80 174 75 80 174 75 80 174 75 80 174 75 80 174 75 80 174 76 80 174 76 80 174 76 80 174 75 80 174 75 80 174 75 80 174 75 80 174 75 80 174 75 80 174 75 80 174 75 80 174 75 80 174 75 80 174 75 80 174 75 80 174 75 80 174 75 80 174 75 80 174 75 80 174 75 80 174 75 80 174 75 80 174 75 80 174 76 80 174 76 80 174 76 80 174 76 80 174 76 80 174 76 80 174 75 80 
174 75 80 174 75 80 174 75 80 174 75 80 174 75 80 174 75 80 174 75 80 174 75 80 174 75 80 174 75 80 174 75 80 174 75 80 174 75 80 174 75 80 174 75 80 174 76 80 174 76 80 174 76 80 174 76 80 174 76 80 174 76 80 174 75 80 174 75 80 174 75 80 174 75 80 174 75 80 174 75 80 174 75 80 174 75 80 174 75 80 174 75 80 174 75 80 174 75 80 174 75 80 174 75 80 174 75 80 174 75 80 174 75 80 174 75 80 174 75 80 174 75 80 174 75 80 174 75 80 174 75 80 174 75 80 174 75 80 174 75 80 174 76 80 174 76 80 174 76 80 174 76 80 174 76 80 174 76 80 174 75 80 174 75 80 174 75 80 174 75 80 174 75 80 174 75 80 174 75 80 174 75 80 174 75 80 174 75 80 174 76 80 173 76 81 173 76 81 173 76 81 173 76 81 173 77 81 173 77 81 173 76 81 173 76 81 173 76 81 173 76 81 174 76 80 174 75 80 174 75 80 174 75 80 174 75 80 174 75 80 174 75 80 174 75 80 174 75 80 174 76 80 173 76 81 173 76 81 173 76 81 173 76 81 173 76 81 173 76 81 174 76 80 174 75 80 174 75 80 174 75 80 174 75 80 174 75 80 174 75 80 174 75 80 174 75 80 174 75 80 174 75 80 174 76 80 173 76 81 173 76 81 173 76 81 173 76 81 173 76 81 173 76 81 173 76 81 174 76 80 174 75 80 174 75 80 174 75 80 174 75 80 175 75 79 175 75 79 175 74 79 175 74 79 175 74 79 175 74 79 175 74 79 175 74 79 175 74 79 175 75 79 175 75 79 174 75 80 174 75 80 174 75 80 174 75 80 174 75 80 174 76 80 174 76 80 174 76 80 174 76 80 174 76 80 174 75 80 174 75 80 174 75 80 174 75 80 174 75 80 174 75 80 175 75 79 175 75 79 174 75 80 174 75 80 174 75 80 174 75 80 174 75 80 174 75 80 174 75 80 174 75 80 174 76 80 174 76 80 174 76 80 174 75 80 174 75 80 174 75 80 174 75 80 174 75 80 174 75 80 174 75 80 174 75 80 174 75 80 174 75 80 174 75 80 174 75 80 174 75 80 174 75 80 174 75 80 174 75 80 174 75 80 174 75 80 174 75 80 174 76 80 174 76 80 174 76 80 174 76 80 174 76 80 174 76 80 174 75 80 174 75 80 
174 75 80 174 75 80 174 75 80 174 75 80 174 75 80 174 75 80 174 75 80 174 75 80 174 75 80 174 75 80 174 75 80 174 75 80 174 75 80 174 75 80 174 75 80 174 76 80 174 76 80 174 76 80 174 76 80 174 76 80 174 76 80 174 75 80 174 75 80 174 75 80 174 75 80 174 75 80 174 75 80 174 75 80 174 75 80 174 75 80 174 75 80 174 75 80 174 75 80 174 75 80 174 75 80 174 75 80 174 75 80 174 75 80 174 75 80 174 75 80 174 75 80 174 75 80 174 75 80 174 75 80 174 75 80 174 75 80 174 76 80 174 76 80 174 76 80 174 76 80 174 76 80 174 76 80 174 76 80 174 76 80 174 75 80 174 75 80 174 75 80 174 75 80 174 75 80 174 75 80 174 75 80 174 75 80 174 76 80 173 76 81 173 76 81 173 76 81 173 76 81 173 77 81 173 77 81 173 76 81 173 76 81 173 76 81 173 76 81 174 75 80 174 75 80 174 75 80 175 75 79 175 75 79 175 75 79 175 75 79 174 75 80 174 75 80 174 75 80 174 75 80 174 76 80 173 76 81 173 76 81 173 76 81 173 76 81 173 76 81 173 76 81 174 76 80 174 75 80 174 75 80 174 75 80 174 75 80 174 75 80 174 75 80 174 75 80 174 75 80 174 75 80 174 76 80 174 76 80 174 76 80 173 76 81 173 76 81 173 76 81 174 76 80 174 76 80 174 75 80 174 75 80 174 75 80 174 75 80 175 75 79 175 75 79 175 74 79 175 74 79 175 74 79 175 74 79 175 74 79 175 74 79 175 74 79 175 74 79 175 75 79 175 75 79 174 75 80 174 75 80 174 75 80 174 75 80 174 75 80 174 75 80 174 76 80 174 76 80 174 75 80 174 75 80 174 75 80 174 75 80 174 75 80 174 75 80 174 75 80 174 75 80 175 75 79 175 75 79 174 75 80 174 75 80 174 75 80 174 75 80 174 75 80 174 75 80 174 75 80 174 75 80 174 76 80 174 76 80 174 76 80 174 75 80 174 75 80 174 75 80 174 75 80 174 75 80 174 75 80 174 75 80 174 75 80 174 75 80 174 75 80 174 75 80 174 75 80 174 75 80 174 75 80 174 75 80 174 75 80 174 75 80 174 75 80 174 76 80 174 76 80 174 76 80 174 76 80 174 76 80 174 76 80 174 76 80 174 75 80 174 75 80 
174 75 80 174 75 80 174 75 80 174 75 80 174 75 80 174 75 80 174 75 80 174 75 80 174 75 80 174 75 80 174 75 80 174 75 80 174 75 80 174 75 80 174 75 80 174 76 80 174 76 80 174 76 80 174 76 80 174 76 80 174 76 80 174 75 80 174 75 80 174 75 80 174 75 80 174 75 80 174 75 80 174 75 80 174 75 80 174 75 80 174 75 80 174 75 80 174 75 80 174 75 80 174 75 80 174 75 80 174 75 80 174 75 80 174 75 80 174 75 80 174 75 80 174 75 80 174 75 80 174 75 80 174 75 80 174 75 80 174 76 80 174 76 80 174 76 80 174 76 80 174 76 80 174 76 80 174 76 80 174 76 80 174 75 80 174 75 80 174 75 80 174 75 80 174 75 80 174 75 80 174 75 80 174 76 80 173 76 81 173 76 81 173 76 81 173 76 81 173 76 81 173 76 81 173 76 81 173 76 81 173 76 81 174 76 80 174 75 80 174 75 80 175 75 79 175 74 79 175 74 79 175 74 79 175 74 79 175 74 79 175 74 79 175 75 79 174 75 80 174 75 80 174 76 80 173 76 81 173 76 81 173 76 81 173 76 81 173 76 81 173 76 81 173 76 81 174 76 80 174 75 80 174 75 80 174 75 80 174 75 80 174 75 80 174 75 80 174 75 80 174 75 80 174 75 80 174 76 80 174 76 80 174 76 80 174 76 80 174 76 80 174 75 80 174 75 80 174 75 80 174 75 80 174 75 80 174 75 80 175 75 79 175 75 79 175 74 79 175 74 79 175 74 79 175 74 79 175 74 79 175 74 79 175 74 79 175 74 79 175 75 79 175 75 79 175 75 79 174 75 80 174 75 80 174 75 80 174 75 80 174 75 80 174 75 80 174 75 80 174 75 80 174 75 80 174 75 80 174 75 80 174 75 80 174 75 80 174 75 80 175 75 79 175 75 79 174 75 80 174 75 80 174 75 80 174 75 80 174 75 80 174 75 80 174 75 80 174 75 80 174 75 80 174 76 80 174 76 80 174 75 80 174 75 80 174 75 80 174 75 80 174 75 80 174 75 80 174 75 80 174 75 80 174 75 80 174 75 80 174 75 80 174 75 80 174 75 80 174 75 80 174 75 80 174 75 80 174 75 80 174 75 80 174 76 80 174 76 80 174 76 80 174 76 80 174 76 80 174 76 80 174 76 80 174 75 80 174 75 80 174 75 80 
174 75 80 174 75 80 174 75 80 174 75 80 174 75 80 174 75 80 174 75 80 174 75 80 174 75 80 174 75 80 174 75 80 174 75 80 174 75 80 174 75 80 174 75 80 174 76 80 174 76 80 174 76 80 174 76 80 174 76 80 174 75 80 174 75 80 174 75 80 174 75 80 174 75 80 174 75 80 174 75 80 174 75 80 174 75 80 174 75 80 174 75 80 174 75 80 174 75 80 174 75 80 174 75 80 174 75 80 174 75 80 174 75 80 174 75 80 174 75 80 174 75 80 174 75 80 174 75 80 174 75 80 174 75 80 174 75 80 174 75 80 174 76 80 174 76 80 174 76 80 174 76 80 174 76 80 174 76 80 174 75 80 174 75 80 174 75 80 174 75 80 174 75 80 174 75 80 174 75 80 174 76 80 173 76 81 173 76 81 173 76 81 173 76 81 173 76 81 173 76 81 173 76 81 173 76 81 173 76 81 174 76 80 174 75 80 174 75 80 175 75 79 175 74 79 175 74 79 176 74 78 176 74 78 176 74 78 175 74 79 175 74 79 175 74 79 175 75 79 174 75 80 174 75 80 174 76 80 173 76 81 173 76 81 173 76 81 173 76 81 173 76 81 174 76 80 174 76 80 174 75 80 174 75 80 174 75 80 174 75 80 174 75 80 174 75 80 174 75 80 174 75 80 174 75 80 174 75 80 174 75 80 174 75 80 174 75 80 174 75 80 174 75 80 174 75 80 174 75 80 174 75 80 174 75 80 175 75 79 175 75 79 175 74 79 175 74 79 175 74 79 175 74 79 175 74 79 175 74 79 175 74 79 175 74 79 175 74 79 175 74 79 175 75 79 175 75 79 174 75 80 174 75 80 174 75 80 174 75 80 174 75 80 174 75 80 174 75 80 174 75 80 174 75 80 174 75 80 174 75 80 174 75 80 174 75 80 174 75 80 174 75 80 174 75 80 174 75 80 174 75 80 174 75 80 174 75 80 174 75 80 174 75 80 174 75 80 174 75 80 174 75 80 174 76 80 174 76 80 174 75 80 174 75 80 174 75 80 174 75 80 174 75 80 174 75 80 174 75 80 174 75 80 174 75 80 174 75 80 174 75 80 174 75 80 174 75 80 174 75 80 174 75 80 174 75 80 174 76 80 174 76 80 174 76 80 174 76 80 174 76 80 174 76 80 174 76 80 174 76 80 174 75 80 174 75 80 174 75 80 174 75 80 
174 75 80 174 75 80 174 75 80 174 75 80 174 75 80 174 75 80 174 75 80 174 75 80 174 75 80 174 75 80 174 75 80 174 75 80 174 75 80 174 75 80 174 75 80 174 75 80 174 75 80 174 75 80 174 75 80 174 75 80 174 75 80 174 75 80 174 75 80 174 75 80 174 75 80 174 75 80 174 75 80 174 75 80 174 76 80 174 76 80 174 76 80 174 76 80 174 75 80 174 75 80 174 75 80 174 75 80 174 75 80 174 75 80 174 75 80 174 75 80 174 75 80 174 75 80 174 75 80 174 75 80 174 75 80 174 75 80 174 75 80 174 75 80 174 76 80 174 76 80 174 76 80 174 76 80 174 75 80 174 75 80 174 75 80 174 75 80 174 75 80 174 75 80 174 75 80 174 76 80 174 76 80 173 76 81 173 76 81 173 76 81 173 76 81 173 76 81 173 76 81 173 76 81 173 76 81 174 76 80 174 75 80 174 75 80 175 75 79 175 74 79 176 74 78 176 74 78 176 73 78 176 73 78 176 73 78 176 74 78 175 74 79 175 74 79 175 75 79 174 75 80 174 75 80 174 75 80 174 76 80 173 76 81 173 76 81 173 76 81 174 76 80 174 76 80 174 75 80 174 75 80 174 75 80 174 75 80 174 75 80 174 75 80 174 75 80 174 75 80 174 75 80 174 75 80 174 75 80 174 75 80 174 75 80 174 75 80 174 75 80 174 75 80 174 75 80 174 75 80 174 75 80 175 75 79 175 75 79 175 75 79 175 74 79 175 74 79 175 74 79 175 74 79 175 74 79 175 74 79 175 74 79 175 74 79 175 74 79 175 74 79 175 75 79 175 75 79 174 75 80 174 75 80 174 75 80 174 75 80 174 75 80 174 75 80 174 75 80 174 75 80 174 75 80 174 75 80 174 75 80 174 75 80 174 75 80 174 75 80 174 75 80 174 75 80 174 75 80 174 75 80 174 75 80 174 75 80 174 75 80 174 75 80 174 75 80 174 75 80 174 75 80 174 76 80 174 76 80 174 75 80 174 75 80 174 75 80 174 75 80 174 75 80 174 75 80 174 75 80 174 75 80 174 75 80 174 75 80 174 75 80 174 75 80 174 75 80 174 75 80 174 76 80 174 76 80 174 76 80 174 76 80 174 76 80 174 76 80 174 76 80 174 76 80 174 75 80 174 75 80 174 75 80 174 75 80 174 75 80 174 75 80 
174 75 80 174 75 80 174 75 80 174 75 80 174 75 80 174 75 80 174 75 80 174 75 80 174 75 80 174 75 80 174 75 80 174 75 80 174 75 80 174 75 80 174 75 80 174 75 80 174 75 80 174 75 80 174 75 80 174 75 80 174 75 80 174 75 80 174 75 80 174 75 80 174 75 80 174 75 80 174 75 80 174 76 80 174 76 80 174 76 80 174 76 80 174 76 80 174 76 80 174 76 80 174 75 80 174 75 80 174 75 80 174 75 80 174 75 80 174 75 80 174 75 80 174 75 80 174 75 80 174 75 80 174 75 80 174 75 80 174 75 80 174 75 80 174 75 80 174 75 80 174 75 80 174 75 80 174 75 80 174 75 80 174 75 80 174 75 80 174 75 80 174 75 80 174 76 80 174 76 80 173 76 81 173 76 81 173 76 81 173 76 81 173 76 81 173 76 81 173 76 81 173 76 81 174 76 80 174 75 80 174 75 80 175 75 79 175 74 79 176 74 78 176 74 78 176 73 78 176 73 78 176 73 78 176 73 78 176 74 78 176 74 78 175 74 79 175 74 79 175 75 79 174 75 80 174 75 80 174 75 80 174 76 80 174 76 80 174 76 80 174 75 80 174 75 80 174 75 80 174 75 80 174 75 80 174 75 80 174 75 80 174 75 80 174 75 80 174 75 80 174 75 80 174 75 80 174 75 80 174 75 80 174 75 80 174 75 80 174 75 80 174 75 80 174 75 80 174 75 80 174 75 80 175 75 79 175 75 79 175 75 79 175 75 79 175 74 79 175 74 79 175 74 79 175 74 79 175 74 79 175 74 79 175 74 79 175 74 79 175 75 79 175 75 79 175 75 79 174 75 80 174 75 80 174 75 80 174 75 80 174 75 80 174 75 80 174 75 80 174 75 80 174 75 80 174 75 80 174 75 80 174 75 80 174 75 80 174 75 80 174 75 80 174 75 80 174 75 80 174 75 80 174 75 80 174 75 80 174 75 80 174 75 80 174 75 80 174 75 80 174 75 80 174 76 80 174 75 80 174 75 80 174 75 80 174 75 80 174 75 80 174 75 80 174 75 80 174 75 80 174 75 80 174 75 80 174 75 80 174 75 80 174 75 80 174 75 80 174 76 80 174 76 80 174 76 80 174 76 80 174 76 80 174 76 80 174 76 80 174 76 80 174 75 80 174 75 80 174 75 80 174 75 80 174 75 80 174 75 80 174 75 80 
174 75 80 174 75 80 174 75 80 174 75 80 174 75 80 174 75 80 174 75 80 174 75 80 174 75 80 174 75 80 174 75 80 174 75 80 174 75 80 174 75 80 174 75 80 174 75 80 174 75 80 174 75 80 174 75 80 174 75 80 174 75 80 174 75 80 174 75 80 174 75 80 174 75 80 174 75 80 174 75 80 174 75 80 174 76 80 174 76 80 174 76 80 174 76 80 174 76 80 174 76 80 174 76 80 174 76 80 174 75 80 174 75 80 174 75 80 174 75 80 174 75 80 174 75 80 174 75 80 174 75 80 174 75 80 174 75 80 174 75 80 174 75 80 174 75 80 174 75 80 174 75 80 174 75 80 174 75 80 174 75 80 174 75 80 174 75 80 174 75 80 174 75 80 174 76 80 174 76 80 173 76 81 173 76 81 173 76 81 173 76 81 173 76 81 173 76 81 173 76 81 174 76 80 174 75 80 174 75 80 175 75 79 175 74 79 175 74 79 176 74 78 176 73 78 176 73 78 176 73 78 176 73 78 176 73 78 176 74 78 176 74 78 175 74 79 175 74 79 175 75 79 174 75 80 174 75 80 174 75 80 174 75 80 174 75 80 174 75 80 174 75 80 174 75 80 174 75 80 175 75 79 175 75 79 175 75 79 175 75 79 175 75 79 175 75 79 174 75 80 174 75 80 174 75 80 174 75 80 174 75 80 174 75 80 174 75 80 174 75 80 174 75 80 174 75 80 174 75 80 174 75 80 174 75 80 175 75 79 175 75 79 175 75 79 175 75 79 175 75 79 175 74 79 175 74 79 175 74 79 175 74 79 175 74 79 175 75 79 175 75 79 175 75 79 175 75 79 174 75 80 174 75 80 174 75 80 174 75 80 174 75 80 174 75 80 174 75 80 174 75 80 174 75 80 174 75 80 174 75 80 174 75 80 174 75 80 174 75 80 174 75 80 174 75 80 174 75 80 174 75 80 174 75 80 174 75 80 174 75 80 174 75 80 174 75 80 174 75 80 174 75 80 174 75 80 174 75 80 174 75 80 174 75 80 174 75 80 174 75 80 174 75 80 174 75 80 174 75 80 174 75 80 174 75 80 174 75 80 174 75 80 174 76 80 174 76 80 174 76 80 174 76 80 174 76 80 174 76 80 174 76 80 174 76 80 174 75 80 174 75 80 174 75 80 174 75 80 174 75 80 174 75 80 174 75 80 174 75 80 174 75 80 
174 75 80 174 75 80 174 75 80 174 75 80 174 75 80 174 75 80 174 75 80 174 75 80 174 75 80 174 75 80 174 75 80 174 75 80 174 75 80 174 75 80 174 75 80 174 75 80 174 75 80 174 75 80 174 75 80 174 75 80 174 75 80 174 75 80 174 75 80 174 75 80 174 75 80 174 75 80 174 75 80 174 75 80 174 75 80 174 75 80 174 76 80 174 76 80 174 76 80 174 76 80 174 76 80 174 76 80 174 76 80 174 76 80 174 75 80 174 75 80 174 75 80 174 75 80 174 75 80 174 75 80 174 75 80 174 75 80 174 75 80 174 75 80 174 75 80 174 75 80 174 75 80 174 75 80 174 75 80 174 75 80 174 75 80 174 75 80 174 75 80 174 75 80 174 76 80 174 76 80 173 76 81 173 76 81 173 76 81 173 76 81 173 76 81 174 76 80 174 76 80 174 75 80 174 75 80 175 75 79 175 74 79 175 74 79 176 74 78 176 74 78 176 73 78 176 73 78 176 73 78 176 73 78 176 73 78 176 74 78 175 74 79 175 74 79 175 74 79 175 75 79 174 75 80 174 75 80 174 75 80 174 75 80 174 75 80 174 75 80 174 75 80 175 75 79 175 75 79 175 74 79 175 74 79 175 74 79 175 74 79 175 75 79 175 75 79 175 75 79 174 75 80 174 75 80 174 75 80 174 75 80 174 75 80 174 75 80 174 75 80 174 75 80 174 75 80 174 75 80 174 75 80 174 75 80 174 75 80 174 75 80 175 75 79 175 75 79 175 75 79 175 75 79 175 75 79 175 75 79 175 75 79 175 75 79 175 75 79 175 75 79 175 75 79 174 75 80 174 75 80 174 75 80 174 75 80 174 75 80 174 75 80 174 75 80 174 75 80 174 75 80 174 75 80 174 75 80 174 75 80 174 75 80 174 75 80 174 75 80 174 75 80 174 75 80 174 75 80 174 75 80 174 75 80 174 75 80 174 75 80 174 75 80 174 75 80 174 75 80 174 75 80 174 75 80 174 75 80 174 75 80 174 75 80 174 75 80 174 75 80 174 75 80 174 75 80 174 75 80 174 75 80 174 75 80 174 76 80 174 76 80 174 76 80 174 76 80 174 76 80 174 76 80 174 76 80 174 76 80 174 75 80 174 75 80 174 75 80 174 75 80 174 75 80 174 75 80 174 75 80 174 75 80 174 75 80 174 75 80 174 75 80 
174 75 80 174 75 80 174 75 80 174 75 80 174 75 80 174 75 80 174 75 80 174 75 80 174 75 80 174 75 80 174 75 80 174 75 80 174 75 80 174 75 80 174 75 80 174 75 80 174 75 80 174 75 80 174 75 80 174 75 80 174 75 80 174 75 80 174 75 80 174 75 80 174 75 80 174 75 80 174 75 80 174 75 80 174 75 80 174 75 80 174 75 80 174 75 80 174 76 80 174 76 80 174 76 80 174 76 80 174 76 80 174 76 80 174 76 80 174 75 80 174 75 80 174 75 80 174 75 80 174 75 80 174 75 80 174 75 80 174 75 80 174 75 80 174 75 80 174 75 80 174 75 80 174 75 80 174 75 80 174 75 80 174 75 80 174 75 80 174 75 80 174 75 80 174 76 80 174 76 80 174 76 80 174 76 80 174 76 80 174 76 80 174 76 80 174 75 80 174 75 80 174 75 80 174 75 80 175 75 79 175 74 79 175 74 79 176 74 78 176 74 78 176 74 78 176 73 78 176 74 78 176 74 78 176 74 78 175 74 79 175 74 79 175 74 79 175 75 79 175 75 79 174 75 80 174 75 80 174 75 80 174 75 80 175 75 79 175 75 79 175 74 79 175 74 79 175 74 79 175 74 79 175 74 79 175 74 79 175 74 79 175 74 79 175 75 79 175 75 79 174 75 80 174 75 80 174 75 80 174 75 80 174 75 80 174 75 80 174 75 80 174 75 80 174 75 80 174 75 80 174 75 80 174 75 80 174 75 80 174 75 80 174 75 80 174 75 80 174 75 80 174 75 80 175 75 79 175 75 79 175 75 79 175 75 79 174 75 80 174 75 80 174 75 80 174 75 80 174 75 80 174 75 80 174 75 80 174 75 80 174 75 80 174 75 80 174 75 80 174 75 80 174 75 80 174 75 80 174 75 80 174 75 80 174 75 80 174 75 80 174 75 80 174 75 80 174 75 80 174 75 80 174 75 80 174 75 80 174 75 80 174 75 80 174 75 80 174 75 80 174 75 80 174 75 80 174 75 80 174 75 80 174 75 80 174 75 80 174 75 80 174 75 80 174 75 80 174 75 80 174 75 80 174 76 80 174 76 80 174 76 80 174 76 80 174 76 80 174 76 80 174 76 80 174 76 80 174 75 80 174 75 80 174 75 80 174 75 80 174 75 80 174 75 80 174 75 80 174 75 80 174 75 80 174 75 80 174 75 80 174 75 80 
174 75 80 174 75 80 174 75 80 174 75 80 174 75 80 174 75 80 174 75 80 174 75 80 174 75 80 174 75 80 174 75 80 174 75 80 174 75 80 174 75 80 174 75 80 174 75 80 174 75 80 174 75 80 174 75 80 174 75 80 174 75 80 174 75 80 174 75 80 174 75 80 174 75 80 174 75 80 174 75 80 174 75 80 174 75 80 174 75 80 174 75 80 174 75 80 174 75 80 174 75 80 174 76 80 174 76 80 174 76 80 174 76 80 174 76 80 174 76 80 174 75 80 174 75 80 174 75 80 174 75 80 174 75 80 174 75 80 174 75 80 174 75 80 174 75 80 174 75 80 174 75 80 174 75 80 174 75 80 174 75 80 174 75 80 174 75 80 174 75 80 174 75 80 174 76 80 174 76 80 174 76 80 174 76 80 174 76 80 174 75 80 174 75 80 174 75 80 174 75 80 174 75 80 175 75 79 175 74 79 175 74 79 175 74 79 175 74 79 176 74 78 176 74 78 176 74 78 175 74 79 175 74 79 175 74 79 175 74 79 175 74 79 175 75 79 175 75 79 174 75 80 174 75 80 174 75 80 175 75 79 175 75 79 175 74 79 175 74 79 175 74 79 175 74 79 175 74 79 175 74 79 175 74 79 175 74 79 175 74 79 175 74 79 175 74 79 175 75 79 174 75 80 174 75 80 174 75 80 174 75 80 174 75 80 174 75 80 174 75 80 174 75 80 174 75 80 174 75 80 174 75 80 174 75 80 174 75 80 174 75 80 174 75 80 174 75 80 174 75 80 174 75 80 174 75 80 174 75 80 174 75 80 174 75 80 174 75 80 174 75 80 174 75 80 174 75 80 174 75 80 174 75 80 174 75 80 174 75 80 174 75 80 174 75 80 174 75 80 174 75 80 174 75 80 174 75 80 174 75 80 174 75 80 174 75 80 174 75 80 174 75 80 174 75 80 174 75 80 174 75 80 174 75 80 174 75 80 174 75 80 174 75 80 174 75 80 174 75 80 174 75 80 174 75 80 174 75 80 174 75 80 174 75 80 174 75 80 174 75 80 174 75 80 174 75 80 174 75 80 174 76 80 174 76 80 174 76 80 174 76 80 174 76 80 174 76 80 174 76 80 174 75 80 174 75 80 174 75 80 174 75 80 174 75 80 174 75 80 174 75 80 174 75 80 174 75 80 174 75 80 174 75 80 174 75 80 174 75 80 174 75 80 
174 75 80 174 75 80 174 75 80 174 75 80 174 75 80 174 75 80 174 75 80 174 75 80 174 75 80 174 75 80 174 75 80 174 75 80 174 75 80 174 75 80 174 75 80 174 75 80 174 75 80 174 75 80 174 75 80 174 75 80 174 75 80 174 75 80 174 75 80 174 75 80 174 75 80 174 75 80 174 75 80 174 75 80 174 75 80 174 75 80 174 75 80 174 75 80 174 75 80 174 75 80 174 75 80 174 75 80 174 76 80 174 76 80 174 76 80 174 76 80 174 76 80 174 75 80 174 75 80 174 75 80 174 75 80 174 75 80 174 75 80 174 75 80 174 75 80 174 75 80 174 75 80 174 75 80 174 75 80 174 75 80 174 75 80 174 75 80 174 75 80 174 75 80 174 75 80 174 75 80 174 75 80 174 75 80 174 75 80 174 75 80 174 75 80 174 75 80 174 75 80 175 75 79 175 75 79 175 74 79 175 74 79 175 74 79 175 74 79 175 74 79 175 74 79 175 74 79 175 74 79 175 74 79 175 75 79 175 75 79 174 75 80 174 75 80 174 75 80 174 75 80 174 75 80 174 75 80 175 75 79 175 74 79 175 74 79 175 74 79 175 74 79 175 74 79 176 74 78 176 74 78 175 74 79 175 74 79 175 74 79 175 74 79 175 75 79 175 75 79 174 75 80 174 75 80 174 75 80 174 75 80 174 75 80 174 75 80 174 75 80 174 75 80 174 75 80 174 75 80 174 75 80 174 75 80 174 75 80 174 75 80 174 75 80 174 75 80 174 75 80 174 75 80 174 75 80 174 75 80 174 75 80 174 75 80 174 75 80 174 75 80 174 75 80 174 75 80 174 75 80 174 75 80 174 75 80 174 75 80 174 75 80 174 75 80 174 75 80 174 75 80 174 75 80 174 75 80 174 75 80 174 75 80 174 75 80 174 75 80 174 75 80 174 75 80 174 75 80 174 75 80 174 75 80 174 75 80 174 75 80 174 75 80 174 75 80 174 75 80 174 75 80 174 75 80 174 75 80 174 75 80 174 75 80 174 75 80 174 75 80 174 75 80 174 75 80 174 76 80 174 76 80 174 76 80 174 76 80 174 76 80 174 76 80 174 75 80 174 75 80 174 75 80 174 75 80 174 75 80 174 75 80 174 75 80 174 75 80 174 75 80 174 75 80 174 75 80 174 75 80 174 75 80 174 75 80 174 75 80 174 75 80 
174 76 80 174 75 80 174 75 80 174 75 80 174 75 80 174 75 80 174 75 80 174 75 80 174 75 80 174 75 80 174 75 80 174 75 80 174 75 80 174 75 80 174 75 80 174 75 80 174 75 80 174 75 80 174 75 80 174 75 80 174 75 80 174 75 80 174 75 80 174 75 80 174 75 80 174 75 80 174 75 80 174 75 80 174 75 80 174 75 80 174 75 80 174 75 80 174 75 80 174 75 80 174 75 80 174 75 80 174 76 80 174 76 80 174 76 80 174 76 80 174 76 80 174 75 80 174 75 80 174 75 80 174 75 80 174 75 80 174 75 80 174 75 80 174 75 80 174 75 80 174 75 80 174 75 80 174 75 80 174 75 80 174 75 80 174 75 80 174 75 80 174 75 80 174 75 80 174 75 80 174 75 80 174 75 80 174 75 80 174 75 80 174 75 80 174 75 80 175 75 79 175 75 79 175 75 79 175 74 79 175 74 79 175 74 79 175 74 79 175 74 79 175 75 79 175 75 79 175 75 79 174 75 80 174 75 80 174 75 80 174 75 80 174 75 80 174 75 80 174 75 80 174 75 80 174 75 80 175 75 79 175 74 79 175 74 79 175 74 79 175 74 79 176 74 78 176 74 78 176 74 78 175 74 79 175 74 79 175 74 79 175 74 79 175 75 79 174 75 80 174 75 80 174 75 80 174 75 80 174 75 80 174 76 80 174 76 80 174 76 80 174 76 80 174 76 80 174 76 80 174 75 80 174 75 80 174 75 80 174 75 80 174 75 80 174 75 80 174 75 80 174 75 80 174 75 80 174 75 80 174 75 80 174 75 80 174 75 80 174 75 80 174 75 80 174 75 80 174 75 80 174 75 80 174 75 80 174 75 80 174 75 80 174 75 80 174 75 80 174 75 80 174 75 80 174 75 80 174 75 80 174 75 80 174 75 80 174 75 80 174 75 80 174 75 80 174 75 80 174 75 80 174 75 80 174 75 80 174 75 80 174 75 80 174 75 80 174 75 80 174 75 80 174 75 80 174 75 80 174 75 80 174 75 80 174 75 80 174 75 80 174 75 80 174 75 80 174 76 80 174 76 80 174 76 80 174 75 80 174 75 80 174 75 80 174 75 80 174 75 80 174 75 80 174 75 80 174 75 80 174 75 80 174 75 80 174 75 80 174 75 80 174 75 80 174 75 80 174 75 80 174 75 80 174 75 80 174 75 80 174 75 80 
174 76 80 174 75 80 174 75 80 174 75 80 174 75 80 174 75 80 174 75 80 174 75 80 174 75 80 174 75 80 174 75 80 174 75 80 174 75 80 174 75 80 174 75 80 174 75 80 174 75 80 174 75 80 174 75 80 174 75 80 174 75 80 174 75 80 174 75 80 174 75 80 174 75 80 174 75 80 174 75 80 174 75 80 174 75 80 174 75 80 174 75 80 174 75 80 174 75 80 174 75 80 174 75 80 174 75 80 174 75 80 174 76 80 174 76 80 174 76 80 174 76 80 174 75 80 174 75 80 174 75 80 174 75 80 174 75 80 174 75 80 174 75 80 174 75 80 174 75 80 174 75 80 174 75 80 174 75 80 174 75 80 174 75 80 174 75 80 174 75 80 174 75 80 174 75 80 174 75 80 174 75 80 174 75 80 174 75 80 174 75 80 174 75 80 175 75 79 175 75 79 175 75 79 175 75 79 175 75 79 175 75 79 175 75 79 175 75 79 174 75 80 174 75 80 174 75 80 174 75 80 174 75 80 174 75 80 174 75 80 174 75 80 174 75 80 174 75 80 174 75 80 174 75 80 174 75 80 175 75 79 175 74 79 175 74 79 175 74 79 175 74 79 176 74 78 176 74 78 176 74 78 175 74 79 175 74 79 175 74 79 175 74 79 175 75 79 174 75 80 174 75 80 174 75 80 174 75 80 174 76 80 174 76 80 174 76 80 174 76 80 174 76 80 174 76 80 174 76 80 174 76 80 174 76 80 174 75 80 174 75 80 174 75 80 174 75 80 174 75 80 174 75 80 174 75 80 174 75 80 174 75 80 174 75 80 174 75 80 174 75 80 174 75 80 174 75 80 174 75 80 174 75 80 174 75 80 174 75 80 174 75 80 174 75 80 174 75 80 174 75 80 174 75 80 174 75 80 174 75 80 174 75 80 174 75 80 174 75 80 174 75 80 174 75 80 174 75 80 174 75 80 174 75 80 174 75 80 174 75 80 174 75 80 174 75 80 174 75 80 174 75 80 174 75 80 174 75 80 174 75 80 174 75 80 174 75 80 174 75 80 174 75 80 174 75 80 174 75 80 174 75 80 174 75 80 174 75 80 174 75 80 174 75 80 174 75 80 174 75 80 174 75 80 174 75 80 174 75 80 174 75 80 174 75 80 174 75 80 174 75 80 174 75 80 174 75 80 174 75 80 174 75 80 174 75 80 174 75 80 174 75 80 
174 76 80 174 75 80 174 75 80 174 75 80 174 75 80 174 75 80 174 75 80 174 75 80 174 75 80 174 75 80 174 75 80 174 75 80 174 75 80 174 75 80 174 75 80 174 75 80 174 75 80 174 75 80 174 75 80 174 75 80 174 75 80 174 75 80 174 75 80 174 75 80 174 75 80 174 75 80 174 75 80 174 75 80 174 75 80 174 75 80 174 75 80 174 75 80 174 75 80 174 75 80 174 75 80 174 75 80 174 75 80 174 75 80 174 76 80 174 76 80 174 76 80 174 75 80 174 75 80 174 75 80 174 75 80 174 75 80 174 75 80 174 75 80 174 75 80 174 75 80 174 75 80 174 75 80 174 75 80 174 75 80 174 75 80 174 75 80 174 75 80 174 75 80 174 75 80 174 75 80 174 75 80 174 75 80 174 75 80 174 75 80 175 75 79 175 75 79 175 75 79 175 75 79 175 75 79 175 75 79 174 75 80 174 75 80 174 75 80 174 75 80 174 75 80 174 75 80 174 76 80 174 76 80 174 76 80 174 76 80 174 76 80 174 76 80 174 75 80 174 75 80 174 75 80 174 75 80 175 75 79 175 74 79 175 74 79 175 74 79 175 74 79 175 74 79 175 74 79 175 74 79 175 74 79 175 74 79 175 74 79 175 75 79 174 75 80 174 75 80 174 75 80 174 75 80 174 76 80 174 76 80 174 76 80 173 76 81 173 76 81 173 76 81 174 76 80 174 76 80 174 76 80 174 76 80 174 76 80 174 75 80 174 75 80 174 75 80 174 75 80 174 75 80 174 75 80 174 75 80 174 75 80 174 75 80 174 75 80 174 75 80 174 75 80 174 76 80 174 76 80 174 76 80 174 76 80 174 76 80 174 76 80 174 76 80 174 76 80 174 76 80 174 76 80 174 76 80 174 75 80 174 75 80 174 75 80 174 75 80 174 75 80 174 75 80 174 75 80 174 75 80 174 75 80 174 75 80 174 75 80 174 75 80 174 75 80 174 75 80 174 75 80 174 75 80 174 75 80 174 75 80 174 75 80 174 75 80 174 75 80 174 75 80 174 75 80 174 75 80 174 75 80 174 75 80 174 75 80 174 75 80 174 75 80 174 75 80 174 75 80 174 75 80 174 75 80 174 75 80 174 75 80 174 75 80 174 75 80 174 75 80 174 75 80 174 75 80 174 75 80 174 75 80 174 75 80 174 75 80 174 75 80 
174 76 80 174 75 80 174 75 80 174 75 80 174 75 80 174 75 80 174 75 80 174 75 80 174 75 80 174 75 80 174 75 80 174 75 80 174 75 80 174 75 80 174 75 80 174 75 80 174 75 80 174 75 80 174 75 80 174 75 80 174 75 80 174 75 80 174 75 80 174 75 80 174 75 80 174 75 80 174 75 80 174 75 80 174 75 80 174 75 80 174 75 80 174 75 80 174 75 80 174 75 80 174 75 80 174 75 80 174 75 80 174 75 80 174 75 80 174 75 80 174 75 80 174 75 80 174 75 80 174 75 80 174 75 80 174 75 80 174 75 80 174 75 80 174 75 80 174 75 80 174 75 80 174 75 80 174 75 80 174 75 80 174 75 80 174 75 80 174 75 80 174 75 80 174 75 80 174 75 80 174 75 80 174 75 80 174 75 80 175 75 79 175 75 79 175 75 79 175 75 79 175 75 79 174 75 80 174 75 80 174 75 80 174 75 80 174 75 80 174 76 80 174 76 80 173 76 81 173 76 81 173 76 81 173 76 81 173 76 81 173 76 81 174 76 80 174 75 80 174 75 80 174 75 80 174 75 80 175 75 79 175 75 79 175 74 79 175 74 79 175 74 79 175 74 79 175 74 79 175 74 79 175 74 79 175 74 79 175 75 79 175 75 79 174 75 80 174 75 80 174 75 80 174 75 80 174 76 80 174 76 80 174 76 80 173 76 81 173 76 81 173 76 81 174 76 80 174 76 80 174 76 80 174 76 80 174 76 80 174 75 80 174 75 80 174 75 80 174 75 80 174 75 80 174 75 80 174 75 80 174 75 80 174 75 80 174 76 80 174 76 80 174 76 80 174 76 80 174 76 80 174 76 80 174 76 80 174 76 80 174 76 80 174 76 80 174 76 80 174 76 80 174 76 80 174 76 80 174 76 80 174 76 80 174 76 80 174 76 80 174 75 80 174 75 80 174 75 80 174 75 80 174 75 80 174 75 80 174 75 80 174 75 80 174 75 80 174 75 80 174 75 80 174 75 80 174 75 80 174 75 80 174 75 80 174 75 80 174 75 80 174 75 80 174 75 80 174 75 80 174 75 80 174 75 80 174 75 80 174 75 80 174 75 80 174 75 80 174 75 80 174 75 80 174 75 80 174 75 80 174 75 80 174 75 80 174 75 80 174 75 80 174 75 80 174 75 80 174 75 80 174 75 80 174 75 80 174 75 80 174 75 80 
174 75 80 174 75 80 174 75 80 174 75 80 174 75 80 174 75 80 174 75 80 174 75 80 174 75 80 174 75 80 174 75 80 174 75 80 174 75 80 174 75 80 174 75 80 174 75 80 174 75 80 174 75 80 174 75 80 174 75 80 174 75 80 174 75 80 174 75 80 174 75 80 174 75 80 174 75 80 174 75 80 174 75 80 174 75 80 174 75 80 174 75 80 174 75 80 174 75 80 174 75 80 174 75 80 174 75 80 174 75 80 174 75 80 174 75 80 174 75 80 174 75 80 174 75 80 174 75 80 174 75 80 174 75 80 174 75 80 174 75 80 174 75 80 174 75 80 174 75 80 174 75 80 174 75 80 174 75 80 174 76 80 174 76 80 174 76 80 174 75 80 174 75 80 174 75 80 174 75 80 174 75 80 174 75 80 174 75 80 175 75 79 175 75 79 175 75 79 175 75 79 174 75 80 174 75 80 174 75 80 174 75 80 174 76 80 174 76 80 173 76 81 173 76 81 173 76 81 173 76 81 173 76 81 173 76 81 173 76 81 173 76 81 174 76 80 174 75 80 174 75 80 174 75 80 174 75 80 174 75 80 175 75 79 175 75 79 175 74 79 175 74 79 175 74 79 175 74 79 175 74 79 175 75 79 175 75 79 175 75 79 174 75 80 174 75 80 174 75 80 174 75 80 174 75 80 174 76 80 174 76 80 174 76 80 174 76 80 174 76 80 174 76 80 174 76 80 174 76 80 174 76 80 174 76 80 174 75 80 174 75 80 174 75 80 174 75 80 174 75 80 174 75 80 174 75 80 174 75 80 174 75 80 174 75 80 174 76 80 174 76 80 174 76 80 174 76 80 174 76 80 174 76 80 174 76 80 174 76 80 174 76 80 174 76 80 174 76 80 174 76 80 174 76 80 174 76 80 174 76 80 174 76 80 174 76 80 174 76 80 174 75 80 174 75 80 174 75 80 174 75 80 174 75 80 174 75 80 174 75 80 174 75 80 174 75 80 174 75 80 174 75 80 174 75 80 174 76 80 174 76 80 174 76 80 174 75 80 174 75 80 174 75 80 174 75 80 174 75 80 174 75 80 174 75 80 174 75 80 174 75 80 174 75 80 174 75 80 174 75 80 174 75 80 174 75 80 174 75 80 174 75 80 174 75 80 174 75 80 174 75 80 174 75 80 174 75 80 174 75 80 174 75 80 174 75 80 174 75 80 174 76 80 
174 75 80 174 75 80 174 75 80 174 75 80 174 75 80 174 75 80 174 75 80 174 75 80 174 75 80 174 75 80 174 75 80 174 75 80 174 75 80 174 75 80 174 75 80 174 75 80 174 75 80 174 75 80 174 75 80 174 75 80 174 75 80 174 75 80 174 75 80 174 75 80 174 75 80 174 75 80 174 75 80 174 75 80 174 75 80 174 75 80 174 75 80 174 75 80 174 75 80 174 75 80 174 75 80 174 75 80 174 75 80 174 75 80 174 75 80 174 75 80 174 75 80 174 75 80 174 75 80 174 75 80 174 75 80 174 75 80 174 75 80 174 75 80 174 75 80 174 75 80 174 75 80 174 76 80 174 76 80 174 76 80 174 76 80 174 76 80 174 75 80 174 75 80 174 75 80 174 75 80 174 75 80 174 75 80 175 75 79 175 75 79 175 75 79 175 75 79 174 75 80 174 75 80 174 75 80 174 75 80 174 76 80 173 76 81 173 76 81 173 76 81 173 76 81 173 76 81 173 76 81 173 76 81 173 76 81 173 76 81 174 76 80 174 75 80 174 75 80 174 75 80 174 75 80 174 75 80 174 75 80 174 75 80 175 75 79 175 75 79 175 75 79 175 75 79 175 75 79 175 75 79 175 75 79 174 75 80 174 75 80 174 75 80 174 75 80 174 75 80 174 75 80 174 75 80 174 75 80 174 75 80 174 76 80 174 76 80 174 76 80 174 76 80 174 76 80 174 76 80 174 76 80 174 75 80 174 75 80 174 75 80 174 75 80 174 75 80 174 75 80 174 75 80 174 75 80 174 75 80 174 75 80 174 75 80 174 75 80 174 75 80 174 76 80 174 76 80 174 76 80 174 76 80 174 76 80 174 76 80 174 76 80 174 76 80 174 76 80 174 76 80 174 76 80 174 76 80 174 76 80 174 76 80 174 76 80 174 76 80 174 75 80 174 75 80 174 75 80 174 75 80 174 75 80 174 75 80 174 75 80 174 75 80 174 75 80 174 75 80 174 76 80 174 76 80 174 76 80 174 76 80 174 76 80 174 76 80 174 75 80 174 75 80 174 75 80 174 75 80 174 75 80 174 75 80 174 75 80 174 75 80 174 75 80 174 75 80 174 75 80 174 75 80 174 75 80 174 75 80 174 75 80 174 75 80 174 75 80 174 75 80 174 75 80 174 75 80 174 75 80 174 75 80 174 76 80 174 76 80 174 76 80 
174 75 80 174 75 80 174 75 80 174 75 80 174 75 80 174 75 80 174 75 80 174 75 80 174 75 80 174 75 80 174 75 80 174 75 80 174 75 80 174 75 80 174 75 80 174 75 80 174 75 80 174 75 80 174 75 80 174 75 80 174 75 80 174 75 80 174 75 80 174 75 80 174 75 80 174 75 80 174 75 80 174 75 80 174 75 80 174 75 80 174 75 80 174 75 80 174 75 80 174 75 80 174 75 80 174 75 80 174 75 80 174 75 80 174 75 80 174 75 80 174 75 80 174 75 80 174 75 80 174 75 80 174 75 80 174 75 80 174 75 80 174 75 80 174 75 80 174 75 80 174 76 80 174 76 80 174 76 80 174 76 80 174 76 80 174 76 80 174 76 80 174 75 80 174 75 80 174 75 80 174 75 80 174 75 80 174 75 80 175 75 79 174 75 80 174 75 80 174 75 80 174 75 80 174 75 80 174 76 80 174 76 80 173 76 81 173 76 81 173 76 81 173 76 81 173 76 81 173 76 81 173 76 81 174 76 80 174 76 80 174 75 80 174 75 80 174 75 80 174 75 80 174 75 80 174 75 80 174 75 80 174 75 80 174 75 80 174 75 80 174 75 80 174 75 80 174 75 80 174 75 80 174 75 80 174 75 80 174 75 80 174 75 80 174 75 80 174 75 80 174 75 80 174 75 80 174 75 80 174 75 80 174 75 80 174 75 80 174 75 80 174 75 80 174 75 80 174 75 80 174 75 80 174 75 80 174 75 80 174 75 80 174 75 80 174 75 80 174 75 80 174 75 80 174 75 80 174 75 80 174 75 80 174 75 80 174 75 80 174 75 80 174 75 80 174 75 80 174 76 80 174 76 80 174 76 80 174 76 80 174 76 80 174 76 80 174 76 80 174 76 80 174 76 80 174 76 80 174 76 80 174 76 80 174 76 80 174 75 80 174 75 80 174 75 80 174 75 80 174 75 80 174 75 80 174 75 80 174 75 80 174 75 80 174 75 80 174 75 80 174 76 80 174 76 80 174 76 80 174 76 80 174 76 80 174 75 80 174 75 80 174 75 80 174 75 80 174 75 80 174 75 80 174 75 80 174 75 80 174 75 80 174 75 80 174 75 80 174 75 80 174 75 80 174 75 80 174 75 80 174 75 80 174 75 80 174 75 80 174 75 80 174 75 80 174 75 80 174 75 80 174 76 80 174 76 80 174 76 80 174 76 80 
174 75 80 174 75 80 174 75 80 174 75 80 174 75 80 174 75 80 174 75 80 174 75 80 174 75 80 174 75 80 174 75 80 174 75 80 174 75 80 174 75 80 174 75 80 174 75 80 174 75 80 174 75 80 174 75 80 174 75 80 174 75 80 174 75 80 174 75 80 174 75 80 174 75 80 174 75 80 174 75 80 174 75 80 174 75 80 174 75 80 174 75 80 174 75 80 174 75 80 174 75 80 174 75 80 174 75 80 174 75 80 174 75 80 174 75 80 174 75 80 174 75 80 174 75 80 174 75 80 174 75 80 174 75 80 174 75 80 174 75 80 174 75 80 174 75 80 174 76 80 174 76 80 174 76 80 174 76 80 174 76 80 174 76 80 174 76 80 174 76 80 174 75 80 174 75 80 174 75 80 174 75 80 174 75 80 174 75 80 174 75 80 174 75 80 174 75 80 174 75 80 174 75 80 174 75 80 174 76 80 173 76 81 173 76 81 173 76 81 173 76 81 173 76 81 173 76 81 174 76 80 174 76 80 174 75 80 174 75 80 174 75 80 174 75 80 174 75 80 174 75 80 174 75 80 174 75 80 174 75 80 174 75 80 174 75 80 174 75 80 174 75 80 174 75 80 174 75 80 174 75 80 174 75 80 174 75 80 174 75 80 174 75 80 174 75 80 174 75 80 174 75 80 174 75 80 174 75 80 174 75 80 174 75 80 174 75 80 174 75 80 174 75 80 174 75 80 174 75 80 174 75 80 174 75 80 174 75 80 174 75 80 174 75 80 174 75 80 174 75 80 174 75 80 174 75 80 174 75 80 174 75 80 174 75 80 174 75 80 174 75 80 174 75 80 174 75 80 174 75 80 174 75 80 174 76 80 174 76 80 174 76 80 174 76 80 174 76 80 174 76 80 174 76 80 174 76 80 174 76 80 174 76 80 174 76 80 174 75 80 174 75 80 174 75 80 174 75 80 174 75 80 174 75 80 174 75 80 174 75 80 174 75 80 174 75 80 174 76 80 174 76 80 174 76 80 174 76 80 174 76 80 174 76 80 174 75 80 174 75 80 174 75 80 174 75 80 174 75 80 174 75 80 174 75 80 174 75 80 174 75 80 174 75 80 174 75 80 174 75 80 174 75 80 174 75 80 174 75 80 174 75 80 174 75 80 174 75 80 174 75 80 174 75 80 174 75 80 174 76 80 174 76 80 174 76 80 174 76 80 174 76 80 
174 75 80 174 75 80 174 75 80 174 75 80 174 75 80 174 75 80 174 75 80 174 75 80 174 75 80 174 75 80 174 75 80 174 75 80 174 75 80 174 75 80 174 75 80 174 75 80 174 75 80 174 75 80 174 75 80 174 75 80 174 75 80 174 75 80 174 75 80 174 75 80 174 75 80 174 75 80 174 75 80 174 75 80 174 75 80 174 75 80 174 75 80 174 75 80 174 75 80 174 75 80 174 75 80 174 75 80 174 75 80 174 75 80 174 75 80 174 75 80 174 75 80 174 75 80 174 75 80 174 75 80 174 75 80 174 75 80 174 75 80 174 75 80 174 75 80 174 76 80 174 76 80 174 76 80 174 76 80 174 76 80 174 76 80 174 76 80 174 76 80 174 75 80 174 75 80 174 75 80 174 75 80 174 75 80 174 75 80 174 75 80 174 75 80 174 75 80 174 75 80 174 75 80 174 76 80 174 76 80 173 76 81 173 76 81 173 76 81 173 76 81 174 76 80 174 76 80 174 75 80 174 75 80 174 75 80 174 75 80 175 75 79 175 75 79 175 75 79 174 75 80 174 75 80 174 75 80 174 75 80 174 75 80 174 75 80 174 75 80 174 76 80 174 75 80 174 75 80 174 75 80 174 75 80 174 75 80 174 75 80 174 75 80 174 75 80 175 75 79 175 75 79 175 75 79 174 75 80 174 75 80 174 75 80 174 75 80 174 75 80 174 75 80 174 75 80 174 75 80 174 75 80 174 75 80 174 75 80 174 75 80 174 75 80 174 75 80 174 75 80 174 75 80 174 75 80 174 75 80 174 75 80 174 75 80 174 75 80 174 75 80 174 75 80 174 75 80 174 75 80 174 75 80 174 75 80 174 75 80 174 75 80 174 76 80 174 76 80 174 76 80 174 76 80 174 76 80 174 76 80 174 76 80 174 75 80 174 75 80 174 75 80 174 75 80 174 75 80 174 75 80 174 75 80 174 75 80 174 75 80 174 75 80 174 75 80 174 76 80 174 76 80 174 76 80 174 76 80 174 76 80 174 75 80 174 75 80 174 75 80 174 75 80 174 75 80 174 75 80 174 75 80 174 75 80 174 75 80 174 75 80 174 75 80 174 75 80 174 75 80 174 75 80 174 75 80 174 75 80 174 75 80 174 75 80 174 75 80 174 75 80 174 75 80 174 76 80 174 76 80 174 76 80 174 76 80 174 76 80 174 76 80 
174 75 80 174 75 80 174 75 80 174 75 80 174 75 80 174 75 80 174 75 80 174 75 80 174 75 80 174 75 80 174 75 80 174 75 80 174 75 80 174 75 80 174 75 80 174 75 80 174 75 80 174 75 80 174 76 80 174 76 80 174 75 80 174 75 80 174 75 80 174 75 80 174 75 80 174 75 80 174 75 80 174 75 80 174 75 80 174 75 80 174 75 80 174 75 80 174 75 80 174 75 80 174 75 80 174 75 80 174 75 80 174 75 80 174 75 80 174 75 80 174 75 80 174 75 80 174 75 80 174 75 80 174 75 80 174 75 80 174 75 80 174 75 80 174 75 80 174 75 80 174 76 80 174 76 80 174 76 80 174 76 80 174 76 80 174 76 80 174 76 80 174 75 80 174 75 80 174 75 80 174 75 80 174 75 80 174 75 80 174 75 80 174 75 80 174 75 80 174 75 80 174 75 80 174 76 80 174 76 80 174 76 80 174 76 80 174 76 80 174 76 80 174 75 80 174 75 80 174 75 80 175 75 79 175 75 79 175 74 79 175 74 79 175 74 79 175 74 79 175 75 79 174 75 80 174 75 80 174 75 80 174 75 80 174 76 80 174 76 80 174 76 80 174 76 80 174 76 80 174 75 80 174 75 80 174 75 80 174 75 80 175 75 79 175 75 79 175 75 79 175 74 79 175 75 79 175 75 79 175 75 79 175 75 79 175 75 79 174 75 80 174 75 80 174 75 80 174 75 80 174 75 80 174 75 80 174 75 80 174 75 80 174 75 80 174 75 80 174 75 80 174 75 80 174 75 80 174 75 80 174 75 80 174 75 80 174 75 80 174 75 80 174 75 80 174 75 80 174 75 80 174 75 80 174 75 80 174 75 80 174 75 80 174 75 80 174 75 80 174 76 80 174 76 80 174 76 80 174 76 80 174 75 80 174 75 80 174 75 80 174 75 80 174 75 80 174 75 80 174 75 80 174 75 80 174 75 80 174 75 80 174 75 80 174 76 80 174 76 80 174 76 80 174 76 80 174 76 80 174 75 80 174 75 80 174 75 80 174 75 80 174 75 80 174 75 80 174 75 80 174 75 80 174 75 80 174 75 80 174 75 80 174 75 80 174 75 80 174 75 80 174 75 80 174 75 80 174 75 80 174 75 80 174 75 80 174 75 80 174 75 80 174 76 80 174 76 80 174 76 80 174 76 80 174 76 80 174 76 80 174 75 80 
