P3
181 181
255
2 2 252 2 2 252 2 2 252 2 2 252 2 2 252 2 2 252 2 2 252 2 2 252 2 2 252 2 2 252 2 2 252 2 2 252 2 2 252 2 2 252 2 2 252 2 2 252 2 2 252 2 2 252 2 2 252 2 2 252 2 2 252 2 2 252 2 2 252 2 2 252 2 2 252 3 2 251 3 2 251 3 2 251 3 2 251 3 2 251 3 3 251 3 3 251 3 3 251 3 3 251 3 3 251 3 3 251 3 2 251 3 2 251 3 2 251 3 2 251 3 2 251 3 2 251 3 2 251 3 2 251 3 2 251 3 2 251 3 2 251 3 2 251 3 2 251 3 2 251 3 2 251 3 3 251 3 3 251 3 3 251 3 3 251 3 3 251 3 3 251 3 3 251 3 3 251 3 3 251 3 3 251 3 3 251 3 3 251 3 3 251 3 3 251 3 3 251 3 3 251 3 3 251 3 3 251 3 2 251 3 2 251 2 2 252 2 2 252 2 2 252 2 2 252 2 2 252 2 2 252 3 2 251 3 2 251 3 3 251 3 3 251 3 3 251 3 3 251 3 3 251 3 3 251 3 2 251 3 2 251 2 2 252 2 2 252 2 2 252 2 2 252 2 2 252 2 2 252 2 2 252 3 2 251 3 2 251 3 3 251 3 3 251 3 3 251 3 3 251 3 3 251 3 3 251 3 2 251 3 2 251 2 2 252 2 2 252 2 2 252 2 2 252 2 2 252 2 2 252 3 2 251 3 2 251 3 3 251 3 3 251 3 3 251 3 3 251 3 3 251 3 3 251 3 3 251 3 3 251 3 3 251 3 3 251 3 3 251 3 3 251 3 3 251 3 3 251 3 3 251 3 3 251 3 3 251 3 3 251 3 2 251 3 2 251 3 2 251 3 2 251 3 2 251 3 2 251 3 2 251 3 2 251 3 2 251 3 2 251 3 2 251 3 2 251 3 2 251 3 2 251 3 2 251 3 3 251 3 3 251 3 3 251 3 3 251 3 3 251 3 3 251 3 2 251 3 2 251 3 2 251 3 2 251 3 2 251 2 2 252 2 2 252 2 2 252 2 2 252 2 2 252 2 2 252 2 2 252 2 2 252 2 2 252 2 2 252 2 2 252 2 2 252 2 2 252 2 2 252 2 2 252 2 2 252 2 2 252 2 2 252 2 2 252 2 2 252 2 2 252 2 2 252 2 2 252 2 2 252 2 2 252 
2 2 252 2 2 252 2 2 252 2 2 252 2 2 252 2 2 252 2 2 252 2 2 252 2 2 252 2 2 252 2 2 252 2 2 252 2 2 252 2 2 252 2 2 252 2 2 252 2 2 252 2 2 252 2 2 252 2 2 252 2 2 252 2 2 252 2 2 252 2 2 252 3 2 251 3 2 251 3 2 251 3 2 251 3 2 251 3 3 251 3 3 251 3 3 251 3 3 251 3 3 251 3 3 251 3 3 251 3 3 251 3 2 251 3 2 251 3 2 251 3 2 251 3 2 251 3 2 251 3 2 251 3 2 251 3 2 251 3 2 251 3 2 251 3 2 251 3 2 251 3 2 251 3 2 251 3 3 251 3 3 251 3 3 251 3 3 251 3 3 251 3 3 251 3 3 251 3 3 251 3 3 251 3 3 251 3 3 251 3 3 251 3 3 251 3 3 251 3 3 251 3 3 251 3 3 251 3 3 251 3 2 251 2 2 252 2 2 252 2 2 252 2 2 252 2 2 252 2 2 252 3 2 251 3 2 251 3 3 251 3 3 251 3 3 251 3 3 251 3 3 251 3 3 251 3 2 251 3 2 251 2 2 252 2 2 252 2 2 252 2 2 252 2 2 252 2 2 252 2 2 252 3 2 251 3 2 251 3 3 251 3 3 251 3 3 251 3 3 251 3 3 251 3 3 251 3 2 251 3 2 251 2 2 252 2 2 252 2 2 252 2 2 252 2 2 252 2 2 252 3 2 251 3 3 251 3 3 251 3 3 251 3 3 251 3 3 251 3 3 251 3 3 251 3 3 251 3 3 251 3 3 251 3 3 251 3 3 251 3 3 251 3 3 251 3 3 251 3 3 251 3 3 251 3 3 251 3 2 251 3 2 251 3 2 251 3 2 251 3 2 251 3 2 251 3 2 251 3 2 251 3 2 251 3 2 251 3 2 251 3 2 251 3 2 251 3 2 251 3 2 251 3 3 251 3 3 251 3 3 251 3 3 251 3 3 251 3 3 251 3 3 251 3 3 251 3 2 251 3 2 251 3 2 251 3 2 251 3 2 251 2 2 252 2 2 252 2 2 252 2 2 252 2 2 252 2 2 252 2 2 252 2 2 252 2 2 252 2 2 252 2 2 252 2 2 252 2 2 252 2 2 252 2 2 252 2 2 252 2 2 252 2 2 252 2 2 252 2 2 252 2 2 252 2 2 252 2 2 252 2 2 252 
2 2 252 2 2 252 2 2 252 2 2 252 2 2 252 2 2 252 2 2 252 2 2 252 2 2 252 2 2 252 2 2 252 2 2 252 2 2 252 2 2 252 2 2 252 2 2 252 2 2 252 2 2 252 2 2 252 2 2 252 2 2 252 2 2 252 2 2 252 3 2 251 3 2 251 3 2 251 3 2 251 3 2 251 3 3 251 3 3 251 3 3 251 3 3 251 3 3 251 3 3 251 3 3 251 3 3 251 3 3 251 3 2 251 3 2 251 3 2 251 3 2 251 3 2 251 3 2 251 3 2 251 3 2 251 3 2 251 3 2 251 3 2 251 3 2 251 3 2 251 3 2 251 3 2 251 3 3 251 3 3 251 3 3 251 3 3 251 3 3 251 3 3 251 3 3 251 3 3 251 3 3 251 3 3 251 3 3 251 3 3 251 3 3 251 3 3 251 3 3 251 3 3 251 3 3 251 3 3 251 3 2 251 2 2 252 2 2 252 2 2 252 2 2 252 2 2 252 2 2 252 2 2 252 3 2 251 3 2 251 3 3 251 3 3 251 3 3 251 3 3 251 3 2 251 3 2 251 3 2 251 2 2 252 2 2 252 2 2 252 2 2 252 2 2 252 2 2 252 2 2 252 3 2 251 3 2 251 3 2 251 3 3 251 3 3 251 3 3 251 3 3 251 3 2 251 3 2 251 2 2 252 2 2 252 2 2 252 2 2 252 2 2 252 2 2 252 2 2 252 3 2 251 3 3 251 3 3 251 3 3 251 3 3 251 3 3 251 3 3 251 3 3 251 3 3 251 3 3 251 3 3 251 3 3 251 3 3 251 3 3 251 3 3 251 3 3 251 3 3 251 3 3 251 3 3 251 3 2 251 3 2 251 3 2 251 3 2 251 3 2 251 3 2 251 3 2 251 3 2 251 3 2 251 3 2 251 3 2 251 3 2 251 3 2 251 3 2 251 3 2 251 3 3 251 3 3 251 3 3 251 3 3 251 3 3 251 3 3 251 3 3 251 3 3 251 3 3 251 3 2 251 3 2 251 3 2 251 3 2 251 3 2 251 2 2 252 2 2 252 2 2 252 2 2 252 2 2 252 2 2 252 2 2 252 2 2 252 2 2 252 2 2 252 2 2 252 2 2 252 2 2 252 2 2 252 2 2 252 2 2 252 2 2 252 2 2 252 2 2 252 2 2 252 2 2 252 2 2 252 2 2 252 
2 2 252 2 2 252 2 2 252 2 2 252 2 2 252 2 2 252 2 2 252 2 2 252 2 2 252 2 2 252 2 2 252 2 2 252 2 2 252 2 2 252 2 2 252 2 2 252 2 2 252 2 2 252 2 2 252 2 2 252 2 2 252 2 2 252 3 2 251 3 2 251 3 2 251 3 2 251 3 2 251 3 3 251 3 3 251 3 3 251 3 3 251 3 3 251 3 3 251 3 3 251 3 3 251 3 3 251 3 2 251 3 2 251 3 2 251 3 2 251 3 2 251 3 2 251 3 2 251 3 2 251 3 2 251 3 2 251 3 2 251 3 2 251 3 2 251 3 2 251 3 2 251 3 2 251 3 2 251 3 2 251 3 3 251 3 3 251 3 3 251 3 3 251 3 3 251 3 3 251 3 3 251 3 3 251 3 3 251 3 3 251 3 3 251 3 3 251 3 3 251 3 3 251 3 3 251 3 3 251 3 2 251 3 2 251 2 2 252 2 2 252 2 2 252 2 2 252 2 2 252 2 2 252 3 2 251 3 2 251 3 2 251 3 3 251 3 3 251 3 2 251 3 2 251 3 2 251 2 2 252 2 2 252 2 2 252 2 2 252 2 2 252 2 2 252 2 2 252 2 2 252 2 2 252 3 2 251 3 2 251 3 2 251 3 3 251 3 3 251 3 2 251 3 2 251 3 2 251 2 2 252 2 2 252 2 2 252 2 2 252 2 2 252 2 2 252 3 2 251 3 2 251 3 3 251 3 3 251 3 3 251 3 3 251 3 3 251 3 3 251 3 3 251 3 3 251 3 3 251 3 3 251 3 3 251 3 3 251 3 3 251 3 3 251 3 3 251 3 3 251 3 2 251 3 2 251 3 2 251 3 2 251 3 2 251 3 2 251 3 2 251 3 2 251 3 2 251 3 2 251 3 2 251 3 2 251 3 2 251 3 2 251 3 2 251 3 2 251 3 2 251 3 2 251 3 3 251 3 3 251 3 3 251 3 3 251 3 3 251 3 3 251 3 3 251 3 3 251 3 3 251 3 2 251 3 2 251 3 2 251 3 2 251 3 2 251 2 2 252 2 2 252 2 2 252 2 2 252 2 2 252 2 2 252 2 2 252 2 2 252 2 2 252 2 2 252 2 2 252 2 2 252 2 2 252 2 2 252 2 2 252 2 2 252 2 2 252 2 2 252 2 2 252 2 2 252 2 2 252 2 2 252 
2 2 252 2 2 252 2 2 252 2 2 252 2 2 252 2 2 252 2 2 252 2 2 252 2 2 252 2 2 252 2 2 252 2 2 252 2 2 252 2 2 252 2 2 252 2 2 252 2 2 252 2 2 252 2 2 252 2 2 252 2 2 252 3 2 251 3 2 251 3 2 251 3 2 251 3 2 251 3 3 251 3 3 251 3 3 251 3 3 251 3 3 251 3 3 251 3 3 251 3 3 251 3 3 251 3 2 251 3 2 251 3 2 251 3 2 251 3 2 251 3 2 251 3 2 251 3 2 251 3 2 251 3 2 251 3 2 251 3 2 251 2 2 252 2 2 252 2 2 252 3 2 251 3 2 251 3 2 251 3 2 251 3 2 251 3 3 251 3 3 251 3 3 251 3 3 251 3 3 251 3 3 251 3 3 251 3 3 251 3 3 251 3 3 251 3 3 251 3 3 251 3 3 251 3 3 251 3 3 251 3 3 251 3 2 251 2 2 252 2 2 252 2 2 252 2 2 252 2 2 252 2 2 252 3 2 251 3 2 251 3 2 251 3 2 251 3 3 251 3 2 251 3 2 251 3 2 251 2 2 252 2 2 252 2 2 252 2 2 252 2 2 252 2 2 252 2 2 252 2 2 252 2 2 252 3 2 251 3 2 251 3 2 251 3 3 251 3 2 251 3 2 251 3 2 251 3 2 251 2 2 252 2 2 252 2 2 252 2 2 252 2 2 252 2 2 252 3 2 251 3 3 251 3 3 251 3 3 251 3 3 251 3 3 251 3 3 251 3 3 251 3 3 251 3 3 251 3 3 251 3 3 251 3 3 251 3 3 251 3 3 251 3 3 251 3 3 251 3 2 251 3 2 251 3 2 251 3 2 251 3 2 251 2 2 252 2 2 252 2 2 252 3 2 251 3 2 251 3 2 251 3 2 251 3 2 251 3 2 251 3 2 251 3 2 251 3 2 251 3 2 251 3 2 251 3 2 251 3 3 251 3 3 251 3 3 251 3 3 251 3 3 251 3 3 251 3 3 251 3 3 251 3 3 251 3 2 251 3 2 251 3 2 251 3 2 251 3 2 251 2 2 252 2 2 252 2 2 252 2 2 252 2 2 252 2 2 252 2 2 252 2 2 252 2 2 252 2 2 252 2 2 252 2 2 252 2 2 252 2 2 252 2 2 252 2 2 252 2 2 252 2 2 252 2 2 252 2 2 252 2 2 252 
2 2 252 2 2 252 2 2 252 2 2 252 2 2 252 2 2 252 2 2 252 2 2 252 2 2 252 2 2 252 2 2 252 2 2 252 2 2 252 2 2 252 2 2 252 2 2 252 2 2 252 2 2 252 2 2 252 2 2 252 3 2 251 3 2 251 3 2 251 3 2 251 3 2 251 3 2 251 3 3 251 3 3 251 3 3 251 3 3 251 3 3 251 3 3 251 3 3 251 3 2 251 3 2 251 3 2 251 3 2 251 3 2 251 3 2 251 3 2 251 3 2 251 3 2 251 3 2 251 2 2 252 2 2 252 2 2 252 2 2 252 2 2 252 2 2 252 2 2 252 2 2 252 2 2 252 2 2 252 3 2 251 3 2 251 3 2 251 3 3 251 3 3 251 3 3 251 3 3 251 3 3 251 3 3 251 3 3 251 3 3 251 3 3 251 3 3 251 3 3 251 3 3 251 3 3 251 3 3 251 3 3 251 3 2 251 3 2 251 2 2 252 2 2 252 2 2 252 2 2 252 3 2 251 3 2 251 3 2 251 3 2 251 3 3 251 3 3 251 3 2 251 3 2 251 3 2 251 2 2 252 2 2 252 2 2 252 2 2 252 2 2 252 2 2 252 2 2 252 2 2 252 2 2 252 3 2 251 3 2 251 3 2 251 3 3 251 3 3 251 3 2 251 3 2 251 3 2 251 3 2 251 2 2 252 2 2 252 2 2 252 2 2 252 3 2 251 3 2 251 3 3 251 3 3 251 3 3 251 3 3 251 3 3 251 3 3 251 3 3 251 3 3 251 3 3 251 3 3 251 3 3 251 3 3 251 3 3 251 3 3 251 3 3 251 3 2 251 3 2 251 3 2 251 2 2 252 2 2 252 2 2 252 2 2 252 2 2 252 2 2 252 2 2 252 2 2 252 2 2 252 2 2 252 3 2 251 3 2 251 3 2 251 3 2 251 3 2 251 3 2 251 3 2 251 3 2 251 3 2 251 3 2 251 3 3 251 3 3 251 3 3 251 3 3 251 3 3 251 3 3 251 3 3 251 3 2 251 3 2 251 3 2 251 3 2 251 3 2 251 3 2 251 2 2 252 2 2 252 2 2 252 2 2 252 2 2 252 2 2 252 2 2 252 2 2 252 2 2 252 2 2 252 2 2 252 2 2 252 2 2 252 2 2 252 2 2 252 2 2 252 2 2 252 2 2 252 2 2 252 2 2 252 
2 2 252 2 2 252 2 2 252 2 2 252 2 2 252 2 2 252 2 2 252 2 2 252 2 2 252 2 2 252 2 2 252 2 2 252 2 2 252 2 2 252 2 2 252 2 2 252 2 2 252 2 2 252 3 2 251 3 2 251 3 2 251 3 2 251 3 2 251 3 2 251 3 2 251 3 2 251 3 2 251 3 3 251 3 3 251 3 2 251 3 2 251 3 2 251 3 2 251 3 2 251 3 2 251 3 2 251 3 2 251 3 2 251 3 2 251 3 2 251 2 2 252 2 2 252 2 2 252 2 2 252 2 2 252 2 2 252 2 2 252 2 2 252 2 2 252 2 2 252 2 2 252 2 2 252 2 2 252 2 2 252 2 2 252 3 2 251 3 2 251 3 3 251 3 3 251 3 3 251 3 3 251 3 3 251 3 3 251 3 3 251 3 3 251 3 3 251 3 3 251 3 3 251 3 3 251 3 3 251 3 3 251 3 2 251 3 2 251 2 2 252 2 2 252 2 2 252 2 2 252 3 2 251 3 2 251 3 2 251 3 3 251 3 3 251 3 3 251 3 3 251 3 2 251 3 2 251 3 2 251 2 2 252 2 2 252 2 2 252 2 2 252 2 2 252 2 2 252 2 2 252 3 2 251 3 2 251 3 2 251 3 3 251 3 3 251 3 3 251 3 3 251 3 2 251 3 2 251 3 2 251 2 2 252 2 2 252 2 2 252 2 2 252 3 2 251 3 2 251 3 3 251 3 3 251 3 3 251 3 3 251 3 3 251 3 3 251 3 3 251 3 3 251 3 3 251 3 3 251 3 3 251 3 3 251 3 3 251 3 3 251 3 2 251 3 2 251 2 2 252 2 2 252 2 2 252 2 2 252 2 2 252 2 2 252 2 2 252 2 2 252 2 2 252 2 2 252 2 2 252 2 2 252 2 2 252 2 2 252 2 2 252 3 2 251 3 2 251 3 2 251 3 2 251 3 2 251 3 2 251 3 2 251 3 2 251 3 2 251 3 2 251 3 2 251 3 3 251 3 3 251 3 2 251 3 2 251 3 2 251 3 2 251 3 2 251 3 2 251 3 2 251 3 2 251 3 2 251 2 2 252 2 2 252 2 2 252 2 2 252 2 2 252 2 2 252 2 2 252 2 2 252 2 2 252 2 2 252 2 2 252 2 2 252 2 2 252 2 2 252 2 2 252 2 2 252 2 2 252 2 2 252 
2 2 252 2 2 252 2 2 252 2 2 252 2 2 252 2 2 252 2 2 252 2 2 252 2 2 252 2 2 252 2 2 252 2 2 252 2 2 252 2 2 252 2 2 252 2 2 252 2 2 252 3 2 251 3 2 251 3 2 251 3 2 251 3 2 251 3 2 251 3 2 251 3 2 251 3 2 251 3 2 251 3 2 251 3 2 251 3 2 251 3 2 251 3 2 251 3 2 251 3 2 251 3 2 251 3 2 251 3 2 251 2 2 252 2 2 252 2 2 252 2 2 252 2 2 252 2 2 252 2 2 252 2 2 252 2 2 252 2 2 252 2 2 252 2 2 252 2 2 252 2 2 252 2 2 252 2 2 252 2 2 252 2 2 252 2 2 252 3 2 251 3 3 251 3 3 251 3 3 251 3 3 251 3 3 251 3 3 251 3 3 251 3 3 251 3 3 251 3 3 251 3 3 251 3 3 251 3 3 251 3 3 251 3 2 251 3 2 251 3 2 251 3 2 251 3 2 251 3 2 251 3 2 251 3 3 251 3 3 251 3 3 251 3 3 251 3 3 251 3 3 251 3 3 251 3 2 251 3 2 251 2 2 252 2 2 252 2 2 252 2 2 252 2 2 252 2 2 252 2 2 252 3 2 251 3 2 251 3 3 251 3 3 251 3 3 251 3 3 251 3 3 251 3 3 251 3 3 251 3 2 251 3 2 251 3 2 251 3 2 251 3 2 251 3 2 251 3 2 251 3 3 251 3 3 251 3 3 251 3 3 251 3 3 251 3 3 251 3 3 251 3 3 251 3 3 251 3 3 251 3 3 251 3 3 251 3 3 251 3 3 251 3 2 251 2 2 252 2 2 252 2 2 252 2 2 252 2 2 252 2 2 252 2 2 252 2 2 252 2 2 252 2 2 252 2 2 252 2 2 252 2 2 252 2 2 252 2 2 252 2 2 252 2 2 252 2 2 252 2 2 252 3 2 251 3 2 251 3 2 251 3 2 251 3 2 251 3 2 251 3 2 251 3 2 251 3 2 251 3 2 251 3 2 251 3 2 251 3 2 251 3 2 251 3 2 251 3 2 251 3 2 251 3 2 251 3 2 251 3 2 251 2 2 252 2 2 252 2 2 252 2 2 252 2 2 252 2 2 252 2 2 252 2 2 252 2 2 252 2 2 252 2 2 252 2 2 252 2 2 252 2 2 252 2 2 252 2 2 252 2 2 252 
2 2 252 2 2 252 2 2 252 2 2 252 2 2 252 2 2 252 2 2 252 2 2 252 2 2 252 2 2 252 2 2 252 2 2 252 2 2 252 2 2 252 2 2 252 2 2 252 3 2 251 3 2 251 3 2 251 3 2 251 3 2 251 3 2 251 3 2 251 3 2 251 3 2 251 3 2 251 3 2 251 3 2 251 3 2 251 3 2 251 3 2 251 3 2 251 3 2 251 2 2 252 2 2 252 2 2 252 2 2 252 2 2 252 2 2 252 2 2 252 2 2 252 2 2 252 2 2 252 2 2 252 2 2 252 2 2 252 2 2 252 2 2 252 2 2 252 2 2 252 2 2 252 2 2 252 2 2 252 2 2 252 2 2 252 2 2 252 3 2 251 3 2 251 3 3 251 3 3 251 3 3 251 3 3 251 3 3 251 3 3 251 3 3 251 3 3 251 3 3 251 3 3 251 3 3 251 3 3 251 3 3 251 3 2 251 3 2 251 3 2 251 3 2 251 3 2 251 3 2 251 3 3 251 3 3 251 3 3 251 3 3 251 3 3 251 3 3 251 3 3 251 3 3 251 3 2 251 3 2 251 2 2 252 2 2 252 2 2 252 2 2 252 2 2 252 2 2 252 2 2 252 3 2 251 3 2 251 3 3 251 3 3 251 3 3 251 3 3 251 3 3 251 3 3 251 3 3 251 3 3 251 3 2 251 3 2 251 3 2 251 3 2 251 3 2 251 3 2 251 3 3 251 3 3 251 3 3 251 3 3 251 3 3 251 3 3 251 3 3 251 3 3 251 3 3 251 3 3 251 3 3 251 3 3 251 3 3 251 3 2 251 3 2 251 2 2 252 2 2 252 2 2 252 2 2 252 2 2 252 2 2 252 2 2 252 2 2 252 2 2 252 2 2 252 2 2 252 2 2 252 2 2 252 2 2 252 2 2 252 2 2 252 2 2 252 2 2 252 2 2 252 2 2 252 2 2 252 2 2 252 2 2 252 3 2 251 3 2 251 3 2 251 3 2 251 3 2 251 3 2 251 3 2 251 3 2 251 3 2 251 3 2 251 3 2 251 3 2 251 3 2 251 3 2 251 3 2 251 3 2 251 3 2 251 2 2 252 2 2 252 2 2 252 2 2 252 2 2 252 2 2 252 2 2 252 2 2 252 2 2 252 2 2 252 2 2 252 2 2 252 2 2 252 2 2 252 2 2 252 2 2 252 
2 2 252 2 2 252 2 2 252 2 2 252 2 2 252 2 2 252 2 2 252 2 2 252 2 2 252 2 2 252 2 2 252 2 2 252 2 2 252 2 2 252 2 2 252 3 2 251 3 2 251 3 2 251 3 2 251 3 2 251 3 2 251 3 2 251 3 2 251 3 2 251 3 2 251 3 2 251 3 2 251 3 2 251 3 2 251 3 2 251 2 2 252 2 2 252 2 2 252 2 2 252 2 2 252 2 2 252 2 2 252 2 2 252 2 2 252 2 2 252 2 2 252 2 2 252 2 2 252 2 2 252 2 2 252 2 2 252 2 2 252 2 2 252 2 2 252 2 2 252 2 2 252 2 2 252 2 2 252 2 2 252 2 2 252 2 2 252 3 2 251 3 2 251 3 3 251 3 3 251 3 3 251 3 3 251 3 3 251 3 3 251 3 3 251 3 3 251 3 3 251 3 3 251 3 3 251 3 3 251 3 3 251 3 2 251 3 2 251 3 2 251 3 2 251 3 2 251 3 3 251 3 3 251 3 3 251 3 3 251 3 3 251 3 3 251 3 3 251 3 3 251 3 3 251 3 3 251 3 2 251 2 2 252 2 2 252 2 2 252 2 2 252 2 2 252 2 2 252 2 2 252 3 2 251 3 3 251 3 3 251 3 3 251 3 3 251 3 3 251 3 3 251 3 3 251 3 3 251 3 3 251 3 3 251 3 2 251 3 2 251 3 2 251 3 2 251 3 2 251 3 3 251 3 3 251 3 3 251 3 3 251 3 3 251 3 3 251 3 3 251 3 3 251 3 3 251 3 3 251 3 3 251 3 3 251 3 3 251 3 2 251 3 2 251 2 2 252 2 2 252 2 2 252 2 2 252 2 2 252 2 2 252 2 2 252 2 2 252 2 2 252 2 2 252 2 2 252 2 2 252 2 2 252 2 2 252 2 2 252 2 2 252 2 2 252 2 2 252 2 2 252 2 2 252 2 2 252 2 2 252 2 2 252 2 2 252 2 2 252 2 2 252 3 2 251 3 2 251 3 2 251 3 2 251 3 2 251 3 2 251 3 2 251 3 2 251 3 2 251 3 2 251 3 2 251 3 2 251 3 2 251 3 2 251 3 2 251 2 2 252 2 2 252 2 2 252 2 2 252 2 2 252 2 2 252 2 2 252 2 2 252 2 2 252 2 2 252 2 2 252 2 2 252 2 2 252 2 2 252 2 2 252 
2 2 252 2 2 252 2 2 252 2 2 252 2 2 252 2 2 252 2 2 252 2 2 252 2 2 252 2 2 252 2 2 252 2 2 252 2 2 252 3 2 251 3 2 251 3 2 251 3 2 251 3 2 251 3 2 251 3 2 251 3 2 251 3 2 251 3 2 251 3 2 251 3 2 251 3 2 251 3 2 251 2 2 252 2 2 252 2 2 252 2 2 252 2 2 252 2 2 252 2 2 252 2 2 252 2 2 252 2 2 252 2 2 252 2 2 252 2 2 252 2 2 252 2 2 252 2 2 252 2 2 252 2 2 252 2 2 252 2 2 252 2 2 252 2 2 252 2 2 252 2 2 252 2 2 252 2 2 252 2 2 252 2 2 252 3 2 251 3 2 251 3 3 251 3 3 251 3 3 251 3 3 251 3 3 251 3 3 251 3 3 251 3 3 251 3 3 251 3 3 251 3 3 251 3 3 251 3 3 251 3 2 251 3 2 251 3 2 251 3 2 251 3 2 251 3 2 251 3 3 251 3 3 251 3 3 251 3 3 251 3 3 251 3 3 251 3 3 251 3 3 251 3 3 251 3 3 251 3 2 251 2 2 252 2 2 252 2 2 252 2 2 252 2 2 252 2 2 252 2 2 252 3 2 251 3 3 251 3 3 251 3 3 251 3 3 251 3 3 251 3 3 251 3 3 251 3 3 251 3 3 251 3 3 251 3 2 251 3 2 251 3 2 251 3 2 251 3 2 251 3 2 251 3 3 251 3 3 251 3 3 251 3 3 251 3 3 251 3 3 251 3 3 251 3 3 251 3 3 251 3 3 251 3 3 251 3 3 251 3 3 251 3 2 251 3 2 251 2 2 252 2 2 252 2 2 252 2 2 252 2 2 252 2 2 252 2 2 252 2 2 252 2 2 252 2 2 252 2 2 252 2 2 252 2 2 252 2 2 252 2 2 252 2 2 252 2 2 252 2 2 252 2 2 252 2 2 252 2 2 252 2 2 252 2 2 252 2 2 252 2 2 252 2 2 252 2 2 252 2 2 252 3 2 251 3 2 251 3 2 251 3 2 251 3 2 251 3 2 251 3 2 251 3 2 251 3 2 251 3 2 251 3 2 251 3 2 251 3 2 251 3 2 251 2 2 252 2 2 252 2 2 252 2 2 252 2 2 252 2 2 252 2 2 252 2 2 252 2 2 252 2 2 252 2 2 252 2 2 252 2 2 252 
2 2 252 2 2 252 2 2 252 2 2 252 2 2 252 2 2 252 2 2 252 2 2 252 2 2 252 2 2 252 2 2 252 2 2 252 3 2 251 3 2 251 3 2 251 3 2 251 3 2 251 3 2 251 3 2 251 3 2 251 3 2 251 3 2 251 3 2 251 3 2 251 3 2 251 2 2 252 2 2 252 2 2 252 2 2 252 2 2 252 2 2 252 2 2 252 2 2 252 2 2 252 2 2 252 2 2 252 2 2 252 2 2 252 2 2 252 2 2 252 2 2 252 2 2 252 2 2 252 2 2 252 2 2 252 2 2 252 2 2 252 2 2 252 2 2 252 2 2 252 2 2 252 2 2 252 2 2 252 2 2 252 2 2 252 3 2 251 3 3 251 3 3 251 3 3 251 3 3 251 3 3 251 3 3 251 3 3 251 3 3 251 3 3 251 3 3 251 3 3 251 3 3 251 3 3 251 3 3 251 3 2 251 3 2 251 3 2 251 3 2 251 3 2 251 3 2 251 3 3 251 3 3 251 3 3 251 3 3 251 3 3 251 3 3 251 3 3 251 3 3 251 3 3 251 3 3 251 3 2 251 3 2 251 2 2 252 2 2 252 2 2 252 2 2 252 2 2 252 3 2 251 3 2 251 3 3 251 3 3 251 3 3 251 3 3 251 3 3 251 3 3 251 3 3 251 3 3 251 3 3 251 3 3 251 3 2 251 3 2 251 3 2 251 3 2 251 3 2 251 3 2 251 3 3 251 3 3 251 3 3 251 3 3 251 3 3 251 3 3 251 3 3 251 3 3 251 3 3 251 3 3 251 3 3 251 3 3 251 3 3 251 3 3 251 3 2 251 2 2 252 2 2 252 2 2 252 2 2 252 2 2 252 2 2 252 2 2 252 2 2 252 2 2 252 2 2 252 2 2 252 2 2 252 2 2 252 2 2 252 2 2 252 2 2 252 2 2 252 2 2 252 2 2 252 2 2 252 2 2 252 2 2 252 2 2 252 2 2 252 2 2 252 2 2 252 2 2 252 2 2 252 2 2 252 2 2 252 3 2 251 3 2 251 3 2 251 3 2 251 3 2 251 3 2 251 3 2 251 3 2 251 3 2 251 3 2 251 3 2 251 3 2 251 3 2 251 2 2 252 2 2 252 2 2 252 2 2 252 2 2 252 2 2 252 2 2 252 2 2 252 2 2 252 2 2 252 2 2 252 2 2 252 
2 2 252 2 2 252 2 2 252 2 2 252 2 2 252 2 2 252 2 2 252 2 2 252 2 2 252 2 2 252 2 2 252 3 2 251 3 2 251 3 2 251 3 2 251 3 2 251 3 2 251 3 2 251 3 2 251 3 2 251 3 2 251 3 2 251 3 2 251 2 2 252 2 2 252 2 2 252 2 2 252 2 2 252 2 2 252 2 2 252 2 2 252 2 2 252 2 2 252 2 2 252 2 2 252 2 2 252 2 2 252 2 2 252 2 2 252 2 2 252 2 2 252 2 2 252 2 2 252 2 2 252 2 2 252 2 2 252 2 2 252 2 2 252 2 2 252 2 2 252 2 2 252 2 2 252 2 2 252 3 2 251 3 2 251 3 3 251 3 3 251 3 3 251 3 3 251 3 3 251 3 3 251 3 3 251 3 3 251 3 3 251 3 3 251 3 3 251 3 3 251 3 3 251 3 3 251 3 2 251 3 2 251 3 2 251 2 2 252 3 2 251 3 2 251 3 3 251 3 3 251 3 3 251 3 3 251 3 3 251 3 3 251 3 3 251 3 3 251 3 3 251 3 3 251 3 3 251 3 2 251 3 2 251 2 2 252 2 2 252 2 2 252 2 2 252 2 2 252 3 2 251 3 2 251 3 3 251 3 3 251 3 3 251 3 3 251 3 3 251 3 3 251 3 3 251 3 3 251 3 3 251 3 3 251 3 3 251 3 2 251 3 2 251 2 2 252 3 2 251 3 2 251 3 2 251 3 3 251 3 3 251 3 3 251 3 3 251 3 3 251 3 3 251 3 3 251 3 3 251 3 3 251 3 3 251 3 3 251 3 3 251 3 3 251 3 3 251 3 2 251 3 2 251 2 2 252 2 2 252 2 2 252 2 2 252 2 2 252 2 2 252 2 2 252 2 2 252 2 2 252 2 2 252 2 2 252 2 2 252 2 2 252 2 2 252 2 2 252 2 2 252 2 2 252 2 2 252 2 2 252 2 2 252 2 2 252 2 2 252 2 2 252 2 2 252 2 2 252 2 2 252 2 2 252 2 2 252 2 2 252 2 2 252 3 2 251 3 2 251 3 2 251 3 2 251 3 2 251 3 2 251 3 2 251 3 2 251 3 2 251 3 2 251 3 2 251 3 2 251 2 2 252 2 2 252 2 2 252 2 2 252 2 2 252 2 2 252 2 2 252 2 2 252 2 2 252 2 2 252 2 2 252 
2 2 252 2 2 252 2 2 252 2 2 252 2 2 252 2 2 252 2 2 252 2 2 252 2 2 252 2 2 252 3 2 251 3 2 251 3 2 251 3 2 251 3 2 251 3 2 251 3 2 251 3 2 251 3 2 251 3 2 251 3 2 251 2 2 252 2 2 252 2 2 252 2 2 252 2 2 252 2 2 252 2 2 252 2 2 252 2 2 252 2 2 252 2 2 252 2 2 252 2 2 252 2 2 252 2 2 252 2 2 252 2 2 252 3 2 251 3 2 251 3 2 251 3 2 251 3 2 251 3 2 251 3 2 251 2 2 252 2 2 252 2 2 252 2 2 252 2 2 252 2 2 252 3 2 251 3 2 251 3 2 251 3 3 251 3 3 251 3 3 251 3 3 251 3 3 251 3 3 251 3 3 251 3 3 251 3 3 251 3 3 251 3 3 251 3 3 251 3 3 251 3 3 251 3 3 251 3 2 251 3 2 251 2 2 252 2 2 252 2 2 252 3 2 251 3 2 251 3 3 251 3 3 251 3 3 251 3 3 251 3 3 251 3 3 251 3 3 251 3 3 251 3 3 251 3 3 251 3 3 251 3 2 251 2 2 252 2 2 252 2 2 252 2 2 252 2 2 252 3 2 251 3 3 251 3 3 251 3 3 251 3 3 251 3 3 251 3 3 251 3 3 251 3 3 251 3 3 251 3 3 251 3 3 251 3 2 251 3 2 251 2 2 252 2 2 252 2 2 252 3 2 251 3 2 251 3 3 251 3 3 251 3 3 251 3 3 251 3 3 251 3 3 251 3 3 251 3 3 251 3 3 251 3 3 251 3 3 251 3 3 251 3 3 251 3 3 251 3 3 251 3 2 251 3 2 251 3 2 251 2 2 252 2 2 252 2 2 252 2 2 252 2 2 252 2 2 252 3 2 251 3 2 251 3 2 251 3 2 251 3 2 251 3 2 251 3 2 251 2 2 252 2 2 252 2 2 252 2 2 252 2 2 252 2 2 252 2 2 252 2 2 252 2 2 252 2 2 252 2 2 252 2 2 252 2 2 252 2 2 252 2 2 252 2 2 252 2 2 252 3 2 251 3 2 251 3 2 251 3 2 251 3 2 251 3 2 251 3 2 251 3 2 251 3 2 251 3 2 251 3 2 251 2 2 252 2 2 252 2 2 252 2 2 252 2 2 252 2 2 252 2 2 252 2 2 252 2 2 252 2 2 252 
2 2 252 2 2 252 2 2 252 2 2 252 2 2 252 2 2 252 2 2 252 2 2 252 3 2 251 3 2 251 3 2 251 3 2 251 3 2 251 3 2 251 3 2 251 3 2 251 3 2 251 3 2 251 3 2 251 3 2 251 2 2 252 2 2 252 2 2 252 2 2 252 2 2 252 2 2 252 2 2 252 2 2 252 2 2 252 2 2 252 2 2 252 2 2 252 2 2 252 2 2 252 3 2 251 3 2 251 3 2 251 3 2 251 3 2 251 3 2 251 3 2 251 3 2 251 3 2 251 3 2 251 3 2 251 3 2 251 3 2 251 3 2 251 3 2 251 3 2 251 3 2 251 3 2 251 3 2 251 3 3 251 3 3 251 3 3 251 3 3 251 3 3 251 3 3 251 3 3 251 3 3 251 4 3 250 4 3 250 3 3 251 3 3 251 3 3 251 3 3 251 3 3 251 3 3 251 3 2 251 2 2 252 2 2 252 2 2 252 2 2 252 3 2 251 3 2 251 3 3 251 3 3 251 3 3 251 3 3 251 3 3 251 3 3 251 3 3 251 3 3 251 3 3 251 3 3 251 3 3 251 3 2 251 2 2 252 2 2 252 2 2 252 2 2 252 2 2 252 3 2 251 3 3 251 3 3 251 3 3 251 3 3 251 3 3 251 3 3 251 3 3 251 3 3 251 3 3 251 3 3 251 3 3 251 3 2 251 3 2 251 2 2 252 2 2 252 2 2 252 2 2 252 3 2 251 3 3 251 3 3 251 3 3 251 3 3 251 3 3 251 3 3 251 4 3 250 4 3 250 3 3 251 3 3 251 3 3 251 3 3 251 3 3 251 3 3 251 3 3 251 3 3 251 3 2 251 3 2 251 3 2 251 3 2 251 3 2 251 3 2 251 3 2 251 3 2 251 3 2 251 3 2 251 3 2 251 3 2 251 3 2 251 3 2 251 3 2 251 3 2 251 3 2 251 3 2 251 3 2 251 2 2 252 2 2 252 2 2 252 2 2 252 2 2 252 2 2 252 2 2 252 2 2 252 2 2 252 2 2 252 2 2 252 2 2 252 2 2 252 2 2 252 3 2 251 3 2 251 3 2 251 3 2 251 3 2 251 3 2 251 3 2 251 3 2 251 3 2 251 3 2 251 3 2 251 3 2 251 2 2 252 2 2 252 2 2 252 2 2 252 2 2 252 2 2 252 2 2 252 2 2 252 
2 2 252 2 2 252 2 2 252 2 2 252 2 2 252 2 2 252 2 2 252 3 2 251 3 2 251 3 2 251 3 2 251 3 2 251 3 2 251 3 2 251 3 2 251 3 2 251 3 2 251 3 2 251 2 2 252 2 2 252 2 2 252 2 2 252 2 2 252 2 2 252 2 2 252 2 2 252 2 2 252 2 2 252 2 2 252 2 2 252 2 2 252 2 2 252 3 2 251 3 2 251 3 2 251 3 2 251 3 2 251 3 2 251 3 2 251 3 2 251 3 2 251 3 2 251 3 2 251 3 2 251 3 2 251 3 2 251 3 2 251 3 2 251 3 2 251 3 2 251 3 2 251 3 3 251 3 3 251 3 3 251 3 3 251 3 3 251 3 3 251 3 3 251 3 3 251 4 3 250 4 3 250 4 3 250 4 3 250 4 3 250 3 3 251 3 3 251 3 3 251 3 3 251 3 3 251 3 2 251 2 2 252 2 2 252 2 2 252 2 2 252 2 2 252 3 2 251 3 3 251 3 3 251 3 3 251 3 3 251 3 3 251 3 3 251 3 3 251 3 3 251 3 3 251 3 3 251 3 3 251 3 2 251 2 2 252 2 2 252 2 2 252 2 2 252 2 2 252 3 2 251 3 3 251 3 3 251 3 3 251 3 3 251 3 3 251 3 3 251 3 3 251 3 3 251 3 3 251 3 3 251 3 3 251 3 2 251 2 2 252 2 2 252 2 2 252 2 2 252 2 2 252 3 2 251 3 3 251 3 3 251 3 3 251 3 3 251 3 3 251 4 3 250 4 3 250 4 3 250 4 3 250 4 3 250 3 3 251 3 3 251 3 3 251 3 3 251 3 3 251 3 3 251 3 3 251 3 3 251 3 2 251 3 2 251 3 2 251 3 2 251 3 2 251 3 2 251 3 2 251 3 2 251 3 2 251 3 2 251 3 2 251 3 2 251 3 2 251 3 2 251 3 2 251 3 2 251 3 2 251 3 2 251 3 2 251 2 2 252 2 2 252 2 2 252 2 2 252 2 2 252 2 2 252 2 2 252 2 2 252 2 2 252 2 2 252 2 2 252 2 2 252 2 2 252 2 2 252 3 2 251 3 2 251 3 2 251 3 2 251 3 2 251 3 2 251 3 2 251 3 2 251 3 2 251 3 2 251 3 2 251 2 2 252 2 2 252 2 2 252 2 2 252 2 2 252 2 2 252 2 2 252 
2 2 252 2 2 252 2 2 252 2 2 252 2 2 252 2 2 252 3 2 251 3 2 251 3 2 251 3 2 251 3 2 251 3 2 251 3 2 251 3 2 251 3 2 251 3 2 251 3 2 251 2 2 252 2 2 252 2 2 252 2 2 252 2 2 252 2 2 252 2 2 252 2 2 252 2 2 252 2 2 252 2 2 252 2 2 252 2 2 252 3 2 251 3 2 251 3 2 251 3 2 251 3 2 251 3 3 251 3 3 251 3 3 251 3 3 251 3 3 251 3 2 251 3 2 251 3 2 251 3 2 251 3 2 251 3 2 251 3 2 251 3 2 251 3 2 251 3 2 251 3 3 251 3 3 251 3 3 251 3 3 251 3 3 251 3 3 251 3 3 251 3 3 251 4 3 250 4 3 250 4 3 250 4 3 250 4 3 250 4 3 250 3 3 251 3 3 251 3 3 251 3 3 251 3 3 251 3 2 251 2 2 252 2 2 252 2 2 252 2 2 252 2 2 252 3 2 251 3 3 251 3 3 251 3 3 251 3 3 251 3 3 251 3 3 251 3 3 251 3 3 251 3 3 251 3 3 251 3 2 251 3 2 251 2 2 252 2 2 252 2 2 252 2 2 252 2 2 252 3 2 251 3 2 251 3 3 251 3 3 251 3 3 251 3 3 251 3 3 251 3 3 251 3 3 251 3 3 251 3 3 251 3 3 251 3 2 251 2 2 252 2 2 252 2 2 252 2 2 252 2 2 252 3 2 251 3 3 251 3 3 251 3 3 251 3 3 251 3 3 251 4 3 250 4 3 250 4 3 250 4 3 250 4 3 250 4 3 250 3 3 251 3 3 251 3 3 251 3 3 251 3 3 251 3 3 251 3 3 251 3 3 251 3 2 251 3 2 251 3 2 251 3 2 251 3 2 251 3 2 251 3 2 251 3 2 251 3 2 251 3 2 251 3 3 251 3 3 251 3 3 251 3 3 251 3 3 251 3 2 251 3 2 251 3 2 251 3 2 251 3 2 251 2 2 252 2 2 252 2 2 252 2 2 252 2 2 252 2 2 252 2 2 252 2 2 252 2 2 252 2 2 252 2 2 252 2 2 252 2 2 252 3 2 251 3 2 251 3 2 251 3 2 251 3 2 251 3 2 251 3 2 251 3 2 251 3 2 251 3 2 251 3 2 251 2 2 252 2 2 252 2 2 252 2 2 252 2 2 252 2 2 252 
2 2 252 2 2 252 2 2 252 2 2 252 2 2 252 3 2 251 3 2 251 3 2 251 3 2 251 3 2 251 3 2 251 3 2 251 3 2 251 3 2 251 3 2 251 2 2 252 2 2 252 2 2 252 2 2 252 2 2 252 2 2 252 2 2 252 2 2 252 2 2 252 2 2 252 2 2 252 2 2 252 2 2 252 3 2 251 3 2 251 3 2 251 3 2 251 3 3 251 3 3 251 3 3 251 3 3 251 3 3 251 3 3 251 3 3 251 3 3 251 3 3 251 3 3 251 3 2 251 3 2 251 3 2 251 3 2 251 3 2 251 3 2 251 3 2 251 3 3 251 3 3 251 3 3 251 3 3 251 3 3 251 3 3 251 3 3 251 3 3 251 4 3 250 4 3 250 4 3 250 4 4 250 4 4 250 4 3 250 4 3 250 4 3 250 3 3 251 3 3 251 3 3 251 3 3 251 3 2 251 2 2 252 2 2 252 2 2 252 2 2 252 2 2 252 2 2 252 3 2 251 3 3 251 3 3 251 3 3 251 3 3 251 3 3 251 3 3 251 3 3 251 3 3 251 3 3 251 3 2 251 3 2 251 2 2 252 2 2 252 2 2 252 2 2 252 2 2 252 3 2 251 3 2 251 3 3 251 3 3 251 3 3 251 3 3 251 3 3 251 3 3 251 3 3 251 3 3 251 3 3 251 3 2 251 2 2 252 2 2 252 2 2 252 2 2 252 2 2 252 2 2 252 3 2 251 3 3 251 3 3 251 3 3 251 3 3 251 4 3 250 4 3 250 4 3 250 4 4 250 4 4 250 4 3 250 4 3 250 4 3 250 3 3 251 3 3 251 3 3 251 3 3 251 3 3 251 3 3 251 3 3 251 3 3 251 3 2 251 3 2 251 3 2 251 3 2 251 3 2 251 3 2 251 3 2 251 3 3 251 3 3 251 3 3 251 3 3 251 3 3 251 3 3 251 3 3 251 3 3 251 3 3 251 3 3 251 3 2 251 3 2 251 3 2 251 3 2 251 2 2 252 2 2 252 2 2 252 2 2 252 2 2 252 2 2 252 2 2 252 2 2 252 2 2 252 2 2 252 2 2 252 2 2 252 2 2 252 3 2 251 3 2 251 3 2 251 3 2 251 3 2 251 3 2 251 3 2 251 3 2 251 3 2 251 3 2 251 2 2 252 2 2 252 2 2 252 2 2 252 2 2 252 
2 2 252 2 2 252 2 2 252 2 2 252 3 2 251 3 2 251 3 2 251 3 2 251 3 2 251 3 2 251 3 2 251 3 2 251 3 2 251 3 2 251 2 2 252 2 2 252 2 2 252 2 2 252 2 2 252 2 2 252 2 2 252 2 2 252 2 2 252 2 2 252 2 2 252 2 2 252 2 2 252 3 2 251 3 2 251 3 2 251 3 3 251 3 3 251 3 3 251 3 3 251 3 3 251 3 3 251 3 3 251 3 3 251 3 3 251 3 3 251 3 3 251 3 3 251 3 3 251 3 2 251 3 2 251 3 2 251 3 2 251 3 2 251 3 3 251 3 3 251 3 3 251 3 3 251 3 3 251 3 3 251 3 3 251 3 3 251 3 3 251 4 3 250 4 3 250 4 3 250 4 4 250 4 4 250 4 4 250 4 3 250 4 3 250 3 3 251 3 3 251 3 3 251 3 3 251 3 2 251 2 2 252 2 2 252 2 2 252 2 2 252 2 2 252 2 2 252 3 2 251 3 3 251 3 3 251 3 3 251 3 3 251 3 3 251 3 3 251 3 3 251 3 3 251 3 3 251 3 2 251 2 2 252 2 2 252 2 2 252 2 2 252 2 2 252 2 2 252 2 2 252 3 2 251 3 3 251 3 3 251 3 3 251 3 3 251 3 3 251 3 3 251 3 3 251 3 3 251 3 3 251 3 2 251 2 2 252 2 2 252 2 2 252 2 2 252 2 2 252 2 2 252 3 2 251 3 3 251 3 3 251 3 3 251 3 3 251 4 3 250 4 3 250 4 4 250 4 4 250 4 4 250 4 3 250 4 3 250 4 3 250 3 3 251 3 3 251 3 3 251 3 3 251 3 3 251 3 3 251 3 3 251 3 3 251 3 3 251 3 2 251 3 2 251 3 2 251 3 2 251 3 2 251 3 3 251 3 3 251 3 3 251 3 3 251 3 3 251 3 3 251 3 3 251 3 3 251 3 3 251 3 3 251 3 3 251 3 3 251 3 3 251 3 2 251 3 2 251 3 2 251 2 2 252 2 2 252 2 2 252 2 2 252 2 2 252 2 2 252 2 2 252 2 2 252 2 2 252 2 2 252 2 2 252 2 2 252 2 2 252 3 2 251 3 2 251 3 2 251 3 2 251 3 2 251 3 2 251 3 2 251 3 2 251 3 2 251 3 2 251 2 2 252 2 2 252 2 2 252 2 2 252 
2 2 252 2 2 252 2 2 252 2 2 252 3 2 251 3 2 251 3 2 251 3 2 251 3 2 251 3 2 251 3 2 251 3 2 251 3 2 251 2 2 252 2 2 252 2 2 252 2 2 252 2 2 252 2 2 252 2 2 252 2 2 252 2 2 252 2 2 252 2 2 252 2 2 252 2 2 252 3 2 251 3 2 251 3 3 251 3 3 251 3 3 251 3 3 251 3 3 251 3 3 251 3 3 251 3 3 251 3 3 251 3 3 251 3 3 251 3 3 251 3 3 251 3 3 251 3 3 251 3 2 251 3 2 251 3 2 251 3 2 251 3 2 251 3 3 251 3 3 251 3 3 251 3 3 251 3 3 251 3 3 251 3 3 251 3 3 251 3 3 251 3 3 251 4 3 250 4 3 250 4 3 250 4 3 250 4 3 250 4 3 250 4 3 250 3 3 251 3 3 251 3 3 251 3 3 251 3 2 251 3 2 251 2 2 252 2 2 252 2 2 252 2 2 252 2 2 252 2 2 252 3 2 251 3 3 251 3 3 251 3 3 251 3 3 251 3 3 251 3 3 251 3 3 251 3 3 251 3 2 251 2 2 252 2 2 252 2 2 252 2 2 252 2 2 252 2 2 252 2 2 252 3 2 251 3 3 251 3 3 251 3 3 251 3 3 251 3 3 251 3 3 251 3 3 251 3 3 251 3 2 251 2 2 252 2 2 252 2 2 252 2 2 252 2 2 252 2 2 252 3 2 251 3 2 251 3 3 251 3 3 251 3 3 251 3 3 251 4 3 250 4 3 250 4 3 250 4 3 250 4 3 250 4 3 250 4 3 250 3 3 251 3 3 251 3 3 251 3 3 251 3 3 251 3 3 251 3 3 251 3 3 251 3 3 251 3 3 251 3 2 251 3 2 251 3 2 251 3 2 251 3 2 251 3 3 251 3 3 251 3 3 251 3 3 251 3 3 251 3 3 251 3 3 251 3 3 251 3 3 251 3 3 251 3 3 251 3 3 251 3 3 251 3 3 251 3 3 251 3 2 251 3 2 251 2 2 252 2 2 252 2 2 252 2 2 252 2 2 252 2 2 252 2 2 252 2 2 252 2 2 252 2 2 252 2 2 252 2 2 252 2 2 252 3 2 251 3 2 251 3 2 251 3 2 251 3 2 251 3 2 251 3 2 251 3 2 251 3 2 251 2 2 252 2 2 252 2 2 252 2 2 252 
2 2 252 2 2 252 2 2 252 3 2 251 3 2 251 3 2 251 3 2 251 3 2 251 3 2 251 3 2 251 3 2 251 3 2 251 2 2 252 2 2 252 2 2 252 2 2 252 2 2 252 2 2 252 2 2 252 2 2 252 2 2 252 2 2 252 2 2 252 2 2 252 2 2 252 3 2 251 3 2 251 3 3 251 3 3 251 3 3 251 3 3 251 3 3 251 3 3 251 3 3 251 3 3 251 3 3 251 3 3 251 3 3 251 3 3 251 3 3 251 3 3 251 3 3 251 3 3 251 3 2 251 3 2 251 3 2 251 3 2 251 3 2 251 3 3 251 3 3 251 3 3 251 3 3 251 3 3 251 3 3 251 3 3 251 3 3 251 3 3 251 3 3 251 3 3 251 4 3 250 4 3 250 4 3 250 4 3 250 4 3 250 4 3 250 3 3 251 3 3 251 3 3 251 3 3 251 3 3 251 3 2 251 2 2 252 2 2 252 2 2 252 2 2 252 2 2 252 2 2 252 3 2 251 3 2 251 3 3 251 3 3 251 3 3 251 3 3 251 3 3 251 3 3 251 3 2 251 3 2 251 2 2 252 2 2 252 2 2 252 2 2 252 2 2 252 2 2 252 2 2 252 3 2 251 3 2 251 3 3 251 3 3 251 3 3 251 3 3 251 3 3 251 3 3 251 3 2 251 3 2 251 2 2 252 2 2 252 2 2 252 2 2 252 2 2 252 2 2 252 3 2 251 3 3 251 3 3 251 3 3 251 3 3 251 3 3 251 4 3 250 4 3 250 4 3 250 4 3 250 4 3 250 4 3 250 3 3 251 3 3 251 3 3 251 3 3 251 3 3 251 3 3 251 3 3 251 3 3 251 3 3 251 3 3 251 3 3 251 3 2 251 3 2 251 3 2 251 3 2 251 3 2 251 3 3 251 3 3 251 3 3 251 3 3 251 3 3 251 3 3 251 3 3 251 3 3 251 3 3 251 3 3 251 3 3 251 3 3 251 3 3 251 3 3 251 3 3 251 3 3 251 3 2 251 3 2 251 2 2 252 2 2 252 2 2 252 2 2 252 2 2 252 2 2 252 2 2 252 2 2 252 2 2 252 2 2 252 2 2 252 2 2 252 2 2 252 3 2 251 3 2 251 3 2 251 3 2 251 3 2 251 3 2 251 3 2 251 3 2 251 3 2 251 2 2 252 2 2 252 2 2 252 
2 2 252 2 2 252 2 2 252 3 2 251 3 2 251 3 2 251 3 2 251 3 2 251 3 2 251 3 2 251 2 2 252 2 2 252 2 2 252 2 2 252 2 2 252 2 2 252 2 2 252 2 2 252 2 2 252 2 2 252 2 2 252 2 2 252 2 2 252 2 2 252 3 2 251 3 2 251 3 3 251 3 3 251 3 3 251 3 3 251 3 3 251 3 3 251 3 3 251 3 3 251 3 3 251 3 3 251 3 3 251 3 3 251 3 3 251 3 3 251 3 3 251 3 3 251 3 3 251 3 2 251 3 2 251 3 2 251 3 2 251 3 2 251 3 2 251 3 3 251 3 3 251 3 3 251 3 3 251 3 3 251 3 3 251 3 3 251 3 3 251 3 3 251 3 3 251 3 3 251 3 3 251 4 3 250 4 3 250 4 3 250 4 3 250 3 3 251 3 3 251 3 3 251 3 3 251 3 3 251 3 2 251 2 2 252 2 2 252 2 2 252 2 2 252 2 2 252 2 2 252 2 2 252 3 2 251 3 2 251 3 3 251 3 3 251 3 3 251 3 3 251 3 2 251 3 2 251 3 2 251 2 2 252 2 2 252 2 2 252 2 2 252 2 2 252 2 2 252 2 2 252 3 2 251 3 2 251 3 2 251 3 3 251 3 3 251 3 3 251 3 3 251 3 2 251 3 2 251 2 2 252 2 2 252 2 2 252 2 2 252 2 2 252 2 2 252 2 2 252 3 2 251 3 3 251 3 3 251 3 3 251 3 3 251 3 3 251 4 3 250 4 3 250 4 3 250 4 3 250 3 3 251 3 3 251 3 3 251 3 3 251 3 3 251 3 3 251 3 3 251 3 3 251 3 3 251 3 3 251 3 3 251 3 3 251 3 2 251 3 2 251 3 2 251 3 2 251 3 2 251 3 2 251 3 3 251 3 3 251 3 3 251 3 3 251 3 3 251 3 3 251 3 3 251 3 3 251 3 3 251 3 3 251 3 3 251 3 3 251 3 3 251 3 3 251 3 3 251 3 3 251 3 3 251 3 2 251 3 2 251 2 2 252 2 2 252 2 2 252 2 2 252 2 2 252 2 2 252 2 2 252 2 2 252 2 2 252 2 2 252 2 2 252 2 2 252 2 2 252 2 2 252 3 2 251 3 2 251 3 2 251 3 2 251 3 2 251 3 2 251 3 2 251 2 2 252 2 2 252 2 2 252 
2 2 252 2 2 252 2 2 252 2 2 252 3 2 251 3 2 251 3 2 251 2 2 252 2 2 252 2 2 252 2 2 252 2 2 252 2 2 252 2 2 252 2 2 252 2 2 252 2 2 252 2 2 252 2 2 252 2 2 252 2 2 252 2 2 252 2 2 252 3 2 251 3 2 251 3 2 251 3 3 251 3 3 251 3 3 251 3 3 251 3 3 251 3 3 251 3 3 251 3 3 251 3 3 251 3 3 251 3 3 251 3 3 251 3 3 251 3 3 251 3 3 251 3 3 251 3 2 251 3 2 251 3 2 251 3 2 251 3 2 251 3 2 251 3 2 251 3 2 251 3 2 251 3 2 251 3 3 251 3 3 251 3 3 251 3 3 251 3 3 251 3 3 251 3 3 251 3 3 251 3 3 251 3 3 251 3 3 251 3 3 251 3 3 251 3 3 251 3 3 251 3 3 251 3 3 251 3 3 251 3 2 251 3 2 251 2 2 252 2 2 252 2 2 252 2 2 252 2 2 252 2 2 252 2 2 252 3 2 251 3 2 251 3 2 251 3 3 251 3 2 251 3 2 251 3 2 251 2 2 252 2 2 252 2 2 252 2 2 252 2 2 252 2 2 252 2 2 252 2 2 252 2 2 252 3 2 251 3 2 251 3 2 251 3 3 251 3 2 251 3 2 251 3 2 251 2 2 252 2 2 252 2 2 252 2 2 252 2 2 252 2 2 252 2 2 252 3 2 251 3 2 251 3 3 251 3 3 251 3 3 251 3 3 251 3 3 251 3 3 251 3 3 251 3 3 251 3 3 251 3 3 251 3 3 251 3 3 251 3 3 251 3 3 251 3 3 251 3 3 251 3 3 251 3 3 251 3 2 251 3 2 251 3 2 251 3 2 251 3 2 251 3 2 251 3 2 251 3 2 251 3 2 251 3 2 251 3 3 251 3 3 251 3 3 251 3 3 251 3 3 251 3 3 251 3 3 251 3 3 251 3 3 251 3 3 251 3 3 251 3 3 251 3 3 251 3 3 251 3 3 251 3 3 251 3 2 251 3 2 251 3 2 251 2 2 252 2 2 252 2 2 252 2 2 252 2 2 252 2 2 252 2 2 252 2 2 252 2 2 252 2 2 252 2 2 252 2 2 252 2 2 252 2 2 252 2 2 252 2 2 252 3 2 251 3 2 251 3 2 251 2 2 252 2 2 252 2 2 252 2 2 252 
2 2 252 2 2 252 2 2 252 2 2 252 2 2 252 2 2 252 2 2 252 2 2 252 2 2 252 2 2 252 2 2 252 2 2 252 2 2 252 2 2 252 2 2 252 2 2 252 2 2 252 2 2 252 2 2 252 2 2 252 2 2 252 2 2 252 3 2 251 3 2 251 3 2 251 3 3 251 3 3 251 3 3 251 3 3 251 3 3 251 3 3 251 3 3 251 3 3 251 3 3 251 3 3 251 3 3 251 3 3 251 3 3 251 3 3 251 3 3 251 3 2 251 3 2 251 3 2 251 3 2 251 3 2 251 3 2 251 3 2 251 3 2 251 3 2 251 3 2 251 3 2 251 3 2 251 3 2 251 3 2 251 3 2 251 3 2 251 3 3 251 3 3 251 3 3 251 3 3 251 3 3 251 3 3 251 3 3 251 3 3 251 3 3 251 3 3 251 3 3 251 3 3 251 3 3 251 3 3 251 3 3 251 3 2 251 2 2 252 2 2 252 2 2 252 2 2 252 2 2 252 2 2 252 2 2 252 3 2 251 3 2 251 3 2 251 3 2 251 3 2 251 3 2 251 3 2 251 2 2 252 2 2 252 2 2 252 2 2 252 2 2 252 2 2 252 2 2 252 2 2 252 2 2 252 3 2 251 3 2 251 3 2 251 3 2 251 3 2 251 3 2 251 3 2 251 2 2 252 2 2 252 2 2 252 2 2 252 2 2 252 2 2 252 2 2 252 3 2 251 3 3 251 3 3 251 3 3 251 3 3 251 3 3 251 3 3 251 3 3 251 3 3 251 3 3 251 3 3 251 3 3 251 3 3 251 3 3 251 3 3 251 3 3 251 3 2 251 3 2 251 3 2 251 3 2 251 3 2 251 3 2 251 3 2 251 3 2 251 3 2 251 3 2 251 3 2 251 3 2 251 3 2 251 3 2 251 3 2 251 3 2 251 3 3 251 3 3 251 3 3 251 3 3 251 3 3 251 3 3 251 3 3 251 3 3 251 3 3 251 3 3 251 3 3 251 3 3 251 3 3 251 3 3 251 3 3 251 3 2 251 3 2 251 3 2 251 2 2 252 2 2 252 2 2 252 2 2 252 2 2 252 2 2 252 2 2 252 2 2 252 2 2 252 2 2 252 2 2 252 2 2 252 2 2 252 2 2 252 2 2 252 2 2 252 2 2 252 2 2 252 2 2 252 2 2 252 2 2 252 2 2 252 
2 2 252 2 2 252 2 2 252 2 2 252 2 2 252 2 2 252 2 2 252 2 2 252 2 2 252 2 2 252 2 2 252 2 2 252 2 2 252 2 2 252 2 2 252 2 2 252 2 2 252 2 2 252 2 2 252 2 2 252 2 2 252 3 2 251 3 2 251 3 2 251 3 3 251 3 3 251 3 3 251 3 3 251 3 3 251 3 3 251 3 3 251 3 3 251 3 3 251 3 3 251 3 3 251 3 3 251 3 3 251 3 3 251 3 3 251 3 2 251 3 2 251 3 2 251 3 2 251 3 2 251 3 2 251 3 2 251 3 2 251 3 2 251 3 2 251 2 2 252 2 2 252 2 2 252 2 2 252 2 2 252 2 2 252 2 2 252 3 2 251 3 2 251 3 3 251 3 3 251 3 3 251 3 3 251 3 3 251 3 3 251 3 3 251 3 3 251 3 3 251 3 3 251 3 3 251 3 3 251 3 3 251 3 2 251 3 2 251 2 2 252 2 2 252 2 2 252 2 2 252 2 2 252 2 2 252 3 2 251 3 2 251 3 2 251 3 2 251 3 2 251 3 2 251 3 2 251 2 2 252 2 2 252 2 2 252 2 2 252 2 2 252 2 2 252 2 2 252 2 2 252 2 2 252 3 2 251 3 2 251 3 2 251 3 2 251 3 2 251 3 2 251 3 2 251 2 2 252 2 2 252 2 2 252 2 2 252 2 2 252 2 2 252 3 2 251 3 2 251 3 3 251 3 3 251 3 3 251 3 3 251 3 3 251 3 3 251 3 3 251 3 3 251 3 3 251 3 3 251 3 3 251 3 3 251 3 3 251 3 2 251 3 2 251 2 2 252 2 2 252 2 2 252 2 2 252 2 2 252 2 2 252 2 2 252 3 2 251 3 2 251 3 2 251 3 2 251 3 2 251 3 2 251 3 2 251 3 2 251 3 2 251 3 2 251 3 3 251 3 3 251 3 3 251 3 3 251 3 3 251 3 3 251 3 3 251 3 3 251 3 3 251 3 3 251 3 3 251 3 3 251 3 3 251 3 3 251 3 3 251 3 2 251 3 2 251 3 2 251 2 2 252 2 2 252 2 2 252 2 2 252 2 2 252 2 2 252 2 2 252 2 2 252 2 2 252 2 2 252 2 2 252 2 2 252 2 2 252 2 2 252 2 2 252 2 2 252 2 2 252 2 2 252 2 2 252 2 2 252 2 2 252 
2 2 252 2 2 252 2 2 252 2 2 252 2 2 252 2 2 252 2 2 252 2 2 252 2 2 252 2 2 252 2 2 252 2 2 252 2 2 252 2 2 252 2 2 252 2 2 252 2 2 252 2 2 252 2 2 252 2 2 252 3 2 251 3 2 251 3 2 251 3 3 251 3 3 251 3 3 251 3 3 251 3 3 251 3 3 251 3 3 251 3 3 251 3 3 251 3 3 251 3 3 251 3 3 251 3 3 251 3 2 251 3 2 251 3 2 251 3 2 251 3 2 251 3 2 251 3 2 251 3 2 251 3 2 251 3 2 251 3 2 251 3 2 251 2 2 252 2 2 252 2 2 252 2 2 252 2 2 252 2 2 252 2 2 252 2 2 252 2 2 252 3 2 251 3 2 251 3 3 251 3 3 251 3 3 251 3 3 251 3 3 251 3 3 251 3 3 251 3 3 251 3 3 251 3 3 251 3 3 251 3 3 251 3 2 251 3 2 251 2 2 252 2 2 252 2 2 252 2 2 252 2 2 252 3 2 251 3 2 251 3 2 251 3 3 251 3 3 251 3 3 251 3 2 251 3 2 251 3 2 251 2 2 252 2 2 252 2 2 252 2 2 252 2 2 252 2 2 252 2 2 252 3 2 251 3 2 251 3 2 251 3 3 251 3 3 251 3 3 251 3 2 251 3 2 251 3 2 251 2 2 252 2 2 252 2 2 252 2 2 252 2 2 252 3 2 251 3 2 251 3 3 251 3 3 251 3 3 251 3 3 251 3 3 251 3 3 251 3 3 251 3 3 251 3 3 251 3 3 251 3 3 251 3 3 251 3 2 251 3 2 251 2 2 252 2 2 252 2 2 252 2 2 252 2 2 252 2 2 252 2 2 252 2 2 252 2 2 252 3 2 251 3 2 251 3 2 251 3 2 251 3 2 251 3 2 251 3 2 251 3 2 251 3 2 251 3 2 251 3 2 251 3 2 251 3 3 251 3 3 251 3 3 251 3 3 251 3 3 251 3 3 251 3 3 251 3 3 251 3 3 251 3 3 251 3 3 251 3 3 251 3 3 251 3 2 251 3 2 251 3 2 251 2 2 252 2 2 252 2 2 252 2 2 252 2 2 252 2 2 252 2 2 252 2 2 252 2 2 252 2 2 252 2 2 252 2 2 252 2 2 252 2 2 252 2 2 252 2 2 252 2 2 252 2 2 252 2 2 252 2 2 252 
2 2 252 2 2 252 2 2 252 2 2 252 2 2 252 2 2 252 2 2 252 2 2 252 2 2 252 2 2 252 2 2 252 2 2 252 2 2 252 2 2 252 2 2 252 2 2 252 2 2 252 2 2 252 3 2 251 3 2 251 3 2 251 3 2 251 3 2 251 3 3 251 3 3 251 3 3 251 3 3 251 3 3 251 3 3 251 3 3 251 3 3 251 3 3 251 3 3 251 3 2 251 3 2 251 3 2 251 3 2 251 3 2 251 3 2 251 3 2 251 3 2 251 3 2 251 3 2 251 3 2 251 3 2 251 3 2 251 3 2 251 3 2 251 2 2 252 2 2 252 2 2 252 2 2 252 2 2 252 2 2 252 2 2 252 2 2 252 2 2 252 2 2 252 3 2 251 3 3 251 3 3 251 3 3 251 3 3 251 3 3 251 3 3 251 3 3 251 3 3 251 3 3 251 3 3 251 3 3 251 3 3 251 3 2 251 3 2 251 3 2 251 2 2 252 2 2 252 3 2 251 3 2 251 3 2 251 3 3 251 3 3 251 3 3 251 3 3 251 3 3 251 3 3 251 3 2 251 3 2 251 2 2 252 2 2 252 2 2 252 2 2 252 2 2 252 2 2 252 2 2 252 3 2 251 3 2 251 3 3 251 3 3 251 3 3 251 3 3 251 3 3 251 3 3 251 3 2 251 3 2 251 3 2 251 2 2 252 2 2 252 3 2 251 3 2 251 3 2 251 3 3 251 3 3 251 3 3 251 3 3 251 3 3 251 3 3 251 3 3 251 3 3 251 3 3 251 3 3 251 3 3 251 3 3 251 3 2 251 2 2 252 2 2 252 2 2 252 2 2 252 2 2 252 2 2 252 2 2 252 2 2 252 2 2 252 2 2 252 3 2 251 3 2 251 3 2 251 3 2 251 3 2 251 3 2 251 3 2 251 3 2 251 3 2 251 3 2 251 3 2 251 3 2 251 3 2 251 3 2 251 3 2 251 3 3 251 3 3 251 3 3 251 3 3 251 3 3 251 3 3 251 3 3 251 3 3 251 3 3 251 3 3 251 3 2 251 3 2 251 3 2 251 3 2 251 3 2 251 2 2 252 2 2 252 2 2 252 2 2 252 2 2 252 2 2 252 2 2 252 2 2 252 2 2 252 2 2 252 2 2 252 2 2 252 2 2 252 2 2 252 2 2 252 2 2 252 2 2 252 2 2 252 
2 2 252 2 2 252 2 2 252 2 2 252 2 2 252 2 2 252 2 2 252 2 2 252 2 2 252 2 2 252 2 2 252 2 2 252 2 2 252 2 2 252 2 2 252 2 2 252 2 2 252 3 2 251 3 2 251 3 2 251 3 2 251 3 2 251 3 3 251 3 3 251 3 3 251 3 3 251 3 3 251 3 3 251 3 3 251 3 2 251 3 2 251 3 2 251 3 2 251 3 2 251 3 2 251 2 2 252 2 2 252 2 2 252 2 2 252 2 2 252 3 2 251 3 2 251 3 2 251 3 2 251 3 2 251 3 2 251 3 2 251 3 2 251 2 2 252 2 2 252 2 2 252 2 2 252 2 2 252 2 2 252 2 2 252 2 2 252 2 2 252 2 2 252 3 2 251 3 3 251 3 3 251 3 3 251 3 3 251 3 3 251 3 3 251 3 3 251 3 3 251 3 3 251 3 3 251 3 3 251 3 3 251 3 2 251 3 2 251 3 2 251 3 2 251 3 2 251 3 2 251 3 3 251 3 3 251 3 3 251 3 3 251 3 3 251 3 3 251 3 3 251 3 3 251 3 3 251 3 2 251 2 2 252 2 2 252 2 2 252 2 2 252 2 2 252 2 2 252 2 2 252 3 2 251 3 3 251 3 3 251 3 3 251 3 3 251 3 3 251 3 3 251 3 3 251 3 3 251 3 3 251 3 2 251 3 2 251 3 2 251 3 2 251 3 2 251 3 2 251 3 3 251 3 3 251 3 3 251 3 3 251 3 3 251 3 3 251 3 3 251 3 3 251 3 3 251 3 3 251 3 3 251 3 3 251 3 2 251 2 2 252 2 2 252 2 2 252 2 2 252 2 2 252 2 2 252 2 2 252 2 2 252 2 2 252 2 2 252 3 2 251 3 2 251 3 2 251 3 2 251 3 2 251 3 2 251 3 2 251 3 2 251 2 2 252 2 2 252 2 2 252 2 2 252 2 2 252 3 2 251 3 2 251 3 2 251 3 2 251 3 2 251 3 2 251 3 3 251 3 3 251 3 3 251 3 3 251 3 3 251 3 3 251 3 3 251 3 2 251 3 2 251 3 2 251 3 2 251 3 2 251 2 2 252 2 2 252 2 2 252 2 2 252 2 2 252 2 2 252 2 2 252 2 2 252 2 2 252 2 2 252 2 2 252 2 2 252 2 2 252 2 2 252 2 2 252 2 2 252 2 2 252 
2 2 252 2 2 252 2 2 252 2 2 252 2 2 252 2 2 252 2 2 252 2 2 252 2 2 252 2 2 252 2 2 252 2 2 252 2 2 252 2 2 252 2 2 252 2 2 252 3 2 251 3 2 251 3 2 251 3 2 251 3 2 251 3 3 251 3 3 251 3 3 251 3 3 251 3 2 251 3 2 251 3 2 251 3 2 251 3 2 251 3 2 251 2 2 252 2 2 252 2 2 252 2 2 252 2 2 252 2 2 252 2 2 252 2 2 252 2 2 252 3 2 251 3 2 251 3 2 251 3 2 251 3 2 251 3 2 251 3 2 251 3 2 251 3 2 251 2 2 252 2 2 252 2 2 252 2 2 252 2 2 252 2 2 252 2 2 252 2 2 252 3 2 251 3 3 251 3 3 251 3 3 251 3 3 251 3 3 251 3 3 251 3 3 251 3 3 251 3 3 251 3 3 251 3 3 251 3 3 251 3 3 251 3 2 251 3 2 251 3 2 251 3 2 251 3 2 251 3 3 251 3 3 251 3 3 251 3 3 251 3 3 251 3 3 251 3 3 251 3 3 251 3 3 251 3 3 251 3 2 251 2 2 252 2 2 252 2 2 252 2 2 252 2 2 252 2 2 252 2 2 252 3 2 251 3 3 251 3 3 251 3 3 251 3 3 251 3 3 251 3 3 251 3 3 251 3 3 251 3 3 251 3 3 251 3 2 251 3 2 251 3 2 251 3 2 251 3 2 251 3 3 251 3 3 251 3 3 251 3 3 251 3 3 251 3 3 251 3 3 251 3 3 251 3 3 251 3 3 251 3 3 251 3 3 251 3 3 251 3 2 251 2 2 252 2 2 252 2 2 252 2 2 252 2 2 252 2 2 252 2 2 252 2 2 252 3 2 251 3 2 251 3 2 251 3 2 251 3 2 251 3 2 251 3 2 251 3 2 251 3 2 251 2 2 252 2 2 252 2 2 252 2 2 252 2 2 252 2 2 252 2 2 252 2 2 252 2 2 252 3 2 251 3 2 251 3 2 251 3 2 251 3 2 251 3 2 251 3 3 251 3 3 251 3 3 251 3 3 251 3 2 251 3 2 251 3 2 251 3 2 251 3 2 251 2 2 252 2 2 252 2 2 252 2 2 252 2 2 252 2 2 252 2 2 252 2 2 252 2 2 252 2 2 252 2 2 252 2 2 252 2 2 252 2 2 252 2 2 252 2 2 252 
2 2 252 2 2 252 2 2 252 2 2 252 2 2 252 2 2 252 2 2 252 2 2 252 2 2 252 2 2 252 2 2 252 2 2 252 2 2 252 2 2 252 3 2 251 3 2 251 3 2 251 3 2 251 3 2 251 3 2 251 3 2 251 3 2 251 3 2 251 3 2 251 3 2 251 3 2 251 3 2 251 3 2 251 2 2 252 2 2 252 2 2 252 2 2 252 2 2 252 2 2 252 2 2 252 2 2 252 2 2 252 2 2 252 2 2 252 3 2 251 3 2 251 3 2 251 3 2 251 3 2 251 3 3 251 3 2 251 3 2 251 3 2 251 3 2 251 3 2 251 2 2 252 2 2 252 2 2 252 2 2 252 2 2 252 3 2 251 3 2 251 3 3 251 3 3 251 3 3 251 3 3 251 3 3 251 3 3 251 3 3 251 3 3 251 3 3 251 3 3 251 3 3 251 3 3 251 3 3 251 3 3 251 3 2 251 3 2 251 3 2 251 3 2 251 3 2 251 3 3 251 3 3 251 3 3 251 3 3 251 3 3 251 3 3 251 3 3 251 3 3 251 3 3 251 3 3 251 3 3 251 3 2 251 2 2 252 2 2 252 2 2 252 2 2 252 2 2 252 3 2 251 3 3 251 3 3 251 3 3 251 3 3 251 3 3 251 3 3 251 3 3 251 3 3 251 3 3 251 3 3 251 3 3 251 3 2 251 3 2 251 3 2 251 3 2 251 3 2 251 3 3 251 3 3 251 3 3 251 3 3 251 3 3 251 3 3 251 3 3 251 3 3 251 3 3 251 3 3 251 3 3 251 3 3 251 3 3 251 3 3 251 3 2 251 3 2 251 2 2 252 2 2 252 2 2 252 2 2 252 2 2 252 3 2 251 3 2 251 3 2 251 3 2 251 3 2 251 3 3 251 3 2 251 3 2 251 3 2 251 3 2 251 3 2 251 2 2 252 2 2 252 2 2 252 2 2 252 2 2 252 2 2 252 2 2 252 2 2 252 2 2 252 2 2 252 2 2 252 3 2 251 3 2 251 3 2 251 3 2 251 3 2 251 3 2 251 3 2 251 3 2 251 3 2 251 3 2 251 3 2 251 3 2 251 3 2 251 3 2 251 2 2 252 2 2 252 2 2 252 2 2 252 2 2 252 2 2 252 2 2 252 2 2 252 2 2 252 2 2 252 2 2 252 2 2 252 2 2 252 2 2 252 
2 2 252 2 2 252 2 2 252 2 2 252 2 2 252 2 2 252 2 2 252 2 2 252 2 2 252 2 2 252 2 2 252 2 2 252 3 2 251 3 2 251 3 2 251 3 2 251 3 2 251 3 2 251 3 3 251 3 3 251 3 2 251 3 2 251 3 2 251 3 2 251 3 2 251 3 2 251 2 2 252 2 2 252 2 2 252 2 2 252 2 2 252 2 2 252 2 2 252 2 2 252 2 2 252 2 2 252 2 2 252 2 2 252 3 2 251 3 2 251 3 2 251 3 3 251 3 3 251 3 3 251 3 3 251 3 3 251 3 3 251 3 3 251 3 2 251 3 2 251 3 2 251 3 2 251 3 2 251 3 2 251 3 2 251 3 3 251 3 3 251 3 3 251 3 3 251 3 3 251 3 3 251 4 3 250 4 3 250 4 3 250 4 3 250 3 3 251 3 3 251 3 3 251 3 3 251 3 3 251 3 2 251 3 2 251 2 2 252 2 2 252 3 2 251 3 2 251 3 3 251 3 3 251 3 3 251 3 3 251 3 3 251 3 3 251 3 3 251 3 3 251 3 3 251 3 3 251 3 3 251 3 2 251 2 2 252 2 2 252 2 2 252 2 2 252 2 2 252 3 2 251 3 3 251 3 3 251 3 3 251 3 3 251 3 3 251 3 3 251 3 3 251 3 3 251 3 3 251 3 3 251 3 3 251 3 2 251 3 2 251 2 2 252 2 2 252 3 2 251 3 2 251 3 3 251 3 3 251 3 3 251 3 3 251 3 3 251 4 3 250 4 3 250 4 3 250 4 3 250 3 3 251 3 3 251 3 3 251 3 3 251 3 3 251 3 3 251 3 2 251 3 2 251 3 2 251 3 2 251 3 2 251 3 2 251 3 2 251 3 3 251 3 3 251 3 3 251 3 3 251 3 3 251 3 3 251 3 3 251 3 2 251 3 2 251 3 2 251 2 2 252 2 2 252 2 2 252 2 2 252 2 2 252 2 2 252 2 2 252 2 2 252 2 2 252 2 2 252 2 2 252 2 2 252 3 2 251 3 2 251 3 2 251 3 2 251 3 2 251 3 2 251 3 3 251 3 3 251 3 2 251 3 2 251 3 2 251 3 2 251 3 2 251 3 2 251 2 2 252 2 2 252 2 2 252 2 2 252 2 2 252 2 2 252 2 2 252 2 2 252 2 2 252 2 2 252 2 2 252 2 2 252 
2 2 252 2 2 252 2 2 252 2 2 252 2 2 252 2 2 252 2 2 252 2 2 252 2 2 252 2 2 252 2 2 252 3 2 251 3 2 251 3 2 251 3 2 251 3 2 251 3 3 251 3 3 251 3 3 251 3 2 251 3 2 251 3 2 251 3 2 251 3 2 251 2 2 252 2 2 252 2 2 252 2 2 252 2 2 252 2 2 252 2 2 252 2 2 252 2 2 252 2 2 252 2 2 252 2 2 252 2 2 252 3 2 251 3 2 251 3 2 251 3 3 251 3 3 251 3 3 251 3 3 251 3 3 251 3 3 251 3 3 251 3 3 251 3 3 251 3 3 251 3 3 251 3 3 251 3 3 251 3 3 251 3 3 251 3 3 251 3 3 251 3 3 251 4 3 250 4 3 250 4 4 250 4 4 250 4 4 250 4 4 250 4 4 250 4 3 250 3 3 251 3 3 251 3 3 251 3 3 251 3 2 251 2 2 252 2 2 252 2 2 252 3 2 251 3 2 251 3 3 251 3 3 251 3 3 251 3 3 251 4 3 250 4 3 250 4 3 250 3 3 251 3 3 251 3 3 251 3 3 251 3 2 251 2 2 252 2 2 252 2 2 252 2 2 252 2 2 252 3 2 251 3 3 251 3 3 251 3 3 251 3 3 251 4 3 250 4 3 250 4 3 250 3 3 251 3 3 251 3 3 251 3 3 251 3 2 251 3 2 251 2 2 252 2 2 252 2 2 252 3 2 251 3 3 251 3 3 251 3 3 251 3 3 251 4 3 250 4 4 250 4 4 250 4 4 250 4 4 250 4 4 250 4 3 250 4 3 250 3 3 251 3 3 251 3 3 251 3 3 251 3 3 251 3 3 251 3 3 251 3 3 251 3 3 251 3 3 251 3 3 251 3 3 251 3 3 251 3 3 251 3 3 251 3 3 251 3 3 251 3 3 251 3 2 251 3 2 251 3 2 251 2 2 252 2 2 252 2 2 252 2 2 252 2 2 252 2 2 252 2 2 252 2 2 252 2 2 252 2 2 252 2 2 252 2 2 252 2 2 252 3 2 251 3 2 251 3 2 251 3 2 251 3 2 251 3 3 251 3 3 251 3 3 251 3 2 251 3 2 251 3 2 251 3 2 251 3 2 251 2 2 252 2 2 252 2 2 252 2 2 252 2 2 252 2 2 252 2 2 252 2 2 252 2 2 252 2 2 252 2 2 252 
2 2 252 2 2 252 2 2 252 2 2 252 2 2 252 2 2 252 2 2 252 2 2 252 2 2 252 3 2 251 3 2 251 3 2 251 3 2 251 3 3 251 3 3 251 3 3 251 3 3 251 3 3 251 3 3 251 3 2 251 3 2 251 3 2 251 3 2 251 2 2 252 2 2 252 2 2 252 2 2 252 2 2 252 2 2 252 2 2 252 2 2 252 2 2 252 2 2 252 2 2 252 2 2 252 3 2 251 3 2 251 3 2 251 3 3 251 3 3 251 3 3 251 3 3 251 3 3 251 3 3 251 3 3 251 3 3 251 3 3 251 3 3 251 3 3 251 3 3 251 3 3 251 3 3 251 3 3 251 3 3 251 3 3 251 3 3 251 4 3 250 4 3 250 4 4 250 4 4 250 4 4 250 4 4 250 4 4 250 4 4 250 4 4 250 4 4 250 4 3 250 3 3 251 3 3 251 3 3 251 3 2 251 2 2 252 2 2 252 2 2 252 3 2 251 3 2 251 3 3 251 3 3 251 3 3 251 3 3 251 4 3 250 4 3 250 4 3 250 3 3 251 3 3 251 3 3 251 3 3 251 3 2 251 2 2 252 2 2 252 2 2 252 2 2 252 2 2 252 3 2 251 3 3 251 3 3 251 3 3 251 3 3 251 4 3 250 4 3 250 4 3 250 3 3 251 3 3 251 3 3 251 3 3 251 3 2 251 3 2 251 2 2 252 2 2 252 2 2 252 3 2 251 3 3 251 3 3 251 3 3 251 4 3 250 4 4 250 4 4 250 4 4 250 4 4 250 4 4 250 4 4 250 4 4 250 4 4 250 4 3 250 4 3 250 3 3 251 3 3 251 3 3 251 3 3 251 3 3 251 3 3 251 3 3 251 3 3 251 3 3 251 3 3 251 3 3 251 3 3 251 3 3 251 3 3 251 3 3 251 3 3 251 3 3 251 3 3 251 3 2 251 3 2 251 3 2 251 2 2 252 2 2 252 2 2 252 2 2 252 2 2 252 2 2 252 2 2 252 2 2 252 2 2 252 2 2 252 2 2 252 2 2 252 3 2 251 3 2 251 3 2 251 3 2 251 3 3 251 3 3 251 3 3 251 3 3 251 3 3 251 3 3 251 3 2 251 3 2 251 3 2 251 3 2 251 2 2 252 2 2 252 2 2 252 2 2 252 2 2 252 2 2 252 2 2 252 2 2 252 2 2 252 
2 2 252 2 2 252 2 2 252 2 2 252 2 2 252 2 2 252 2 2 252 3 2 251 3 2 251 3 2 251 3 2 251 3 3 251 3 3 251 3 3 251 3 3 251 3 3 251 3 3 251 3 3 251 3 2 251 3 2 251 3 2 251 2 2 252 2 2 252 2 2 252 2 2 252 2 2 252 2 2 252 2 2 252 2 2 252 2 2 252 2 2 252 2 2 252 3 2 251 3 2 251 3 2 251 3 3 251 3 3 251 3 3 251 3 3 251 3 3 251 3 3 251 3 3 251 3 3 251 3 3 251 3 3 251 3 3 251 3 3 251 3 3 251 3 3 251 3 3 251 3 3 251 3 3 251 3 3 251 3 3 251 3 3 251 4 3 250 4 4 250 4 4 250 4 4 250 4 4 250 4 4 250 4 4 250 4 4 250 4 4 250 4 4 250 4 4 250 4 3 250 3 3 251 3 3 251 3 3 251 3 2 251 2 2 252 2 2 252 2 2 252 2 2 252 3 2 251 3 3 251 3 3 251 3 3 251 3 3 251 4 3 250 4 3 250 4 3 250 4 3 250 3 3 251 3 3 251 3 3 251 3 2 251 2 2 252 2 2 252 2 2 252 2 2 252 2 2 252 3 2 251 3 3 251 3 3 251 3 3 251 4 3 250 4 3 250 4 3 250 4 3 250 3 3 251 3 3 251 3 3 251 3 3 251 3 2 251 2 2 252 2 2 252 2 2 252 2 2 252 3 2 251 3 3 251 3 3 251 3 3 251 4 3 250 4 4 250 4 4 250 4 4 250 4 4 250 4 4 250 4 4 250 4 4 250 4 4 250 4 4 250 4 4 250 4 3 250 3 3 251 3 3 251 3 3 251 3 3 251 3 3 251 3 3 251 3 3 251 3 3 251 3 3 251 3 3 251 3 3 251 3 3 251 3 3 251 3 3 251 3 3 251 3 3 251 3 3 251 3 3 251 3 3 251 3 3 251 3 2 251 3 2 251 3 2 251 2 2 252 2 2 252 2 2 252 2 2 252 2 2 252 2 2 252 2 2 252 2 2 252 2 2 252 2 2 252 2 2 252 3 2 251 3 2 251 3 2 251 3 3 251 3 3 251 3 3 251 3 3 251 3 3 251 3 3 251 3 3 251 3 2 251 3 2 251 3 2 251 3 2 251 2 2 252 2 2 252 2 2 252 2 2 252 2 2 252 2 2 252 2 2 252 
2 2 252 2 2 252 2 2 252 2 2 252 2 2 252 2 2 252 3 2 251 3 2 251 3 2 251 3 3 251 3 3 251 3 3 251 3 3 251 3 3 251 3 3 251 3 3 251 3 3 251 3 3 251 3 2 251 3 2 251 2 2 252 2 2 252 2 2 252 2 2 252 2 2 252 2 2 252 2 2 252 2 2 252 2 2 252 2 2 252 3 2 251 3 2 251 3 2 251 3 3 251 3 3 251 3 3 251 3 3 251 3 3 251 3 3 251 3 3 251 3 3 251 3 3 251 3 3 251 3 3 251 3 3 251 3 3 251 3 3 251 3 3 251 3 3 251 3 3 251 3 3 251 3 3 251 3 3 251 3 3 251 4 3 250 4 4 250 4 4 250 4 4 250 4 4 250 5 4 249 5 4 249 5 4 249 5 4 249 4 4 250 4 4 250 4 4 250 4 3 250 3 3 251 3 3 251 3 3 251 3 2 251 2 2 252 2 2 252 2 2 252 2 2 252 3 2 251 3 3 251 3 3 251 3 3 251 3 3 251 4 3 250 4 3 250 4 3 250 3 3 251 3 3 251 3 3 251 3 3 251 3 2 251 2 2 252 2 2 252 2 2 252 2 2 252 2 2 252 3 2 251 3 3 251 3 3 251 3 3 251 3 3 251 4 3 250 4 3 250 4 3 250 3 3 251 3 3 251 3 3 251 3 3 251 3 2 251 2 2 252 2 2 252 2 2 252 2 2 252 3 2 251 3 3 251 3 3 251 3 3 251 4 3 250 4 4 250 4 4 250 4 4 250 5 4 249 5 4 249 5 4 249 5 4 249 4 4 250 4 4 250 4 4 250 4 4 250 4 3 250 3 3 251 3 3 251 3 3 251 3 3 251 3 3 251 3 3 251 3 3 251 3 3 251 3 3 251 3 3 251 3 3 251 3 3 251 3 3 251 3 3 251 3 3 251 3 3 251 3 3 251 3 3 251 3 3 251 3 3 251 3 3 251 3 2 251 3 2 251 3 2 251 2 2 252 2 2 252 2 2 252 2 2 252 2 2 252 2 2 252 2 2 252 2 2 252 2 2 252 2 2 252 3 2 251 3 2 251 3 3 251 3 3 251 3 3 251 3 3 251 3 3 251 3 3 251 3 3 251 3 3 251 3 3 251 3 2 251 3 2 251 3 2 251 2 2 252 2 2 252 2 2 252 2 2 252 2 2 252 2 2 252 
2 2 252 2 2 252 2 2 252 2 2 252 2 2 252 3 2 251 3 2 251 3 2 251 3 3 251 3 3 251 3 3 251 3 3 251 3 3 251 3 3 251 3 3 251 3 3 251 3 3 251 3 2 251 3 2 251 3 2 251 2 2 252 2 2 252 2 2 252 2 2 252 2 2 252 2 2 252 2 2 252 2 2 252 2 2 252 3 2 251 3 2 251 3 3 251 3 3 251 3 3 251 3 3 251 3 3 251 3 3 251 3 3 251 3 3 251 3 3 251 3 3 251 3 3 251 3 3 251 3 3 251 3 3 251 3 3 251 3 3 251 3 3 251 3 3 251 3 3 251 3 3 251 3 3 251 3 3 251 4 3 250 4 4 250 4 4 250 4 4 250 4 4 250 5 4 249 5 4 249 5 4 249 5 4 249 5 4 249 5 4 249 4 4 250 4 4 250 4 4 250 3 3 251 3 3 251 3 3 251 3 2 251 2 2 252 2 2 252 2 2 252 2 2 252 2 2 252 3 3 251 3 3 251 3 3 251 3 3 251 3 3 251 4 3 250 4 3 250 3 3 251 3 3 251 3 3 251 3 3 251 3 2 251 2 2 252 2 2 252 2 2 252 2 2 252 2 2 252 3 2 251 3 3 251 3 3 251 3 3 251 3 3 251 4 3 250 4 3 250 3 3 251 3 3 251 3 3 251 3 3 251 3 3 251 2 2 252 2 2 252 2 2 252 2 2 252 2 2 252 3 2 251 3 3 251 3 3 251 3 3 251 4 4 250 4 4 250 4 4 250 5 4 249 5 4 249 5 4 249 5 4 249 5 4 249 5 4 249 4 4 250 4 4 250 4 4 250 4 4 250 4 3 250 3 3 251 3 3 251 3 3 251 3 3 251 3 3 251 3 3 251 3 3 251 3 3 251 3 3 251 3 3 251 3 3 251 3 3 251 3 3 251 3 3 251 3 3 251 3 3 251 3 3 251 3 3 251 3 3 251 3 3 251 3 3 251 3 3 251 3 2 251 3 2 251 2 2 252 2 2 252 2 2 252 2 2 252 2 2 252 2 2 252 2 2 252 2 2 252 2 2 252 3 2 251 3 2 251 3 2 251 3 3 251 3 3 251 3 3 251 3 3 251 3 3 251 3 3 251 3 3 251 3 3 251 3 3 251 3 2 251 3 2 251 3 2 251 2 2 252 2 2 252 2 2 252 2 2 252 2 2 252 
2 2 252 2 2 252 2 2 252 2 2 252 3 2 251 3 2 251 3 2 251 3 3 251 3 3 251 3 3 251 3 3 251 3 3 251 3 3 251 3 3 251 3 3 251 3 3 251 3 2 251 3 2 251 3 2 251 2 2 252 2 2 252 2 2 252 2 2 252 2 2 252 2 2 252 2 2 252 2 2 252 3 2 251 3 2 251 3 3 251 3 3 251 3 3 251 3 3 251 3 3 251 3 3 251 3 3 251 3 3 251 3 3 251 3 3 251 3 3 251 3 3 251 3 3 251 3 3 251 3 3 251 3 3 251 3 3 251 3 3 251 3 3 251 3 3 251 3 3 251 3 3 251 3 3 251 3 3 251 4 3 250 4 4 250 4 4 250 4 4 250 4 4 250 5 4 249 5 4 249 5 4 249 5 4 249 5 4 249 5 4 249 4 4 250 4 4 250 4 4 250 4 3 250 3 3 251 3 3 251 3 2 251 2 2 252 2 2 252 2 2 252 2 2 252 2 2 252 3 2 251 3 3 251 3 3 251 3 3 251 3 3 251 3 3 251 3 3 251 3 3 251 3 3 251 3 3 251 3 3 251 3 2 251 2 2 252 2 2 252 2 2 252 2 2 252 2 2 252 3 2 251 3 3 251 3 3 251 3 3 251 3 3 251 3 3 251 3 3 251 3 3 251 3 3 251 3 3 251 3 3 251 3 2 251 2 2 252 2 2 252 2 2 252 2 2 252 2 2 252 3 2 251 3 3 251 3 3 251 4 3 250 4 4 250 4 4 250 4 4 250 5 4 249 5 4 249 5 4 249 5 4 249 5 4 249 5 4 249 4 4 250 4 4 250 4 4 250 4 4 250 4 3 250 3 3 251 3 3 251 3 3 251 3 3 251 3 3 251 3 3 251 3 3 251 3 3 251 3 3 251 3 3 251 3 3 251 3 3 251 3 3 251 3 3 251 3 3 251 3 3 251 3 3 251 3 3 251 3 3 251 3 3 251 3 3 251 3 3 251 3 3 251 3 3 251 3 2 251 3 2 251 2 2 252 2 2 252 2 2 252 2 2 252 2 2 252 2 2 252 2 2 252 2 2 252 3 2 251 3 2 251 3 2 251 3 3 251 3 3 251 3 3 251 3 3 251 3 3 251 3 3 251 3 3 251 3 3 251 3 3 251 3 2 251 3 2 251 3 2 251 2 2 252 2 2 252 2 2 252 2 2 252 
2 2 252 2 2 252 2 2 252 3 2 251 3 2 251 3 2 251 3 3 251 3 3 251 3 3 251 3 3 251 3 3 251 3 3 251 3 3 251 3 3 251 3 3 251 3 3 251 3 2 251 3 2 251 2 2 252 2 2 252 2 2 252 2 2 252 2 2 252 2 2 252 2 2 252 2 2 252 3 2 251 3 2 251 3 3 251 3 3 251 3 3 251 3 3 251 3 3 251 3 3 251 3 3 251 3 3 251 3 3 251 3 3 251 3 3 251 3 3 251 3 3 251 3 3 251 3 3 251 3 3 251 3 3 251 3 3 251 3 3 251 3 3 251 3 3 251 3 3 251 3 3 251 3 3 251 3 3 251 3 3 251 4 3 250 4 4 250 4 4 250 4 4 250 4 4 250 5 4 249 5 4 249 5 4 249 5 4 249 5 4 249 4 4 250 4 4 250 4 4 250 4 3 250 3 3 251 3 3 251 3 2 251 2 2 252 2 2 252 2 2 252 2 2 252 2 2 252 3 2 251 3 2 251 3 3 251 3 3 251 3 3 251 3 3 251 3 3 251 3 3 251 3 3 251 3 3 251 3 3 251 3 2 251 2 2 252 2 2 252 2 2 252 2 2 252 2 2 252 3 2 251 3 3 251 3 3 251 3 3 251 3 3 251 3 3 251 3 3 251 3 3 251 3 3 251 3 3 251 3 2 251 3 2 251 2 2 252 2 2 252 2 2 252 2 2 252 2 2 252 3 2 251 3 3 251 3 3 251 4 3 250 4 4 250 4 4 250 4 4 250 5 4 249 5 4 249 5 4 249 5 4 249 5 4 249 4 4 250 4 4 250 4 4 250 4 4 250 4 3 250 3 3 251 3 3 251 3 3 251 3 3 251 3 3 251 3 3 251 3 3 251 3 3 251 3 3 251 3 3 251 3 3 251 3 3 251 3 3 251 3 3 251 3 3 251 3 3 251 3 3 251 3 3 251 3 3 251 3 3 251 3 3 251 3 3 251 3 3 251 3 3 251 3 3 251 3 3 251 3 2 251 3 2 251 2 2 252 2 2 252 2 2 252 2 2 252 2 2 252 2 2 252 2 2 252 2 2 252 3 2 251 3 2 251 3 3 251 3 3 251 3 3 251 3 3 251 3 3 251 3 3 251 3 3 251 3 3 251 3 3 251 3 3 251 3 2 251 3 2 251 3 2 251 2 2 252 2 2 252 2 2 252 
2 2 252 2 2 252 2 2 252 3 2 251 3 2 251 3 3 251 3 3 251 3 3 251 3 3 251 3 3 251 3 3 251 3 3 251 3 3 251 3 3 251 3 3 251 3 2 251 3 2 251 2 2 252 2 2 252 2 2 252 2 2 252 2 2 252 2 2 252 2 2 252 2 2 252 3 2 251 3 3 251 3 3 251 3 3 251 3 3 251 3 3 251 3 3 251 4 3 250 4 3 250 4 3 250 4 3 250 4 3 250 3 3 251 3 3 251 3 3 251 3 3 251 3 3 251 3 3 251 3 3 251 3 3 251 3 3 251 3 3 251 3 3 251 3 3 251 3 3 251 3 3 251 3 3 251 3 3 251 3 3 251 3 3 251 4 3 250 4 4 250 4 4 250 4 4 250 4 4 250 4 4 250 4 4 250 4 4 250 4 4 250 4 4 250 4 4 250 4 4 250 4 3 250 3 3 251 3 3 251 3 3 251 2 2 252 2 2 252 2 2 252 2 2 252 2 2 252 2 2 252 3 2 251 3 3 251 3 3 251 3 3 251 3 3 251 3 3 251 3 3 251 3 3 251 3 3 251 3 2 251 3 2 251 2 2 252 2 2 252 2 2 252 2 2 252 2 2 252 3 2 251 3 2 251 3 3 251 3 3 251 3 3 251 3 3 251 3 3 251 3 3 251 3 3 251 3 3 251 3 2 251 2 2 252 2 2 252 2 2 252 2 2 252 2 2 252 2 2 252 3 3 251 3 3 251 3 3 251 4 3 250 4 4 250 4 4 250 4 4 250 4 4 250 4 4 250 4 4 250 4 4 250 4 4 250 4 4 250 4 4 250 4 4 250 4 3 250 3 3 251 3 3 251 3 3 251 3 3 251 3 3 251 3 3 251 3 3 251 3 3 251 3 3 251 3 3 251 3 3 251 3 3 251 3 3 251 3 3 251 3 3 251 3 3 251 3 3 251 3 3 251 4 3 250 4 3 250 4 3 250 4 3 250 4 3 250 3 3 251 3 3 251 3 3 251 3 3 251 3 3 251 3 3 251 3 2 251 2 2 252 2 2 252 2 2 252 2 2 252 2 2 252 2 2 252 2 2 252 2 2 252 3 2 251 3 2 251 3 3 251 3 3 251 3 3 251 3 3 251 3 3 251 3 3 251 3 3 251 3 3 251 3 3 251 3 3 251 3 2 251 3 2 251 2 2 252 2 2 252 2 2 252 
2 2 252 2 2 252 3 2 251 3 2 251 3 2 251 3 3 251 3 3 251 3 3 251 3 3 251 3 3 251 3 3 251 3 3 251 3 3 251 3 3 251 3 2 251 3 2 251 2 2 252 2 2 252 2 2 252 2 2 252 2 2 252 2 2 252 2 2 252 2 2 252 3 2 251 3 3 251 3 3 251 3 3 251 3 3 251 3 3 251 3 3 251 4 3 250 4 3 250 4 3 250 4 3 250 4 3 250 4 3 250 3 3 251 3 3 251 3 3 251 3 3 251 3 3 251 3 3 251 3 3 251 3 3 251 3 3 251 3 3 251 3 3 251 3 3 251 3 3 251 3 3 251 3 3 251 3 3 251 3 3 251 3 3 251 3 3 251 3 3 251 4 3 250 4 3 250 4 4 250 4 4 250 4 4 250 4 4 250 4 4 250 4 4 250 4 4 250 4 3 250 3 3 251 3 3 251 3 3 251 3 3 251 3 2 251 2 2 252 2 2 252 2 2 252 2 2 252 2 2 252 2 2 252 3 2 251 3 3 251 3 3 251 3 3 251 3 3 251 3 3 251 3 3 251 3 3 251 3 2 251 2 2 252 2 2 252 2 2 252 2 2 252 2 2 252 2 2 252 2 2 252 3 2 251 3 3 251 3 3 251 3 3 251 3 3 251 3 3 251 3 3 251 3 3 251 3 2 251 2 2 252 2 2 252 2 2 252 2 2 252 2 2 252 2 2 252 3 2 251 3 3 251 3 3 251 3 3 251 3 3 251 4 3 250 4 4 250 4 4 250 4 4 250 4 4 250 4 4 250 4 4 250 4 4 250 4 3 250 4 3 250 3 3 251 3 3 251 3 3 251 3 3 251 3 3 251 3 3 251 3 3 251 3 3 251 3 3 251 3 3 251 3 3 251 3 3 251 3 3 251 3 3 251 3 3 251 3 3 251 3 3 251 3 3 251 3 3 251 3 3 251 4 3 250 4 3 250 4 3 250 4 3 250 4 3 250 4 3 250 3 3 251 3 3 251 3 3 251 3 3 251 3 3 251 3 3 251 3 2 251 2 2 252 2 2 252 2 2 252 2 2 252 2 2 252 2 2 252 2 2 252 2 2 252 3 2 251 3 2 251 3 3 251 3 3 251 3 3 251 3 3 251 3 3 251 3 3 251 3 3 251 3 3 251 3 3 251 3 2 251 3 2 251 3 2 251 2 2 252 2 2 252 
2 2 252 2 2 252 3 2 251 3 2 251 3 2 251 3 3 251 3 3 251 3 3 251 3 3 251 3 3 251 3 3 251 3 3 251 3 3 251 3 2 251 3 2 251 2 2 252 2 2 252 2 2 252 2 2 252 2 2 252 2 2 252 2 2 252 2 2 252 3 2 251 3 2 251 3 3 251 3 3 251 3 3 251 3 3 251 3 3 251 4 3 250 4 3 250 4 3 250 4 3 250 4 3 250 4 3 250 3 3 251 3 3 251 3 3 251 3 3 251 3 3 251 3 3 251 3 3 251 3 3 251 3 2 251 3 2 251 3 2 251 3 2 251 3 2 251 3 2 251 3 2 251 3 2 251 3 2 251 3 3 251 3 3 251 3 3 251 3 3 251 3 3 251 3 3 251 3 3 251 4 3 250 4 3 250 4 4 250 4 4 250 4 4 250 4 3 250 4 3 250 3 3 251 3 3 251 3 3 251 3 3 251 3 2 251 2 2 252 2 2 252 2 2 252 2 2 252 2 2 252 2 2 252 2 2 252 3 2 251 3 3 251 3 3 251 3 3 251 3 3 251 3 3 251 3 2 251 3 2 251 2 2 252 2 2 252 2 2 252 2 2 252 2 2 252 2 2 252 2 2 252 3 2 251 3 2 251 3 3 251 3 3 251 3 3 251 3 3 251 3 3 251 3 2 251 2 2 252 2 2 252 2 2 252 2 2 252 2 2 252 2 2 252 2 2 252 3 2 251 3 3 251 3 3 251 3 3 251 3 3 251 4 3 250 4 3 250 4 4 250 4 4 250 4 4 250 4 3 250 4 3 250 3 3 251 3 3 251 3 3 251 3 3 251 3 3 251 3 3 251 3 3 251 3 2 251 3 2 251 3 2 251 3 2 251 3 2 251 3 2 251 3 2 251 3 2 251 3 2 251 3 3 251 3 3 251 3 3 251 3 3 251 3 3 251 3 3 251 3 3 251 3 3 251 4 3 250 4 3 250 4 3 250 4 3 250 4 3 250 4 3 250 3 3 251 3 3 251 3 3 251 3 3 251 3 3 251 3 2 251 3 2 251 2 2 252 2 2 252 2 2 252 2 2 252 2 2 252 2 2 252 2 2 252 2 2 252 3 2 251 3 2 251 3 3 251 3 3 251 3 3 251 3 3 251 3 3 251 3 3 251 3 3 251 3 3 251 3 2 251 3 2 251 3 2 251 2 2 252 2 2 252 
2 2 252 3 2 251 3 2 251 3 2 251 3 3 251 3 3 251 3 3 251 3 3 251 3 3 251 3 3 251 3 3 251 3 2 251 3 2 251 3 2 251 2 2 252 2 2 252 2 2 252 2 2 252 2 2 252 2 2 252 2 2 252 2 2 252 3 2 251 3 2 251 3 3 251 3 3 251 3 3 251 3 3 251 3 3 251 4 3 250 4 3 250 4 3 250 4 3 250 4 3 250 4 3 250 3 3 251 3 3 251 3 3 251 3 3 251 3 3 251 3 3 251 3 3 251 3 2 251 3 2 251 3 2 251 3 2 251 3 2 251 3 2 251 3 2 251 3 2 251 2 2 252 2 2 252 2 2 252 2 2 252 2 2 252 3 2 251 3 2 251 3 3 251 3 3 251 3 3 251 3 3 251 3 3 251 3 3 251 4 3 250 4 3 250 4 3 250 4 3 250 3 3 251 3 3 251 3 3 251 3 3 251 3 2 251 3 2 251 2 2 252 2 2 252 2 2 252 2 2 252 2 2 252 2 2 252 3 2 251 3 2 251 3 2 251 3 3 251 3 3 251 3 2 251 3 2 251 3 2 251 2 2 252 2 2 252 2 2 252 2 2 252 2 2 252 2 2 252 2 2 252 3 2 251 3 2 251 3 2 251 3 3 251 3 3 251 3 2 251 3 2 251 3 2 251 2 2 252 2 2 252 2 2 252 2 2 252 2 2 252 2 2 252 3 2 251 3 2 251 3 3 251 3 3 251 3 3 251 3 3 251 4 3 250 4 3 250 4 3 250 4 3 250 3 3 251 3 3 251 3 3 251 3 3 251 3 3 251 3 3 251 3 2 251 3 2 251 2 2 252 2 2 252 2 2 252 2 2 252 2 2 252 3 2 251 3 2 251 3 2 251 3 2 251 3 2 251 3 2 251 3 2 251 3 2 251 3 3 251 3 3 251 3 3 251 3 3 251 3 3 251 3 3 251 3 3 251 4 3 250 4 3 250 4 3 250 4 3 250 4 3 250 4 3 250 3 3 251 3 3 251 3 3 251 3 3 251 3 3 251 3 2 251 3 2 251 2 2 252 2 2 252 2 2 252 2 2 252 2 2 252 2 2 252 2 2 252 2 2 252 3 2 251 3 2 251 3 2 251 3 3 251 3 3 251 3 3 251 3 3 251 3 3 251 3 3 251 3 3 251 3 2 251 3 2 251 3 2 251 2 2 252 
2 2 252 3 2 251 3 2 251 3 2 251 3 2 251 3 3 251 3 3 251 3 3 251 3 3 251 3 2 251 3 2 251 3 2 251 3 2 251 2 2 252 2 2 252 2 2 252 2 2 252 2 2 252 2 2 252 2 2 252 2 2 252 3 2 251 3 2 251 3 3 251 3 3 251 3 3 251 3 3 251 3 3 251 3 3 251 4 3 250 4 3 250 4 3 250 4 3 250 3 3 251 3 3 251 3 3 251 3 3 251 3 3 251 3 3 251 3 3 251 3 2 251 3 2 251 3 2 251 3 2 251 3 2 251 3 2 251 3 2 251 3 2 251 2 2 252 2 2 252 2 2 252 2 2 252 2 2 252 2 2 252 2 2 252 2 2 252 2 2 252 2 2 252 3 2 251 3 2 251 3 3 251 3 3 251 3 3 251 3 3 251 3 3 251 3 3 251 3 3 251 3 3 251 3 3 251 3 3 251 3 3 251 3 3 251 3 2 251 2 2 252 2 2 252 2 2 252 2 2 252 2 2 252 2 2 252 3 2 251 3 2 251 3 3 251 3 3 251 3 3 251 3 2 251 3 2 251 3 2 251 2 2 252 2 2 252 2 2 252 2 2 252 2 2 252 2 2 252 2 2 252 3 2 251 3 2 251 3 2 251 3 3 251 3 3 251 3 3 251 3 2 251 3 2 251 2 2 252 2 2 252 2 2 252 2 2 252 2 2 252 2 2 252 3 2 251 3 3 251 3 3 251 3 3 251 3 3 251 3 3 251 3 3 251 3 3 251 3 3 251 3 3 251 3 3 251 3 3 251 3 3 251 3 2 251 3 2 251 2 2 252 2 2 252 2 2 252 2 2 252 2 2 252 2 2 252 2 2 252 2 2 252 2 2 252 2 2 252 3 2 251 3 2 251 3 2 251 3 2 251 3 2 251 3 2 251 3 2 251 3 2 251 3 3 251 3 3 251 3 3 251 3 3 251 3 3 251 3 3 251 3 3 251 4 3 250 4 3 250 4 3 250 4 3 250 3 3 251 3 3 251 3 3 251 3 3 251 3 3 251 3 3 251 3 2 251 3 2 251 2 2 252 2 2 252 2 2 252 2 2 252 2 2 252 2 2 252 2 2 252 2 2 252 3 2 251 3 2 251 3 2 251 3 2 251 3 3 251 3 3 251 3 3 251 3 3 251 3 2 251 3 2 251 3 2 251 3 2 251 2 2 252 
3 2 251 3 2 251 3 2 251 3 2 251 3 2 251 3 2 251 3 2 251 3 2 251 3 2 251 3 2 251 3 2 251 2 2 252 2 2 252 2 2 252 2 2 252 2 2 252 2 2 252 2 2 252 2 2 252 2 2 252 3 2 251 3 2 251 3 3 251 3 3 251 3 3 251 3 3 251 3 3 251 3 3 251 3 3 251 3 3 251 3 3 251 3 3 251 3 3 251 3 3 251 3 3 251 3 3 251 3 3 251 3 3 251 3 2 251 3 2 251 3 2 251 3 2 251 3 2 251 3 2 251 3 2 251 3 2 251 3 2 251 3 2 251 3 2 251 2 2 252 2 2 252 2 2 252 2 2 252 2 2 252 2 2 252 2 2 252 2 2 252 2 2 252 2 2 252 3 2 251 3 3 251 3 3 251 3 3 251 3 3 251 3 3 251 3 3 251 3 3 251 3 3 251 3 3 251 3 3 251 3 3 251 3 3 251 3 2 251 2 2 252 2 2 252 2 2 252 2 2 252 2 2 252 3 2 251 3 2 251 3 3 251 3 3 251 3 3 251 3 3 251 3 3 251 3 2 251 3 2 251 2 2 252 2 2 252 2 2 252 2 2 252 2 2 252 2 2 252 2 2 252 3 2 251 3 2 251 3 3 251 3 3 251 3 3 251 3 3 251 3 3 251 3 2 251 3 2 251 2 2 252 2 2 252 2 2 252 2 2 252 2 2 252 3 2 251 3 3 251 3 3 251 3 3 251 3 3 251 3 3 251 3 3 251 3 3 251 3 3 251 3 3 251 3 3 251 3 3 251 3 3 251 3 2 251 2 2 252 2 2 252 2 2 252 2 2 252 2 2 252 2 2 252 2 2 252 2 2 252 2 2 252 2 2 252 3 2 251 3 2 251 3 2 251 3 2 251 3 2 251 3 2 251 3 2 251 3 2 251 3 2 251 3 2 251 3 2 251 3 3 251 3 3 251 3 3 251 3 3 251 3 3 251 3 3 251 3 3 251 3 3 251 3 3 251 3 3 251 3 3 251 3 3 251 3 3 251 3 3 251 3 3 251 3 3 251 3 2 251 3 2 251 2 2 252 2 2 252 2 2 252 2 2 252 2 2 252 2 2 252 2 2 252 2 2 252 2 2 252 3 2 251 3 2 251 3 2 251 3 2 251 3 2 251 3 2 251 3 2 251 3 2 251 3 2 251 3 2 251 3 2 251 
3 2 251 3 2 251 3 2 251 3 2 251 3 2 251 3 2 251 3 2 251 3 2 251 3 2 251 2 2 252 2 2 252 2 2 252 2 2 252 2 2 252 2 2 252 2 2 252 2 2 252 2 2 252 2 2 252 3 2 251 3 2 251 3 3 251 3 3 251 3 3 251 3 3 251 3 3 251 3 3 251 3 3 251 3 3 251 3 3 251 3 3 251 3 3 251 3 3 251 3 3 251 3 3 251 3 3 251 3 2 251 3 2 251 3 2 251 2 2 252 3 2 251 3 2 251 3 2 251 3 2 251 3 3 251 3 3 251 3 3 251 3 3 251 3 3 251 3 2 251 3 2 251 2 2 252 2 2 252 2 2 252 2 2 252 2 2 252 2 2 252 2 2 252 2 2 252 3 2 251 3 3 251 3 3 251 3 3 251 3 3 251 3 3 251 3 3 251 3 3 251 3 3 251 3 3 251 3 3 251 3 3 251 3 3 251 3 2 251 3 2 251 2 2 252 2 2 252 3 2 251 3 2 251 3 3 251 3 3 251 3 3 251 3 3 251 3 3 251 3 3 251 3 3 251 3 3 251 3 2 251 2 2 252 2 2 252 2 2 252 2 2 252 2 2 252 2 2 252 2 2 252 3 2 251 3 3 251 3 3 251 3 3 251 3 3 251 3 3 251 3 3 251 3 3 251 3 3 251 3 2 251 3 2 251 2 2 252 2 2 252 3 2 251 3 2 251 3 3 251 3 3 251 3 3 251 3 3 251 3 3 251 3 3 251 3 3 251 3 3 251 3 3 251 3 3 251 3 3 251 3 3 251 3 2 251 2 2 252 2 2 252 2 2 252 2 2 252 2 2 252 2 2 252 2 2 252 2 2 252 3 2 251 3 2 251 3 3 251 3 3 251 3 3 251 3 3 251 3 3 251 3 2 251 3 2 251 3 2 251 3 2 251 2 2 252 3 2 251 3 2 251 3 2 251 3 3 251 3 3 251 3 3 251 3 3 251 3 3 251 3 3 251 3 3 251 3 3 251 3 3 251 3 3 251 3 3 251 3 3 251 3 3 251 3 3 251 3 3 251 3 2 251 3 2 251 2 2 252 2 2 252 2 2 252 2 2 252 2 2 252 2 2 252 2 2 252 2 2 252 2 2 252 2 2 252 3 2 251 3 2 251 3 2 251 3 2 251 3 2 251 3 2 251 3 2 251 3 2 251 3 2 251 
3 2 251 3 2 251 3 2 251 3 2 251 3 2 251 3 2 251 3 2 251 2 2 252 2 2 252 2 2 252 2 2 252 2 2 252 2 2 252 2 2 252 2 2 252 2 2 252 2 2 252 2 2 252 3 2 251 3 2 251 3 3 251 3 3 251 3 3 251 3 3 251 3 3 251 3 3 251 3 3 251 3 3 251 3 3 251 3 3 251 3 3 251 3 3 251 3 3 251 3 3 251 3 2 251 3 2 251 2 2 252 2 2 252 2 2 252 2 2 252 3 2 251 3 2 251 3 3 251 3 3 251 3 3 251 3 3 251 3 3 251 3 3 251 3 3 251 3 3 251 3 3 251 3 2 251 3 2 251 2 2 252 2 2 252 2 2 252 2 2 252 3 2 251 3 2 251 3 3 251 3 3 251 3 3 251 3 3 251 4 3 250 4 3 250 4 3 250 4 3 250 3 3 251 3 3 251 3 3 251 3 3 251 3 3 251 3 2 251 3 2 251 3 2 251 3 2 251 3 2 251 3 3 251 3 3 251 3 3 251 3 3 251 3 3 251 3 3 251 3 3 251 3 3 251 3 3 251 3 2 251 3 2 251 2 2 252 2 2 252 2 2 252 2 2 252 2 2 252 3 2 251 3 2 251 3 3 251 3 3 251 3 3 251 3 3 251 3 3 251 3 3 251 3 3 251 3 3 251 3 3 251 3 2 251 3 2 251 3 2 251 3 2 251 3 2 251 3 3 251 3 3 251 3 3 251 3 3 251 3 3 251 4 3 250 4 3 250 4 3 250 4 3 250 3 3 251 3 3 251 3 3 251 3 3 251 3 2 251 3 2 251 2 2 252 2 2 252 2 2 252 2 2 252 3 2 251 3 2 251 3 3 251 3 3 251 3 3 251 3 3 251 3 3 251 3 3 251 3 3 251 3 3 251 3 3 251 3 2 251 3 2 251 2 2 252 2 2 252 2 2 252 2 2 252 3 2 251 3 2 251 3 3 251 3 3 251 3 3 251 3 3 251 3 3 251 3 3 251 3 3 251 3 3 251 3 3 251 3 3 251 3 3 251 3 3 251 3 3 251 3 3 251 3 2 251 3 2 251 2 2 252 2 2 252 2 2 252 2 2 252 2 2 252 2 2 252 2 2 252 2 2 252 2 2 252 2 2 252 2 2 252 3 2 251 3 2 251 3 2 251 3 2 251 3 2 251 3 2 251 3 2 251 
3 2 251 3 2 251 3 2 251 3 2 251 3 2 251 2 2 252 2 2 252 2 2 252 2 2 252 2 2 252 2 2 252 2 2 252 2 2 252 2 2 252 2 2 252 2 2 252 3 2 251 3 2 251 3 2 251 3 3 251 3 3 251 3 3 251 3 3 251 3 3 251 3 3 251 3 3 251 3 3 251 3 3 251 3 3 251 3 3 251 3 3 251 3 2 251 3 2 251 2 2 252 2 2 252 2 2 252 2 2 252 2 2 252 2 2 252 3 2 251 3 2 251 3 3 251 3 3 251 3 3 251 3 3 251 3 3 251 3 3 251 3 3 251 3 3 251 3 3 251 3 3 251 3 3 251 3 3 251 3 3 251 3 3 251 3 3 251 3 3 251 3 3 251 3 3 251 3 3 251 4 3 250 4 3 250 4 4 250 4 4 250 4 4 250 4 4 250 4 4 250 4 3 250 3 3 251 3 3 251 3 3 251 3 3 251 3 2 251 3 2 251 3 2 251 3 2 251 3 3 251 3 3 251 3 3 251 3 3 251 3 3 251 3 3 251 3 3 251 3 3 251 3 3 251 3 3 251 3 3 251 3 2 251 2 2 252 2 2 252 2 2 252 2 2 252 2 2 252 3 2 251 3 3 251 3 3 251 3 3 251 3 3 251 3 3 251 3 3 251 3 3 251 3 3 251 3 3 251 3 3 251 3 3 251 3 2 251 3 2 251 3 2 251 3 2 251 3 3 251 3 3 251 3 3 251 3 3 251 4 3 250 4 4 250 4 4 250 4 4 250 4 4 250 4 4 250 4 3 250 4 3 250 3 3 251 3 3 251 3 3 251 3 3 251 3 3 251 3 3 251 3 3 251 3 3 251 3 3 251 3 3 251 3 3 251 3 3 251 3 3 251 3 3 251 3 3 251 3 3 251 3 3 251 3 3 251 3 3 251 3 2 251 3 2 251 2 2 252 2 2 252 2 2 252 2 2 252 2 2 252 2 2 252 3 2 251 3 2 251 3 3 251 3 3 251 3 3 251 3 3 251 3 3 251 3 3 251 3 3 251 3 3 251 3 3 251 3 3 251 3 3 251 3 3 251 3 2 251 3 2 251 3 2 251 2 2 252 2 2 252 2 2 252 2 2 252 2 2 252 2 2 252 2 2 252 2 2 252 2 2 252 2 2 252 2 2 252 3 2 251 3 2 251 3 2 251 3 2 251 3 2 251 
3 2 251 3 2 251 3 2 251 2 2 252 2 2 252 2 2 252 2 2 252 2 2 252 2 2 252 2 2 252 2 2 252 2 2 252 2 2 252 2 2 252 2 2 252 3 2 251 3 2 251 3 3 251 3 3 251 3 3 251 3 3 251 3 3 251 3 3 251 3 3 251 3 3 251 3 3 251 3 3 251 3 3 251 3 3 251 3 2 251 3 2 251 2 2 252 2 2 252 2 2 252 2 2 252 2 2 252 2 2 252 2 2 252 3 2 251 3 2 251 3 3 251 3 3 251 3 3 251 3 3 251 4 3 250 4 3 250 4 3 250 4 3 250 4 3 250 4 3 250 4 3 250 3 3 251 3 3 251 3 3 251 3 3 251 3 3 251 4 3 250 4 3 250 4 4 250 4 4 250 4 4 250 4 4 250 4 4 250 4 4 250 4 4 250 4 4 250 4 4 250 4 4 250 3 3 251 3 3 251 3 3 251 3 2 251 3 2 251 2 2 252 3 2 251 3 2 251 3 3 251 3 3 251 3 3 251 4 3 250 4 3 250 4 3 250 4 3 250 4 3 250 3 3 251 3 3 251 3 3 251 3 2 251 2 2 252 2 2 252 2 2 252 2 2 252 2 2 252 3 2 251 3 3 251 3 3 251 3 3 251 4 3 250 4 3 250 4 3 250 4 3 250 4 3 250 3 3 251 3 3 251 3 3 251 3 2 251 3 2 251 2 2 252 3 2 251 3 2 251 3 3 251 3 3 251 3 3 251 4 4 250 4 4 250 4 4 250 4 4 250 4 4 250 4 4 250 4 4 250 4 4 250 4 4 250 4 4 250 4 3 250 4 3 250 3 3 251 3 3 251 3 3 251 3 3 251 3 3 251 4 3 250 4 3 250 4 3 250 4 3 250 4 3 250 4 3 250 4 3 250 3 3 251 3 3 251 3 3 251 3 3 251 3 2 251 3 2 251 2 2 252 2 2 252 2 2 252 2 2 252 2 2 252 2 2 252 2 2 252 3 2 251 3 2 251 3 3 251 3 3 251 3 3 251 3 3 251 3 3 251 3 3 251 3 3 251 3 3 251 3 3 251 3 3 251 3 3 251 3 3 251 3 2 251 3 2 251 2 2 252 2 2 252 2 2 252 2 2 252 2 2 252 2 2 252 2 2 252 2 2 252 2 2 252 2 2 252 2 2 252 2 2 252 3 2 251 3 2 251 3 2 251 
3 2 251 3 2 251 2 2 252 2 2 252 2 2 252 2 2 252 2 2 252 2 2 252 2 2 252 2 2 252 2 2 252 2 2 252 2 2 252 3 2 251 3 2 251 3 3 251 3 3 251 3 3 251 3 3 251 3 3 251 3 3 251 3 3 251 3 3 251 3 3 251 3 3 251 3 3 251 3 3 251 3 2 251 3 2 251 2 2 252 2 2 252 2 2 252 2 2 252 2 2 252 2 2 252 2 2 252 2 2 252 3 2 251 3 3 251 3 3 251 3 3 251 3 3 251 4 3 250 4 4 250 4 4 250 4 4 250 4 4 250 4 4 250 4 4 250 4 4 250 4 4 250 4 4 250 4 4 250 4 4 250 4 4 250 4 4 250 4 4 250 4 4 250 5 4 249 5 5 249 5 5 249 5 5 249 5 5 249 5 5 249 5 5 249 5 4 249 4 4 250 4 4 250 4 3 250 3 3 251 3 3 251 3 2 251 2 2 252 2 2 252 3 2 251 3 3 251 3 3 251 3 3 251 4 3 250 4 4 250 4 4 250 4 4 250 4 4 250 4 4 250 4 3 250 3 3 251 3 3 251 3 2 251 2 2 252 2 2 252 2 2 252 2 2 252 2 2 252 3 2 251 3 3 251 3 3 251 4 3 250 4 4 250 4 4 250 4 4 250 4 4 250 4 4 250 4 3 250 3 3 251 3 3 251 3 3 251 3 2 251 2 2 252 2 2 252 3 2 251 3 3 251 3 3 251 4 3 250 4 4 250 4 4 250 5 4 249 5 5 249 5 5 249 5 5 249 5 5 249 5 5 249 5 5 249 5 4 249 4 4 250 4 4 250 4 4 250 4 4 250 4 4 250 4 4 250 4 4 250 4 4 250 4 4 250 4 4 250 4 4 250 4 4 250 4 4 250 4 4 250 4 4 250 4 3 250 3 3 251 3 3 251 3 3 251 3 3 251 3 2 251 2 2 252 2 2 252 2 2 252 2 2 252 2 2 252 2 2 252 2 2 252 2 2 252 3 2 251 3 2 251 3 3 251 3 3 251 3 3 251 3 3 251 3 3 251 3 3 251 3 3 251 3 3 251 3 3 251 3 3 251 3 3 251 3 3 251 3 2 251 3 2 251 2 2 252 2 2 252 2 2 252 2 2 252 2 2 252 2 2 252 2 2 252 2 2 252 2 2 252 2 2 252 2 2 252 3 2 251 3 2 251 
3 2 251 2 2 252 2 2 252 2 2 252 2 2 252 2 2 252 2 2 252 2 2 252 2 2 252 2 2 252 2 2 252 3 2 251 3 2 251 3 3 251 3 3 251 3 3 251 3 3 251 3 3 251 3 3 251 3 3 251 3 3 251 3 3 251 3 3 251 3 3 251 3 3 251 3 3 251 3 2 251 2 2 252 2 2 252 2 2 252 2 2 252 2 2 252 2 2 252 2 2 252 2 2 252 2 2 252 3 2 251 3 3 251 3 3 251 3 3 251 3 3 251 4 3 250 4 4 250 4 4 250 4 4 250 4 4 250 4 4 250 4 4 250 4 4 250 4 4 250 4 4 250 4 4 250 4 4 250 5 4 249 5 4 249 5 5 249 5 5 249 5 5 249 6 5 248 6 5 248 6 5 248 6 6 248 6 6 248 6 5 248 5 5 249 5 5 249 5 4 249 4 4 250 4 3 250 3 3 251 3 3 251 3 2 251 2 2 252 2 2 252 2 2 252 3 3 251 3 3 251 3 3 251 4 3 250 4 4 250 4 4 250 4 4 250 4 4 250 4 4 250 4 4 250 3 3 251 3 3 251 3 3 251 2 2 252 2 2 252 2 2 252 2 2 252 2 2 252 3 3 251 3 3 251 3 3 251 4 4 250 4 4 250 4 4 250 4 4 250 4 4 250 4 4 250 4 3 250 3 3 251 3 3 251 3 3 251 2 2 252 2 2 252 2 2 252 3 2 251 3 3 251 3 3 251 4 3 250 4 4 250 5 4 249 5 5 249 5 5 249 6 5 248 6 6 248 6 6 248 6 5 248 6 5 248 6 5 248 5 5 249 5 5 249 5 5 249 5 4 249 5 4 249 4 4 250 4 4 250 4 4 250 4 4 250 4 4 250 4 4 250 4 4 250 4 4 250 4 4 250 4 4 250 4 4 250 4 3 250 3 3 251 3 3 251 3 3 251 3 3 251 3 2 251 2 2 252 2 2 252 2 2 252 2 2 252 2 2 252 2 2 252 2 2 252 2 2 252 2 2 252 3 2 251 3 3 251 3 3 251 3 3 251 3 3 251 3 3 251 3 3 251 3 3 251 3 3 251 3 3 251 3 3 251 3 3 251 3 3 251 3 3 251 3 2 251 3 2 251 2 2 252 2 2 252 2 2 252 2 2 252 2 2 252 2 2 252 2 2 252 2 2 252 2 2 252 2 2 252 3 2 251 
3 2 251 2 2 252 2 2 252 2 2 252 2 2 252 2 2 252 2 2 252 2 2 252 2 2 252 2 2 252 3 2 251 3 2 251 3 3 251 3 3 251 3 3 251 3 3 251 3 3 251 3 3 251 3 3 251 3 3 251 3 3 251 3 3 251 3 3 251 3 3 251 3 2 251 3 2 251 2 2 252 2 2 252 2 2 252 2 2 252 2 2 252 2 2 252 2 2 252 2 2 252 3 2 251 3 3 251 3 3 251 3 3 251 3 3 251 4 3 250 4 4 250 4 4 250 4 4 250 4 4 250 5 4 249 5 4 249 5 4 249 5 4 249 5 4 249 5 4 249 5 4 249 5 5 249 5 5 249 5 5 249 5 5 249 5 5 249 6 5 248 6 6 248 6 6 248 6 6 248 7 6 247 7 6 247 7 6 247 6 6 248 6 6 248 6 5 248 5 5 249 4 4 250 4 4 250 3 3 251 3 3 251 3 2 251 2 2 252 2 2 252 2 2 252 3 2 251 3 3 251 3 3 251 4 3 250 4 4 250 4 4 250 4 4 250 4 4 250 4 4 250 4 4 250 4 3 250 3 3 251 3 3 251 2 2 252 2 2 252 2 2 252 2 2 252 2 2 252 3 3 251 3 3 251 4 3 250 4 4 250 4 4 250 4 4 250 4 4 250 4 4 250 4 4 250 4 3 250 3 3 251 3 3 251 3 2 251 2 2 252 2 2 252 2 2 252 3 2 251 3 3 251 3 3 251 4 4 250 4 4 250 5 5 249 6 5 248 6 6 248 6 6 248 7 6 247 7 6 247 7 6 247 6 6 248 6 6 248 6 6 248 6 5 248 5 5 249 5 5 249 5 5 249 5 5 249 5 5 249 5 4 249 5 4 249 5 4 249 5 4 249 5 4 249 5 4 249 5 4 249 4 4 250 4 4 250 4 4 250 4 4 250 4 3 250 3 3 251 3 3 251 3 3 251 3 3 251 3 2 251 2 2 252 2 2 252 2 2 252 2 2 252 2 2 252 2 2 252 2 2 252 2 2 252 3 2 251 3 2 251 3 3 251 3 3 251 3 3 251 3 3 251 3 3 251 3 3 251 3 3 251 3 3 251 3 3 251 3 3 251 3 3 251 3 3 251 3 2 251 3 2 251 2 2 252 2 2 252 2 2 252 2 2 252 2 2 252 2 2 252 2 2 252 2 2 252 2 2 252 3 2 251 
2 2 252 2 2 252 2 2 252 2 2 252 2 2 252 2 2 252 2 2 252 2 2 252 3 2 251 3 2 251 3 3 251 3 3 251 3 3 251 3 3 251 3 3 251 3 3 251 3 3 251 3 3 251 3 3 251 3 3 251 3 3 251 3 3 251 3 3 251 3 2 251 3 2 251 2 2 252 2 2 252 2 2 252 2 2 252 2 2 252 2 2 252 2 2 252 3 2 251 3 2 251 3 3 251 3 3 251 3 3 251 4 3 250 4 4 250 4 4 250 4 4 250 4 4 250 4 4 250 5 4 249 5 4 249 5 4 249 5 4 249 5 4 249 5 4 249 5 5 249 5 5 249 5 5 249 5 5 249 5 5 249 6 5 248 6 6 248 6 6 248 7 6 247 7 6 247 7 7 247 7 7 247 7 7 247 7 7 247 7 6 247 6 6 248 6 5 248 5 5 249 5 4 249 4 4 250 3 3 251 3 3 251 3 2 251 2 2 252 2 2 252 2 2 252 3 2 251 3 3 251 3 3 251 4 4 250 4 4 250 4 4 250 4 4 250 4 4 250 4 4 250 4 4 250 4 3 250 3 3 251 3 3 251 2 2 252 2 2 252 2 2 252 2 2 252 2 2 252 3 3 251 3 3 251 4 3 250 4 4 250 4 4 250 4 4 250 4 4 250 4 4 250 4 4 250 4 4 250 3 3 251 3 3 251 3 2 251 2 2 252 2 2 252 2 2 252 3 2 251 3 3 251 3 3 251 4 4 250 5 4 249 5 5 249 6 5 248 6 6 248 7 6 247 7 7 247 7 7 247 7 7 247 7 7 247 7 6 247 7 6 247 6 6 248 6 6 248 6 5 248 5 5 249 5 5 249 5 5 249 5 5 249 5 5 249 5 4 249 5 4 249 5 4 249 5 4 249 5 4 249 5 4 249 4 4 250 4 4 250 4 4 250 4 4 250 4 4 250 4 3 250 3 3 251 3 3 251 3 3 251 3 2 251 3 2 251 2 2 252 2 2 252 2 2 252 2 2 252 2 2 252 2 2 252 2 2 252 3 2 251 3 2 251 3 3 251 3 3 251 3 3 251 3 3 251 3 3 251 3 3 251 3 3 251 3 3 251 3 3 251 3 3 251 3 3 251 3 3 251 3 3 251 3 2 251 3 2 251 2 2 252 2 2 252 2 2 252 2 2 252 2 2 252 2 2 252 2 2 252 2 2 252 
2 2 252 2 2 252 2 2 252 2 2 252 2 2 252 2 2 252 2 2 252 3 2 251 3 2 251 3 3 251 3 3 251 3 3 251 3 3 251 3 3 251 3 3 251 3 3 251 3 3 251 3 3 251 3 3 251 3 3 251 3 3 251 3 3 251 3 2 251 2 2 252 2 2 252 2 2 252 2 2 252 2 2 252 2 2 252 2 2 252 2 2 252 3 2 251 3 3 251 3 3 251 3 3 251 4 3 250 4 4 250 4 4 250 4 4 250 4 4 250 4 4 250 5 4 249 5 4 249 5 4 249 5 4 249 5 4 249 5 4 249 5 4 249 5 4 249 5 4 249 5 5 249 5 5 249 5 5 249 5 5 249 6 5 248 6 6 248 6 6 248 7 6 247 7 7 247 7 7 247 7 7 247 7 7 247 7 7 247 7 7 247 7 6 247 6 6 248 5 5 249 5 4 249 4 4 250 3 3 251 3 3 251 2 2 252 2 2 252 2 2 252 2 2 252 3 2 251 3 3 251 3 3 251 4 3 250 4 4 250 4 4 250 4 4 250 4 4 250 4 4 250 4 4 250 4 3 250 3 3 251 3 3 251 2 2 252 2 2 252 2 2 252 2 2 252 2 2 252 3 3 251 3 3 251 4 3 250 4 4 250 4 4 250 4 4 250 4 4 250 4 4 250 4 4 250 4 3 250 3 3 251 3 3 251 3 2 251 2 2 252 2 2 252 2 2 252 2 2 252 3 3 251 3 3 251 4 4 250 5 4 249 5 5 249 6 6 248 7 6 247 7 7 247 7 7 247 7 7 247 7 7 247 7 7 247 7 7 247 7 6 247 6 6 248 6 6 248 6 5 248 5 5 249 5 5 249 5 5 249 5 5 249 5 4 249 5 4 249 5 4 249 5 4 249 5 4 249 5 4 249 5 4 249 5 4 249 5 4 249 4 4 250 4 4 250 4 4 250 4 4 250 4 4 250 4 3 250 3 3 251 3 3 251 3 3 251 3 2 251 2 2 252 2 2 252 2 2 252 2 2 252 2 2 252 2 2 252 2 2 252 2 2 252 3 2 251 3 3 251 3 3 251 3 3 251 3 3 251 3 3 251 3 3 251 3 3 251 3 3 251 3 3 251 3 3 251 3 3 251 3 3 251 3 3 251 3 2 251 3 2 251 2 2 252 2 2 252 2 2 252 2 2 252 2 2 252 2 2 252 2 2 252 
2 2 252 2 2 252 2 2 252 2 2 252 2 2 252 2 2 252 3 2 251 3 2 251 3 3 251 3 3 251 3 3 251 3 3 251 3 3 251 4 3 250 4 3 250 4 3 250 4 3 250 3 3 251 3 3 251 3 3 251 3 3 251 3 2 251 3 2 251 2 2 252 2 2 252 2 2 252 2 2 252 2 2 252 2 2 252 3 2 251 3 3 251 3 3 251 3 3 251 4 3 250 4 4 250 4 4 250 4 4 250 4 4 250 5 4 249 5 4 249 5 4 249 5 4 249 5 4 249 5 4 249 5 4 249 4 4 250 4 4 250 4 4 250 4 4 250 4 4 250 5 4 249 5 4 249 5 5 249 5 5 249 6 5 248 6 6 248 6 6 248 7 6 247 7 6 247 7 7 247 7 7 247 7 7 247 7 7 247 7 6 247 6 6 248 6 6 248 5 5 249 5 4 249 4 4 250 3 3 251 3 3 251 2 2 252 2 2 252 2 2 252 2 2 252 2 2 252 3 3 251 3 3 251 4 3 250 4 4 250 4 4 250 4 4 250 4 4 250 4 4 250 4 4 250 3 3 251 3 3 251 3 3 251 2 2 252 2 2 252 2 2 252 2 2 252 2 2 252 3 3 251 3 3 251 3 3 251 4 4 250 4 4 250 4 4 250 4 4 250 4 4 250 4 4 250 4 3 250 3 3 251 3 3 251 2 2 252 2 2 252 2 2 252 2 2 252 2 2 252 3 3 251 3 3 251 4 4 250 5 4 249 5 5 249 6 6 248 6 6 248 7 6 247 7 7 247 7 7 247 7 7 247 7 7 247 7 6 247 7 6 247 6 6 248 6 6 248 6 5 248 5 5 249 5 5 249 5 4 249 5 4 249 4 4 250 4 4 250 4 4 250 4 4 250 4 4 250 5 4 249 5 4 249 5 4 249 5 4 249 5 4 249 5 4 249 5 4 249 4 4 250 4 4 250 4 4 250 4 4 250 4 3 250 3 3 251 3 3 251 3 3 251 3 2 251 2 2 252 2 2 252 2 2 252 2 2 252 2 2 252 2 2 252 3 2 251 3 2 251 3 3 251 3 3 251 3 3 251 3 3 251 4 3 250 4 3 250 4 3 250 4 3 250 3 3 251 3 3 251 3 3 251 3 3 251 3 3 251 3 2 251 3 2 251 2 2 252 2 2 252 2 2 252 2 2 252 2 2 252 2 2 252 
2 2 252 2 2 252 2 2 252 2 2 252 2 2 252 2 2 252 3 2 251 3 3 251 3 3 251 3 3 251 3 3 251 4 3 250 4 3 250 4 3 250 4 3 250 4 3 250 4 3 250 3 3 251 3 3 251 3 3 251 3 3 251 3 2 251 2 2 252 2 2 252 2 2 252 2 2 252 2 2 252 2 2 252 3 3 251 3 3 251 3 3 251 4 3 250 4 4 250 4 4 250 4 4 250 5 4 249 5 4 249 5 4 249 5 4 249 5 4 249 5 4 249 5 4 249 4 4 250 4 4 250 4 4 250 4 4 250 4 4 250 4 4 250 4 4 250 4 4 250 4 4 250 4 4 250 5 4 249 5 4 249 5 5 249 5 5 249 6 5 248 6 6 248 6 6 248 7 6 247 7 6 247 7 6 247 7 6 247 7 6 247 6 6 248 6 5 248 5 5 249 5 4 249 4 4 250 3 3 251 3 3 251 3 2 251 2 2 252 2 2 252 2 2 252 2 2 252 3 2 251 3 3 251 3 3 251 4 3 250 4 4 250 4 4 250 4 4 250 4 4 250 4 3 250 3 3 251 3 3 251 3 3 251 2 2 252 2 2 252 2 2 252 2 2 252 2 2 252 3 3 251 3 3 251 3 3 251 4 3 250 4 4 250 4 4 250 4 4 250 4 4 250 4 3 250 3 3 251 3 3 251 3 2 251 2 2 252 2 2 252 2 2 252 2 2 252 3 2 251 3 3 251 3 3 251 4 4 250 5 4 249 5 5 249 6 5 248 6 6 248 7 6 247 7 6 247 7 6 247 7 6 247 7 6 247 6 6 248 6 6 248 6 5 248 5 5 249 5 5 249 5 4 249 5 4 249 4 4 250 4 4 250 4 4 250 4 4 250 4 4 250 4 4 250 4 4 250 4 4 250 4 4 250 4 4 250 5 4 249 5 4 249 5 4 249 5 4 249 5 4 249 5 4 249 5 4 249 4 4 250 4 4 250 4 4 250 4 3 250 3 3 251 3 3 251 3 3 251 2 2 252 2 2 252 2 2 252 2 2 252 2 2 252 2 2 252 3 2 251 3 3 251 3 3 251 3 3 251 3 3 251 4 3 250 4 3 250 4 3 250 4 3 250 4 3 250 4 3 250 3 3 251 3 3 251 3 3 251 3 3 251 3 2 251 2 2 252 2 2 252 2 2 252 2 2 252 2 2 252 2 2 252 
2 2 252 2 2 252 2 2 252 2 2 252 2 2 252 3 2 251 3 3 251 3 3 251 3 3 251 3 3 251 4 3 250 4 4 250 4 4 250 4 4 250 4 4 250 4 3 250 3 3 251 3 3 251 3 3 251 3 3 251 3 2 251 2 2 252 2 2 252 2 2 252 2 2 252 2 2 252 3 2 251 3 3 251 3 3 251 3 3 251 4 3 250 4 4 250 4 4 250 5 4 249 5 4 249 5 5 249 5 5 249 5 5 249 5 5 249 5 4 249 5 4 249 4 4 250 4 4 250 4 4 250 4 4 250 4 3 250 4 3 250 3 3 251 3 3 251 3 3 251 4 3 250 4 3 250 4 4 250 4 4 250 4 4 250 5 4 249 5 5 249 5 5 249 6 5 248 6 5 248 6 6 248 6 6 248 6 6 248 6 6 248 6 5 248 5 5 249 5 5 249 4 4 250 4 4 250 3 3 251 3 3 251 3 2 251 2 2 252 2 2 252 2 2 252 2 2 252 3 2 251 3 3 251 3 3 251 3 3 251 4 3 250 4 3 250 4 3 250 4 3 250 3 3 251 3 3 251 3 3 251 3 2 251 2 2 252 2 2 252 2 2 252 2 2 252 2 2 252 3 2 251 3 3 251 3 3 251 3 3 251 4 3 250 4 3 250 4 3 250 4 3 250 3 3 251 3 3 251 3 3 251 3 2 251 2 2 252 2 2 252 2 2 252 2 2 252 3 2 251 3 3 251 3 3 251 4 4 250 4 4 250 5 5 249 5 5 249 6 5 248 6 6 248 6 6 248 6 6 248 6 6 248 6 5 248 6 5 248 5 5 249 5 5 249 5 4 249 4 4 250 4 4 250 4 4 250 4 3 250 4 3 250 3 3 251 3 3 251 3 3 251 4 3 250 4 3 250 4 4 250 4 4 250 4 4 250 4 4 250 5 4 249 5 4 249 5 5 249 5 5 249 5 5 249 5 5 249 5 4 249 5 4 249 4 4 250 4 4 250 4 3 250 3 3 251 3 3 251 3 3 251 3 2 251 2 2 252 2 2 252 2 2 252 2 2 252 2 2 252 3 2 251 3 3 251 3 3 251 3 3 251 3 3 251 4 3 250 4 4 250 4 4 250 4 4 250 4 4 250 4 3 250 3 3 251 3 3 251 3 3 251 3 3 251 3 2 251 2 2 252 2 2 252 2 2 252 2 2 252 2 2 252 
2 2 252 2 2 252 2 2 252 2 2 252 3 2 251 3 3 251 3 3 251 3 3 251 3 3 251 4 3 250 4 4 250 4 4 250 4 4 250 4 4 250 4 4 250 4 3 250 3 3 251 3 3 251 3 3 251 3 2 251 2 2 252 2 2 252 2 2 252 2 2 252 2 2 252 3 2 251 3 3 251 3 3 251 4 3 250 4 4 250 4 4 250 5 4 249 5 5 249 5 5 249 5 5 249 5 5 249 5 5 249 5 5 249 5 4 249 5 4 249 4 4 250 4 4 250 4 3 250 3 3 251 3 3 251 3 3 251 3 3 251 3 3 251 3 3 251 3 3 251 3 3 251 3 3 251 3 3 251 3 3 251 4 3 250 4 3 250 4 4 250 4 4 250 5 4 249 5 4 249 5 5 249 5 5 249 5 5 249 5 5 249 5 5 249 5 5 249 5 4 249 4 4 250 4 4 250 3 3 251 3 3 251 3 2 251 2 2 252 2 2 252 2 2 252 2 2 252 2 2 252 3 2 251 3 3 251 3 3 251 3 3 251 3 3 251 3 3 251 3 3 251 3 3 251 3 3 251 3 3 251 3 2 251 2 2 252 2 2 252 2 2 252 2 2 252 2 2 252 3 2 251 3 3 251 3 3 251 3 3 251 3 3 251 3 3 251 3 3 251 3 3 251 3 3 251 3 3 251 3 2 251 2 2 252 2 2 252 2 2 252 2 2 252 2 2 252 3 2 251 3 3 251 3 3 251 4 4 250 4 4 250 5 4 249 5 5 249 5 5 249 5 5 249 5 5 249 5 5 249 5 5 249 5 4 249 5 4 249 4 4 250 4 4 250 4 3 250 4 3 250 3 3 251 3 3 251 3 3 251 3 3 251 3 3 251 3 3 251 3 3 251 3 3 251 3 3 251 3 3 251 3 3 251 4 3 250 4 4 250 4 4 250 5 4 249 5 4 249 5 5 249 5 5 249 5 5 249 5 5 249 5 5 249 5 5 249 5 4 249 4 4 250 4 4 250 4 3 250 3 3 251 3 3 251 3 2 251 2 2 252 2 2 252 2 2 252 2 2 252 2 2 252 3 2 251 3 3 251 3 3 251 3 3 251 4 3 250 4 4 250 4 4 250 4 4 250 4 4 250 4 4 250 4 3 250 3 3 251 3 3 251 3 3 251 3 3 251 3 2 251 2 2 252 2 2 252 2 2 252 2 2 252 
2 2 252 2 2 252 2 2 252 2 2 252 3 2 251 3 3 251 3 3 251 3 3 251 4 3 250 4 4 250 4 4 250 4 4 250 4 4 250 4 4 250 4 3 250 3 3 251 3 3 251 3 3 251 3 2 251 2 2 252 2 2 252 2 2 252 2 2 252 2 2 252 2 2 252 3 3 251 3 3 251 4 3 250 4 4 250 4 4 250 5 4 249 5 5 249 5 5 249 5 5 249 5 5 249 5 5 249 5 5 249 5 5 249 5 4 249 4 4 250 4 4 250 4 3 250 3 3 251 3 3 251 3 3 251 3 2 251 3 2 251 2 2 252 2 2 252 2 2 252 2 2 252 2 2 252 2 2 252 3 2 251 3 2 251 3 3 251 3 3 251 3 3 251 3 3 251 4 3 250 4 4 250 4 4 250 4 4 250 4 4 250 4 4 250 4 4 250 4 4 250 4 4 250 4 3 250 3 3 251 3 3 251 3 3 251 2 2 252 2 2 252 2 2 252 2 2 252 2 2 252 2 2 252 3 2 251 3 3 251 3 3 251 3 3 251 3 3 251 3 3 251 3 3 251 3 3 251 3 3 251 3 2 251 2 2 252 2 2 252 2 2 252 2 2 252 2 2 252 3 2 251 3 3 251 3 3 251 3 3 251 3 3 251 3 3 251 3 3 251 3 3 251 3 3 251 3 2 251 2 2 252 2 2 252 2 2 252 2 2 252 2 2 252 2 2 252 3 3 251 3 3 251 3 3 251 4 3 250 4 4 250 4 4 250 4 4 250 4 4 250 4 4 250 4 4 250 4 4 250 4 4 250 4 3 250 3 3 251 3 3 251 3 3 251 3 3 251 3 2 251 3 2 251 2 2 252 2 2 252 2 2 252 2 2 252 2 2 252 2 2 252 3 2 251 3 2 251 3 3 251 3 3 251 3 3 251 4 3 250 4 4 250 4 4 250 5 4 249 5 5 249 5 5 249 5 5 249 5 5 249 5 5 249 5 5 249 5 5 249 5 4 249 4 4 250 4 4 250 4 3 250 3 3 251 3 3 251 2 2 252 2 2 252 2 2 252 2 2 252 2 2 252 2 2 252 3 2 251 3 3 251 3 3 251 3 3 251 4 3 250 4 4 250 4 4 250 4 4 250 4 4 250 4 4 250 4 3 250 3 3 251 3 3 251 3 3 251 3 2 251 2 2 252 2 2 252 2 2 252 2 2 252 
2 2 252 2 2 252 2 2 252 3 2 251 3 3 251 3 3 251 3 3 251 4 3 250 4 3 250 4 4 250 4 4 250 4 4 250 4 4 250 4 3 250 4 3 250 3 3 251 3 3 251 3 3 251 2 2 252 2 2 252 2 2 252 2 2 252 2 2 252 2 2 252 3 3 251 3 3 251 4 3 250 4 4 250 4 4 250 5 4 249 5 5 249 5 5 249 5 5 249 5 5 249 5 5 249 5 5 249 5 5 249 5 4 249 4 4 250 4 4 250 3 3 251 3 3 251 3 3 251 3 2 251 2 2 252 2 2 252 2 2 252 2 2 252 2 2 252 2 2 252 2 2 252 2 2 252 2 2 252 2 2 252 2 2 252 2 2 252 2 2 252 2 2 252 3 2 251 3 3 251 3 3 251 3 3 251 4 3 250 4 3 250 4 4 250 4 4 250 4 4 250 4 4 250 4 3 250 3 3 251 3 3 251 3 3 251 3 2 251 2 2 252 2 2 252 2 2 252 2 2 252 2 2 252 2 2 252 3 2 251 3 3 251 3 3 251 3 3 251 3 3 251 3 3 251 3 3 251 3 2 251 2 2 252 2 2 252 2 2 252 2 2 252 2 2 252 2 2 252 2 2 252 3 2 251 3 3 251 3 3 251 3 3 251 3 3 251 3 3 251 3 3 251 3 2 251 2 2 252 2 2 252 2 2 252 2 2 252 2 2 252 2 2 252 3 2 251 3 3 251 3 3 251 3 3 251 4 3 250 4 4 250 4 4 250 4 4 250 4 4 250 4 3 250 4 3 250 3 3 251 3 3 251 3 3 251 3 2 251 2 2 252 2 2 252 2 2 252 2 2 252 2 2 252 2 2 252 2 2 252 2 2 252 2 2 252 2 2 252 2 2 252 2 2 252 2 2 252 2 2 252 3 2 251 3 3 251 3 3 251 3 3 251 4 4 250 4 4 250 5 4 249 5 5 249 5 5 249 5 5 249 5 5 249 5 5 249 5 5 249 5 5 249 5 4 249 4 4 250 4 4 250 4 3 250 3 3 251 3 3 251 2 2 252 2 2 252 2 2 252 2 2 252 2 2 252 2 2 252 3 3 251 3 3 251 3 3 251 4 3 250 4 3 250 4 4 250 4 4 250 4 4 250 4 4 250 4 3 250 4 3 250 3 3 251 3 3 251 3 3 251 3 2 251 2 2 252 2 2 252 2 2 252 
2 2 252 2 2 252 3 2 251 3 3 251 3 3 251 3 3 251 3 3 251 4 3 250 4 4 250 4 4 250 4 4 250 4 4 250 4 3 250 4 3 250 3 3 251 3 3 251 3 3 251 3 2 251 2 2 252 2 2 252 2 2 252 2 2 252 2 2 252 3 3 251 3 3 251 3 3 251 4 4 250 4 4 250 5 5 249 5 5 249 5 5 249 6 5 248 6 5 248 5 5 249 5 5 249 5 5 249 5 4 249 4 4 250 4 3 250 3 3 251 3 3 251 3 2 251 2 2 252 2 2 252 2 2 252 2 2 252 2 2 252 2 2 252 2 2 252 2 2 252 2 2 252 2 2 252 2 2 252 2 2 252 2 2 252 2 2 252 2 2 252 2 2 252 2 2 252 2 2 252 2 2 252 3 3 251 3 3 251 3 3 251 3 3 251 4 3 250 4 3 250 4 3 250 4 3 250 3 3 251 3 3 251 3 3 251 3 2 251 2 2 252 2 2 252 2 2 252 2 2 252 2 2 252 2 2 252 3 2 251 3 2 251 3 3 251 3 3 251 3 3 251 3 3 251 3 2 251 3 2 251 2 2 252 2 2 252 2 2 252 2 2 252 2 2 252 2 2 252 2 2 252 3 2 251 3 2 251 3 3 251 3 3 251 3 3 251 3 3 251 3 2 251 3 2 251 2 2 252 2 2 252 2 2 252 2 2 252 2 2 252 2 2 252 3 2 251 3 3 251 3 3 251 3 3 251 4 3 250 4 3 250 4 3 250 4 3 250 3 3 251 3 3 251 3 3 251 3 3 251 2 2 252 2 2 252 2 2 252 2 2 252 2 2 252 2 2 252 2 2 252 2 2 252 2 2 252 2 2 252 2 2 252 2 2 252 2 2 252 2 2 252 2 2 252 2 2 252 2 2 252 2 2 252 2 2 252 3 2 251 3 3 251 3 3 251 4 3 250 4 4 250 5 4 249 5 5 249 5 5 249 5 5 249 6 5 248 6 5 248 5 5 249 5 5 249 5 5 249 4 4 250 4 4 250 3 3 251 3 3 251 3 3 251 2 2 252 2 2 252 2 2 252 2 2 252 2 2 252 3 2 251 3 3 251 3 3 251 3 3 251 4 3 250 4 3 250 4 4 250 4 4 250 4 4 250 4 4 250 4 3 250 3 3 251 3 3 251 3 3 251 3 3 251 3 2 251 2 2 252 2 2 252 
2 2 252 2 2 252 3 2 251 3 3 251 3 3 251 3 3 251 4 3 250 4 3 250 4 4 250 4 4 250 4 4 250 4 3 250 4 3 250 3 3 251 3 3 251 3 3 251 3 2 251 2 2 252 2 2 252 2 2 252 2 2 252 2 2 252 3 2 251 3 3 251 3 3 251 4 4 250 4 4 250 5 4 249 5 5 249 5 5 249 6 5 248 6 5 248 5 5 249 5 5 249 5 5 249 4 4 250 4 4 250 4 3 250 3 3 251 3 3 251 3 2 251 2 2 252 2 2 252 2 2 252 2 2 252 2 2 252 3 2 251 3 2 251 3 2 251 3 2 251 3 2 251 2 2 252 2 2 252 2 2 252 2 2 252 2 2 252 2 2 252 2 2 252 2 2 252 2 2 252 2 2 252 3 2 251 3 3 251 3 3 251 3 3 251 4 3 250 4 3 250 4 3 250 4 3 250 3 3 251 3 3 251 3 3 251 3 3 251 3 2 251 2 2 252 2 2 252 2 2 252 2 2 252 2 2 252 3 2 251 3 3 251 3 3 251 3 3 251 3 3 251 3 3 251 3 3 251 3 2 251 2 2 252 2 2 252 2 2 252 2 2 252 2 2 252 2 2 252 2 2 252 3 2 251 3 3 251 3 3 251 3 3 251 3 3 251 3 3 251 3 3 251 3 2 251 2 2 252 2 2 252 2 2 252 2 2 252 2 2 252 3 2 251 3 3 251 3 3 251 3 3 251 3 3 251 4 3 250 4 3 250 4 3 250 4 3 250 3 3 251 3 3 251 3 3 251 3 2 251 2 2 252 2 2 252 2 2 252 2 2 252 2 2 252 2 2 252 2 2 252 2 2 252 2 2 252 2 2 252 3 2 251 3 2 251 3 2 251 3 2 251 3 2 251 2 2 252 2 2 252 2 2 252 2 2 252 2 2 252 3 2 251 3 3 251 3 3 251 4 3 250 4 4 250 4 4 250 5 5 249 5 5 249 5 5 249 6 5 248 6 5 248 5 5 249 5 5 249 5 4 249 4 4 250 4 4 250 3 3 251 3 3 251 3 2 251 2 2 252 2 2 252 2 2 252 2 2 252 2 2 252 3 2 251 3 3 251 3 3 251 3 3 251 4 3 250 4 3 250 4 4 250 4 4 250 4 4 250 4 3 250 4 3 250 3 3 251 3 3 251 3 3 251 3 2 251 2 2 252 2 2 252 
2 2 252 3 2 251 3 3 251 3 3 251 3 3 251 3 3 251 4 3 250 4 3 250 4 4 250 4 4 250 4 3 250 4 3 250 3 3 251 3 3 251 3 3 251 3 2 251 2 2 252 2 2 252 2 2 252 2 2 252 2 2 252 3 2 251 3 3 251 3 3 251 4 4 250 4 4 250 5 4 249 5 5 249 5 5 249 6 5 248 6 5 248 5 5 249 5 5 249 5 4 249 4 4 250 4 4 250 3 3 251 3 3 251 3 3 251 2 2 252 2 2 252 2 2 252 2 2 252 3 2 251 3 3 251 3 3 251 3 3 251 4 3 250 4 3 250 4 3 250 4 3 250 3 3 251 3 3 251 3 3 251 3 3 251 3 2 251 2 2 252 2 2 252 2 2 252 3 2 251 3 3 251 3 3 251 3 3 251 4 3 250 4 4 250 4 4 250 4 4 250 4 4 250 4 4 250 4 3 250 3 3 251 3 3 251 3 3 251 3 2 251 2 2 252 2 2 252 2 2 252 2 2 252 3 2 251 3 3 251 3 3 251 3 3 251 3 3 251 3 3 251 3 3 251 3 3 251 3 2 251 3 2 251 2 2 252 2 2 252 2 2 252 2 2 252 2 2 252 3 2 251 3 2 251 3 3 251 3 3 251 3 3 251 3 3 251 3 3 251 3 3 251 3 3 251 3 2 251 2 2 252 2 2 252 2 2 252 2 2 252 3 2 251 3 3 251 3 3 251 3 3 251 4 3 250 4 4 250 4 4 250 4 4 250 4 4 250 4 4 250 4 3 250 3 3 251 3 3 251 3 3 251 3 2 251 2 2 252 2 2 252 2 2 252 3 2 251 3 3 251 3 3 251 3 3 251 3 3 251 4 3 250 4 3 250 4 3 250 4 3 250 3 3 251 3 3 251 3 3 251 3 2 251 2 2 252 2 2 252 2 2 252 2 2 252 3 3 251 3 3 251 3 3 251 4 4 250 4 4 250 5 4 249 5 5 249 5 5 249 6 5 248 6 5 248 5 5 249 5 5 249 5 4 249 4 4 250 4 4 250 3 3 251 3 3 251 3 2 251 2 2 252 2 2 252 2 2 252 2 2 252 2 2 252 3 2 251 3 3 251 3 3 251 3 3 251 4 3 250 4 3 250 4 4 250 4 4 250 4 3 250 4 3 250 3 3 251 3 3 251 3 3 251 3 3 251 3 2 251 2 2 252 
3 2 251 3 3 251 3 3 251 3 3 251 3 3 251 4 3 250 4 3 250 4 3 250 4 3 250 4 3 250 3 3 251 3 3 251 3 3 251 3 3 251 3 2 251 2 2 252 2 2 252 2 2 252 2 2 252 2 2 252 3 2 251 3 3 251 3 3 251 4 4 250 4 4 250 5 4 249 5 5 249 5 5 249 5 5 249 5 5 249 5 5 249 5 5 249 5 4 249 4 4 250 4 4 250 3 3 251 3 3 251 3 2 251 2 2 252 2 2 252 2 2 252 3 2 251 3 3 251 3 3 251 4 3 250 4 4 250 4 4 250 5 4 249 5 5 249 5 5 249 5 5 249 5 5 249 5 4 249 4 4 250 4 4 250 4 4 250 4 4 250 4 3 250 4 3 250 4 4 250 4 4 250 4 4 250 4 4 250 5 4 249 5 4 249 5 4 249 5 4 249 4 4 250 4 4 250 4 3 250 3 3 251 3 3 251 3 3 251 3 2 251 2 2 252 2 2 252 3 2 251 3 2 251 3 3 251 3 3 251 3 3 251 3 3 251 3 3 251 3 3 251 3 3 251 3 3 251 3 3 251 3 2 251 2 2 252 2 2 252 2 2 252 2 2 252 2 2 252 3 2 251 3 3 251 3 3 251 3 3 251 3 3 251 3 3 251 3 3 251 3 3 251 3 3 251 3 3 251 3 2 251 3 2 251 2 2 252 2 2 252 3 2 251 3 3 251 3 3 251 3 3 251 4 3 250 4 4 250 4 4 250 5 4 249 5 4 249 5 4 249 5 4 249 4 4 250 4 4 250 4 4 250 4 4 250 4 3 250 4 3 250 4 4 250 4 4 250 4 4 250 4 4 250 5 4 249 5 5 249 5 5 249 5 5 249 5 5 249 5 4 249 4 4 250 4 4 250 4 3 250 3 3 251 3 3 251 3 2 251 2 2 252 2 2 252 2 2 252 3 2 251 3 3 251 3 3 251 4 4 250 4 4 250 5 4 249 5 5 249 5 5 249 5 5 249 5 5 249 5 5 249 5 5 249 5 4 249 4 4 250 4 4 250 3 3 251 3 3 251 3 2 251 2 2 252 2 2 252 2 2 252 2 2 252 2 2 252 3 2 251 3 3 251 3 3 251 3 3 251 3 3 251 4 3 250 4 3 250 4 3 250 4 3 250 4 3 250 3 3 251 3 3 251 3 3 251 3 3 251 3 2 251 
3 2 251 3 3 251 3 3 251 3 3 251 3 3 251 4 3 250 4 3 250 4 3 250 4 3 250 3 3 251 3 3 251 3 3 251 3 3 251 3 2 251 2 2 252 2 2 252 2 2 252 2 2 252 2 2 252 3 2 251 3 3 251 3 3 251 4 3 250 4 4 250 5 4 249 5 5 249 5 5 249 5 5 249 5 5 249 5 5 249 5 5 249 5 4 249 4 4 250 4 3 250 3 3 251 3 3 251 2 2 252 2 2 252 2 2 252 2 2 252 3 2 251 3 3 251 4 3 250 4 4 250 5 5 249 5 5 249 6 6 248 6 6 248 7 6 247 7 6 247 7 6 247 7 6 247 7 6 247 6 6 248 6 6 248 6 5 248 6 5 248 6 5 248 6 5 248 6 5 248 6 5 248 6 5 248 6 6 248 6 6 248 6 5 248 6 5 248 5 5 249 5 5 249 4 4 250 4 4 250 4 3 250 3 3 251 3 3 251 3 2 251 2 2 252 3 2 251 3 2 251 3 3 251 3 3 251 3 3 251 4 3 250 4 4 250 4 4 250 4 3 250 4 3 250 3 3 251 3 3 251 3 2 251 2 2 252 2 2 252 2 2 252 2 2 252 2 2 252 3 2 251 3 3 251 3 3 251 4 3 250 4 3 250 4 4 250 4 4 250 4 3 250 3 3 251 3 3 251 3 3 251 3 2 251 3 2 251 2 2 252 3 2 251 3 3 251 3 3 251 4 3 250 4 4 250 4 4 250 5 5 249 5 5 249 6 5 248 6 5 248 6 6 248 6 6 248 6 5 248 6 5 248 6 5 248 6 5 248 6 5 248 6 5 248 6 5 248 6 6 248 6 6 248 7 6 247 7 6 247 7 6 247 7 6 247 7 6 247 6 6 248 6 6 248 5 5 249 5 5 249 4 4 250 4 3 250 3 3 251 3 2 251 2 2 252 2 2 252 2 2 252 2 2 252 3 3 251 3 3 251 4 3 250 4 4 250 5 4 249 5 5 249 5 5 249 5 5 249 5 5 249 5 5 249 5 5 249 5 4 249 4 4 250 4 3 250 3 3 251 3 3 251 3 2 251 2 2 252 2 2 252 2 2 252 2 2 252 2 2 252 3 2 251 3 3 251 3 3 251 3 3 251 3 3 251 4 3 250 4 3 250 4 3 250 4 3 250 3 3 251 3 3 251 3 3 251 3 3 251 3 2 251 
3 3 251 3 3 251 3 3 251 3 3 251 4 3 250 4 3 250 4 3 250 4 3 250 3 3 251 3 3 251 3 3 251 3 3 251 3 2 251 2 2 252 2 2 252 2 2 252 2 2 252 2 2 252 3 2 251 3 3 251 3 3 251 4 3 250 4 4 250 5 4 249 5 5 249 5 5 249 5 5 249 5 5 249 5 5 249 5 5 249 5 4 249 4 4 250 4 3 250 3 3 251 3 2 251 2 2 252 2 2 252 2 2 252 2 2 252 3 2 251 3 3 251 4 4 250 5 4 249 6 5 248 6 6 248 7 7 247 8 7 246 8 8 246 9 8 245 9 8 245 9 8 245 9 8 245 9 8 245 9 8 245 8 8 246 8 8 246 8 8 246 8 7 246 8 7 246 8 7 246 8 7 246 8 7 246 8 7 246 8 7 246 7 7 247 7 6 247 6 6 248 6 5 248 5 5 249 4 4 250 4 3 250 3 3 251 3 3 251 2 2 252 2 2 252 3 2 251 3 3 251 3 3 251 4 3 250 4 4 250 4 4 250 4 4 250 4 4 250 4 4 250 4 4 250 4 3 250 3 3 251 3 3 251 2 2 252 2 2 252 2 2 252 2 2 252 2 2 252 3 3 251 3 3 251 4 3 250 4 4 250 4 4 250 4 4 250 4 4 250 4 4 250 4 4 250 4 3 250 3 3 251 3 3 251 3 2 251 2 2 252 2 2 252 3 3 251 3 3 251 4 3 250 4 4 250 5 5 249 6 5 248 6 6 248 7 6 247 7 7 247 8 7 246 8 7 246 8 7 246 8 7 246 8 7 246 8 7 246 8 7 246 8 8 246 8 8 246 8 8 246 9 8 245 9 8 245 9 8 245 9 8 245 9 8 245 9 8 245 8 8 246 8 7 246 7 7 247 6 6 248 6 5 248 5 4 249 4 4 250 3 3 251 3 2 251 2 2 252 2 2 252 2 2 252 2 2 252 3 2 251 3 3 251 4 3 250 4 4 250 5 4 249 5 5 249 5 5 249 5 5 249 5 5 249 5 5 249 5 5 249 5 4 249 4 4 250 4 3 250 3 3 251 3 3 251 3 2 251 2 2 252 2 2 252 2 2 252 2 2 252 2 2 252 3 2 251 3 3 251 3 3 251 3 3 251 3 3 251 4 3 250 4 3 250 4 3 250 4 3 250 3 3 251 3 3 251 3 3 251 3 3 251 
3 3 251 3 3 251 3 3 251 4 3 250 4 3 250 4 3 250 4 3 250 3 3 251 3 3 251 3 3 251 3 3 251 3 2 251 2 2 252 2 2 252 2 2 252 2 2 252 2 2 252 3 2 251 3 3 251 3 3 251 4 3 250 4 4 250 5 4 249 5 5 249 5 5 249 5 5 249 5 5 249 5 5 249 5 5 249 4 4 250 4 4 250 3 3 251 3 3 251 2 2 252 2 2 252 2 2 252 2 2 252 2 2 252 3 2 251 3 3 251 4 4 250 5 5 249 6 6 248 7 7 247 8 8 246 9 8 245 10 9 244 10 10 244 11 10 243 11 10 243 11 10 243 11 10 243 11 10 243 11 10 243 11 10 243 11 10 243 11 10 243 11 10 243 10 10 244 10 10 244 10 10 244 10 10 244 10 9 244 10 9 244 9 8 245 8 8 246 7 7 247 6 6 248 6 5 248 5 4 249 4 4 250 3 3 251 3 2 251 2 2 252 2 2 252 3 2 251 3 3 251 3 3 251 4 4 250 4 4 250 5 4 249 5 5 249 5 5 249 5 4 249 4 4 250 4 4 250 3 3 251 3 3 251 2 2 252 2 2 252 2 2 252 2 2 252 2 2 252 3 3 251 3 3 251 4 4 250 4 4 250 5 4 249 5 5 249 5 5 249 5 4 249 4 4 250 4 4 250 3 3 251 3 3 251 3 2 251 2 2 252 2 2 252 3 2 251 3 3 251 4 4 250 5 4 249 6 5 248 6 6 248 7 7 247 8 8 246 9 8 245 10 9 244 10 9 244 10 10 244 10 10 244 10 10 244 10 10 244 11 10 243 11 10 243 11 10 243 11 10 243 11 10 243 11 10 243 11 10 243 11 10 243 11 10 243 11 10 243 10 10 244 10 9 244 9 8 245 8 8 246 7 7 247 6 6 248 5 5 249 4 4 250 3 3 251 3 2 251 2 2 252 2 2 252 2 2 252 2 2 252 2 2 252 3 3 251 3 3 251 4 4 250 4 4 250 5 5 249 5 5 249 5 5 249 5 5 249 5 5 249 5 5 249 5 4 249 4 4 250 4 3 250 3 3 251 3 3 251 3 2 251 2 2 252 2 2 252 2 2 252 2 2 252 2 2 252 3 2 251 3 3 251 3 3 251 3 3 251 3 3 251 4 3 250 4 3 250 4 3 250 4 3 250 3 3 251 3 3 251 3 3 251 
3 3 251 4 3 250 4 3 250 4 4 250 4 4 250 4 3 250 4 3 250 3 3 251 3 3 251 3 3 251 3 2 251 2 2 252 2 2 252 2 2 252 2 2 252 2 2 252 3 2 251 3 3 251 3 3 251 4 3 250 4 4 250 5 4 249 5 5 249 5 5 249 5 5 249 5 5 249 5 5 249 5 5 249 4 4 250 4 4 250 3 3 251 3 3 251 2 2 252 2 2 252 2 2 252 2 2 252 2 2 252 3 2 251 3 3 251 4 4 250 5 5 249 6 6 248 7 7 247 9 8 245 10 9 244 11 10 243 11 11 243 12 11 242 12 12 242 13 12 241 13 12 241 13 12 241 13 12 241 13 12 241 13 12 241 13 12 241 13 12 241 13 12 241 13 12 241 13 12 241 13 12 241 12 12 242 12 11 242 11 11 243 11 10 243 10 9 244 8 8 246 7 7 247 6 6 248 5 5 249 4 4 250 3 3 251 3 2 251 2 2 252 2 2 252 3 2 251 3 3 251 4 3 250 4 4 250 5 5 249 5 5 249 5 5 249 5 5 249 5 5 249 5 4 249 4 4 250 4 3 250 3 3 251 3 2 251 2 2 252 2 2 252 2 2 252 3 2 251 3 3 251 4 3 250 4 4 250 5 4 249 5 5 249 5 5 249 5 5 249 5 5 249 5 5 249 4 4 250 4 3 250 3 3 251 3 2 251 2 2 252 2 2 252 3 2 251 3 3 251 4 4 250 5 5 249 6 6 248 7 7 247 8 8 246 10 9 244 11 10 243 11 11 243 12 11 242 12 12 242 13 12 241 13 12 241 13 12 241 13 12 241 13 12 241 13 12 241 13 12 241 13 12 241 13 12 241 13 12 241 13 12 241 13 12 241 12 12 242 12 11 242 11 11 243 11 10 243 10 9 244 9 8 245 7 7 247 6 6 248 5 5 249 4 4 250 3 3 251 3 2 251 2 2 252 2 2 252 2 2 252 2 2 252 2 2 252 3 3 251 3 3 251 4 4 250 4 4 250 5 5 249 5 5 249 5 5 249 5 5 249 5 5 249 5 5 249 5 4 249 4 4 250 4 3 250 3 3 251 3 3 251 3 2 251 2 2 252 2 2 252 2 2 252 2 2 252 2 2 252 3 2 251 3 3 251 3 3 251 3 3 251 4 3 250 4 3 250 4 4 250 4 4 250 4 3 250 4 3 250 3 3 251 
4 4 250 4 4 250 4 4 250 4 4 250 4 4 250 4 3 250 4 3 250 3 3 251 3 3 251 3 3 251 2 2 252 2 2 252 2 2 252 2 2 252 2 2 252 3 2 251 3 3 251 3 3 251 4 4 250 4 4 250 5 4 249 5 5 249 5 5 249 5 5 249 5 5 249 5 5 249 5 5 249 4 4 250 4 4 250 3 3 251 3 3 251 2 2 252 2 2 252 2 2 252 2 2 252 2 2 252 3 2 251 3 3 251 4 4 250 5 5 249 6 6 248 8 7 246 9 8 245 10 9 244 11 10 243 12 11 242 13 12 241 13 13 241 14 13 240 14 13 240 14 13 240 14 13 240 14 14 240 14 14 240 15 14 239 15 14 239 15 14 239 15 14 239 15 14 239 15 14 239 15 14 239 14 13 240 14 13 240 13 12 241 12 11 242 11 10 243 9 9 245 8 7 246 6 6 248 5 5 249 4 4 250 3 3 251 2 2 252 2 2 252 2 2 252 3 2 251 3 3 251 4 4 250 5 4 249 5 5 249 6 5 248 6 5 248 6 5 248 6 5 248 5 5 249 4 4 250 4 4 250 3 3 251 3 2 251 2 2 252 2 2 252 2 2 252 3 2 251 3 3 251 4 4 250 4 4 250 5 5 249 6 5 248 6 5 248 6 5 248 6 5 248 5 5 249 5 4 249 4 4 250 3 3 251 3 2 251 2 2 252 2 2 252 2 2 252 3 3 251 4 4 250 5 5 249 6 6 248 8 7 246 9 9 245 11 10 243 12 11 242 13 12 241 14 13 240 14 13 240 15 14 239 15 14 239 15 14 239 15 14 239 15 14 239 15 14 239 15 14 239 14 14 240 14 14 240 14 13 240 14 13 240 14 13 240 14 13 240 13 13 241 13 12 241 12 11 242 11 10 243 10 9 244 9 8 245 8 7 246 6 6 248 5 5 249 4 4 250 3 3 251 3 2 251 2 2 252 2 2 252 2 2 252 2 2 252 2 2 252 3 3 251 3 3 251 4 4 250 4 4 250 5 5 249 5 5 249 5 5 249 5 5 249 5 5 249 5 5 249 5 4 249 4 4 250 4 4 250 3 3 251 3 3 251 3 2 251 2 2 252 2 2 252 2 2 252 2 2 252 2 2 252 3 3 251 3 3 251 3 3 251 4 3 250 4 3 250 4 4 250 4 4 250 4 4 250 4 4 250 4 4 250 
4 4 250 4 4 250 4 4 250 4 4 250 4 4 250 4 4 250 3 3 251 3 3 251 3 3 251 3 2 251 2 2 252 2 2 252 2 2 252 2 2 252 3 2 251 3 3 251 3 3 251 4 4 250 4 4 250 5 4 249 5 5 249 5 5 249 5 5 249 5 5 249 5 5 249 5 5 249 4 4 250 4 4 250 3 3 251 3 3 251 2 2 252 2 2 252 2 2 252 2 2 252 2 2 252 3 2 251 3 3 251 4 4 250 5 5 249 6 6 248 8 7 246 9 8 245 10 10 244 11 11 243 12 11 242 13 12 241 14 13 240 14 13 240 14 13 240 15 14 239 15 14 239 15 14 239 15 14 239 15 14 239 15 14 239 15 14 239 16 15 238 16 15 238 16 15 238 16 15 238 16 15 238 15 14 239 15 14 239 14 13 240 13 12 241 11 10 243 10 9 244 8 8 246 7 6 247 5 5 249 4 4 250 3 3 251 2 2 252 2 2 252 2 2 252 3 2 251 3 3 251 4 4 250 5 4 249 5 5 249 6 6 248 6 6 248 6 6 248 6 5 248 5 5 249 5 4 249 4 4 250 3 3 251 3 2 251 2 2 252 2 2 252 2 2 252 3 2 251 3 3 251 4 4 250 5 4 249 5 5 249 6 5 248 6 6 248 6 6 248 6 6 248 5 5 249 5 4 249 4 4 250 3 3 251 3 2 251 2 2 252 2 2 252 2 2 252 3 3 251 4 4 250 5 5 249 7 6 247 8 8 246 10 9 244 11 10 243 13 12 241 14 13 240 15 14 239 15 14 239 16 15 238 16 15 238 16 15 238 16 15 238 16 15 238 15 14 239 15 14 239 15 14 239 15 14 239 15 14 239 15 14 239 15 14 239 14 13 240 14 13 240 14 13 240 13 12 241 12 11 242 11 11 243 10 10 244 9 8 245 8 7 246 6 6 248 5 5 249 4 4 250 3 3 251 3 2 251 2 2 252 2 2 252 2 2 252 2 2 252 2 2 252 3 3 251 3 3 251 4 4 250 4 4 250 5 5 249 5 5 249 5 5 249 5 5 249 5 5 249 5 5 249 5 4 249 4 4 250 4 4 250 3 3 251 3 3 251 3 2 251 2 2 252 2 2 252 2 2 252 2 2 252 3 2 251 3 3 251 3 3 251 3 3 251 4 4 250 4 4 250 4 4 250 4 4 250 4 4 250 4 4 250 
5 4 249 5 4 249 5 4 249 4 4 250 4 4 250 4 4 250 3 3 251 3 3 251 3 3 251 2 2 252 2 2 252 2 2 252 2 2 252 3 2 251 3 3 251 3 3 251 4 4 250 4 4 250 5 4 249 5 5 249 5 5 249 5 5 249 5 5 249 5 5 249 5 5 249 4 4 250 4 4 250 3 3 251 3 3 251 2 2 252 2 2 252 2 2 252 2 2 252 2 2 252 3 3 251 3 3 251 4 4 250 5 5 249 7 6 247 8 7 246 9 8 245 10 9 244 11 10 243 12 11 242 13 12 241 13 12 241 14 13 240 14 13 240 14 13 240 14 13 240 14 13 240 14 14 240 14 14 240 15 14 239 15 14 239 15 14 239 15 14 239 16 15 238 16 15 238 16 15 238 16 15 238 15 14 239 15 14 239 14 13 240 13 12 241 11 10 243 10 9 244 8 8 246 6 6 248 5 5 249 4 4 250 3 3 251 2 2 252 2 2 252 2 2 252 3 2 251 3 3 251 4 4 250 5 4 249 5 5 249 6 6 248 6 6 248 6 6 248 6 6 248 5 5 249 5 4 249 4 4 250 3 3 251 3 2 251 2 2 252 2 2 252 2 2 252 3 2 251 3 3 251 4 4 250 5 4 249 5 5 249 6 6 248 6 6 248 6 6 248 6 6 248 5 5 249 5 4 249 4 4 250 3 3 251 3 2 251 2 2 252 2 2 252 2 2 252 3 3 251 4 4 250 5 5 249 6 6 248 8 8 246 10 9 244 11 10 243 13 12 241 14 13 240 15 14 239 15 14 239 16 15 238 16 15 238 16 15 238 16 15 238 15 14 239 15 14 239 15 14 239 15 14 239 14 14 240 14 14 240 14 13 240 14 13 240 14 13 240 14 13 240 14 13 240 13 12 241 13 12 241 12 11 242 11 10 243 10 9 244 9 8 245 8 7 246 7 6 247 5 5 249 4 4 250 3 3 251 3 3 251 2 2 252 2 2 252 2 2 252 2 2 252 2 2 252 3 3 251 3 3 251 4 4 250 4 4 250 5 5 249 5 5 249 5 5 249 5 5 249 5 5 249 5 5 249 5 4 249 4 4 250 4 4 250 3 3 251 3 3 251 3 2 251 2 2 252 2 2 252 2 2 252 2 2 252 3 3 251 3 3 251 3 3 251 4 4 250 4 4 250 4 4 250 5 4 249 5 4 249 5 4 249 
5 5 249 5 5 249 5 5 249 5 4 249 4 4 250 4 4 250 3 3 251 3 3 251 3 2 251 2 2 252 2 2 252 2 2 252 3 2 251 3 3 251 3 3 251 4 4 250 4 4 250 5 4 249 5 5 249 5 5 249 6 5 248 6 5 248 5 5 249 5 5 249 5 4 249 4 4 250 3 3 251 3 3 251 2 2 252 2 2 252 2 2 252 2 2 252 2 2 252 3 3 251 4 3 250 5 4 249 6 5 248 7 6 247 8 7 246 9 8 245 10 9 244 11 10 243 12 11 242 12 11 242 13 12 241 13 12 241 13 12 241 13 12 241 13 12 241 13 12 241 13 12 241 13 12 241 13 12 241 13 12 241 13 13 241 14 13 240 14 13 240 14 13 240 15 14 239 15 14 239 15 14 239 14 13 240 14 13 240 13 12 241 12 11 242 11 10 243 9 9 245 8 7 246 6 6 248 5 4 249 4 3 250 3 3 251 2 2 252 2 2 252 2 2 252 2 2 252 3 3 251 4 4 250 5 4 249 5 5 249 6 5 248 6 6 248 6 6 248 6 5 248 5 5 249 5 4 249 4 4 250 3 3 251 3 2 251 2 2 252 2 2 252 2 2 252 3 2 251 3 3 251 4 4 250 5 4 249 5 5 249 6 5 248 6 6 248 6 6 248 6 5 248 5 5 249 5 4 249 4 4 250 3 3 251 2 2 252 2 2 252 2 2 252 2 2 252 3 3 251 4 3 250 5 4 249 6 6 248 8 7 246 9 9 245 11 10 243 12 11 242 13 12 241 14 13 240 14 13 240 15 14 239 15 14 239 15 14 239 14 13 240 14 13 240 14 13 240 13 13 241 13 12 241 13 12 241 13 12 241 13 12 241 13 12 241 13 12 241 13 12 241 13 12 241 13 12 241 13 12 241 12 11 242 12 11 242 11 10 243 10 9 244 9 8 245 8 7 246 7 6 247 6 5 248 5 4 249 4 3 250 3 3 251 2 2 252 2 2 252 2 2 252 2 2 252 2 2 252 3 3 251 3 3 251 4 4 250 5 4 249 5 5 249 5 5 249 6 5 248 6 5 248 5 5 249 5 5 249 5 4 249 4 4 250 4 4 250 3 3 251 3 3 251 3 2 251 2 2 252 2 2 252 2 2 252 3 2 251 3 3 251 3 3 251 4 4 250 4 4 250 5 4 249 5 5 249 5 5 249 5 5 249 
6 6 248 6 5 248 5 5 249 5 5 249 4 4 250 4 4 250 3 3 251 3 3 251 3 2 251 2 2 252 2 2 252 3 2 251 3 3 251 3 3 251 4 4 250 4 4 250 5 4 249 5 5 249 5 5 249 6 5 248 6 5 248 5 5 249 5 5 249 5 4 249 4 4 250 3 3 251 3 3 251 2 2 252 2 2 252 2 2 252 2 2 252 3 2 251 3 3 251 4 4 250 5 5 249 6 6 248 7 7 247 8 8 246 9 9 245 10 9 244 11 10 243 11 11 243 12 11 242 12 11 242 12 11 242 12 11 242 11 11 243 11 11 243 11 10 243 11 10 243 11 10 243 10 10 244 10 10 244 11 10 243 11 10 243 11 10 243 11 11 243 12 11 242 12 11 242 12 12 242 12 12 242 12 11 242 12 11 242 11 10 243 10 10 244 9 9 245 8 8 246 7 7 247 6 5 248 5 4 249 3 3 251 3 3 251 2 2 252 2 2 252 2 2 252 2 2 252 3 3 251 4 3 250 4 4 250 5 5 249 5 5 249 6 5 248 6 5 248 5 5 249 5 5 249 4 4 250 4 3 250 3 3 251 3 2 251 2 2 252 2 2 252 2 2 252 3 2 251 3 3 251 4 3 250 4 4 250 5 5 249 5 5 249 6 5 248 6 5 248 5 5 249 5 5 249 4 4 250 4 3 250 3 3 251 2 2 252 2 2 252 2 2 252 2 2 252 3 3 251 3 3 251 5 4 249 6 5 248 7 7 247 8 8 246 9 9 245 10 10 244 11 10 243 12 11 242 12 11 242 12 12 242 12 12 242 12 11 242 12 11 242 11 11 243 11 10 243 11 10 243 11 10 243 10 10 244 10 10 244 11 10 243 11 10 243 11 10 243 11 11 243 11 11 243 12 11 242 12 11 242 12 11 242 12 11 242 11 11 243 11 10 243 10 9 244 9 9 245 8 8 246 7 7 247 6 6 248 5 5 249 4 4 250 3 3 251 3 2 251 2 2 252 2 2 252 2 2 252 2 2 252 3 3 251 3 3 251 4 4 250 5 4 249 5 5 249 5 5 249 6 5 248 6 5 248 5 5 249 5 5 249 5 4 249 4 4 250 4 4 250 3 3 251 3 3 251 3 2 251 2 2 252 2 2 252 3 2 251 3 3 251 3 3 251 4 4 250 4 4 250 5 5 249 5 5 249 6 5 248 6 6 248 
7 7 247 6 6 248 6 5 248 5 5 249 4 4 250 4 4 250 3 3 251 3 3 251 3 2 251 2 2 252 3 2 251 3 3 251 3 3 251 4 3 250 4 4 250 5 4 249 5 5 249 6 5 248 6 5 248 6 5 248 5 5 249 5 5 249 5 4 249 4 4 250 3 3 251 3 3 251 2 2 252 2 2 252 2 2 252 2 2 252 3 2 251 3 3 251 4 4 250 5 5 249 6 6 248 7 7 247 8 8 246 9 9 245 10 10 244 11 10 243 11 10 243 11 10 243 11 10 243 11 10 243 10 10 244 10 9 244 9 9 245 9 8 245 8 8 246 8 7 246 8 7 246 7 7 247 7 7 247 7 7 247 8 7 246 8 7 246 8 8 246 8 8 246 9 8 245 9 8 245 9 9 245 9 9 245 9 9 245 9 8 245 8 8 246 8 7 246 7 7 247 6 6 248 5 5 249 4 4 250 3 3 251 3 3 251 2 2 252 2 2 252 2 2 252 2 2 252 3 3 251 3 3 251 4 4 250 4 4 250 5 5 249 5 5 249 5 5 249 5 5 249 5 4 249 4 4 250 4 3 250 3 3 251 3 2 251 2 2 252 2 2 252 2 2 252 3 2 251 3 3 251 4 3 250 4 4 250 5 4 249 5 5 249 5 5 249 5 5 249 5 5 249 4 4 250 4 4 250 3 3 251 3 3 251 2 2 252 2 2 252 2 2 252 2 2 252 3 3 251 3 3 251 4 4 250 5 5 249 6 6 248 7 7 247 8 7 246 8 8 246 9 8 245 9 9 245 9 9 245 9 9 245 9 8 245 9 8 245 8 8 246 8 8 246 8 7 246 8 7 246 7 7 247 7 7 247 7 7 247 8 7 246 8 7 246 8 8 246 9 8 245 9 9 245 10 9 244 10 10 244 11 10 243 11 10 243 11 10 243 11 10 243 11 10 243 10 10 244 9 9 245 8 8 246 7 7 247 6 6 248 5 5 249 4 4 250 3 3 251 3 2 251 2 2 252 2 2 252 2 2 252 2 2 252 3 3 251 3 3 251 4 4 250 5 4 249 5 5 249 5 5 249 6 5 248 6 5 248 6 5 248 5 5 249 5 4 249 4 4 250 4 3 250 3 3 251 3 3 251 3 2 251 2 2 252 3 2 251 3 3 251 3 3 251 4 4 250 4 4 250 5 5 249 6 5 248 6 6 248 7 7 247 
8 8 246 7 7 247 6 6 248 5 5 249 5 4 249 4 4 250 3 3 251 3 3 251 3 2 251 2 2 252 3 2 251 3 3 251 4 3 250 4 4 250 5 4 249 5 5 249 6 5 248 6 5 248 6 5 248 6 5 248 5 5 249 5 4 249 4 4 250 3 3 251 3 3 251 2 2 252 2 2 252 2 2 252 2 2 252 3 2 251 3 3 251 4 4 250 5 5 249 7 6 247 8 7 246 9 8 245 10 9 244 11 10 243 11 10 243 11 10 243 11 10 243 11 10 243 10 9 244 9 9 245 8 8 246 8 7 246 7 6 247 6 6 248 5 5 249 5 5 249 5 4 249 4 4 250 4 4 250 4 4 250 4 4 250 4 4 250 5 4 249 5 4 249 5 5 249 5 5 249 6 5 248 6 6 248 6 6 248 6 6 248 6 6 248 6 6 248 6 5 248 5 5 249 5 4 249 4 4 250 3 3 251 3 3 251 2 2 252 2 2 252 2 2 252 2 2 252 3 2 251 3 3 251 3 3 251 4 4 250 4 4 250 5 4 249 5 4 249 5 4 249 4 4 250 4 4 250 3 3 251 3 3 251 2 2 252 2 2 252 2 2 252 2 2 252 2 2 252 3 3 251 3 3 251 4 4 250 4 4 250 5 4 249 5 4 249 5 4 249 4 4 250 4 4 250 3 3 251 3 3 251 3 2 251 2 2 252 2 2 252 2 2 252 2 2 252 3 3 251 3 3 251 4 4 250 5 4 249 5 5 249 6 5 248 6 6 248 6 6 248 6 6 248 6 6 248 6 6 248 6 5 248 5 5 249 5 5 249 5 4 249 5 4 249 4 4 250 4 4 250 4 4 250 4 4 250 4 4 250 5 4 249 5 5 249 5 5 249 6 6 248 7 6 247 8 7 246 8 8 246 9 9 245 10 9 244 11 10 243 11 10 243 11 10 243 11 10 243 11 10 243 10 9 244 9 8 245 8 7 246 7 6 247 5 5 249 4 4 250 3 3 251 3 2 251 2 2 252 2 2 252 2 2 252 2 2 252 3 3 251 3 3 251 4 4 250 5 4 249 5 5 249 6 5 248 6 5 248 6 5 248 6 5 248 5 5 249 5 4 249 4 4 250 4 3 250 3 3 251 3 2 251 2 2 252 3 2 251 3 3 251 3 3 251 4 4 250 5 4 249 5 5 249 6 6 248 7 7 247 8 8 246 
9 9 245 8 8 246 7 6 247 6 5 248 5 4 249 4 4 250 3 3 251 3 3 251 3 2 251 3 2 251 3 3 251 3 3 251 4 4 250 4 4 250 5 5 249 5 5 249 6 5 248 6 5 248 6 5 248 5 5 249 5 5 249 4 4 250 4 3 250 3 3 251 2 2 252 2 2 252 2 2 252 2 2 252 3 2 251 3 3 251 4 4 250 6 5 248 7 7 247 8 8 246 9 9 245 10 10 244 11 10 243 11 11 243 11 11 243 11 10 243 10 10 244 10 9 244 9 8 245 7 7 247 6 6 248 5 5 249 4 4 250 3 3 251 3 3 251 2 2 252 2 2 252 2 1 252 1 1 253 1 1 253 1 1 253 1 1 253 1 1 253 2 1 252 2 2 252 2 2 252 3 2 251 3 3 251 4 3 250 4 4 250 4 4 250 5 4 249 5 4 249 5 4 249 4 4 250 4 4 250 4 3 250 3 3 251 3 3 251 2 2 252 2 2 252 2 2 252 2 2 252 3 2 251 3 3 251 3 3 251 4 4 250 4 4 250 4 4 250 4 4 250 4 4 250 4 3 250 3 3 251 3 3 251 2 2 252 2 2 252 2 2 252 2 2 252 2 2 252 3 3 251 3 3 251 4 3 250 4 4 250 4 4 250 4 4 250 4 4 250 4 4 250 3 3 251 3 3 251 3 2 251 2 2 252 2 2 252 2 2 252 2 2 252 3 3 251 3 3 251 4 3 250 4 4 250 4 4 250 5 4 249 5 4 249 5 4 249 4 4 250 4 4 250 4 3 250 3 3 251 3 2 251 2 2 252 2 2 252 2 1 252 1 1 253 1 1 253 1 1 253 1 1 253 1 1 253 2 1 252 2 2 252 2 2 252 3 3 251 3 3 251 4 4 250 5 5 249 6 6 248 7 7 247 9 8 245 10 9 244 10 10 244 11 10 243 11 11 243 11 11 243 11 10 243 10 10 244 9 9 245 8 8 246 7 7 247 6 5 248 4 4 250 3 3 251 3 2 251 2 2 252 2 2 252 2 2 252 2 2 252 3 3 251 4 3 250 4 4 250 5 5 249 5 5 249 6 5 248 6 5 248 6 5 248 5 5 249 5 5 249 4 4 250 4 4 250 3 3 251 3 3 251 3 2 251 3 2 251 3 3 251 3 3 251 4 4 250 5 4 249 6 5 248 7 6 247 8 8 246 9 9 245 
10 10 244 9 8 245 7 7 247 6 6 248 5 5 249 4 4 250 3 3 251 3 2 251 3 2 251 3 2 251 3 3 251 3 3 251 4 4 250 5 4 249 5 5 249 6 5 248 6 5 248 6 5 248 5 5 249 5 5 249 4 4 250 4 3 250 3 3 251 2 2 252 2 2 252 2 2 252 2 2 252 3 2 251 3 3 251 5 4 249 6 5 248 7 7 247 9 8 245 10 9 244 11 10 243 12 11 242 12 11 242 12 11 242 11 11 243 11 10 243 9 9 245 8 8 246 7 6 247 5 5 249 4 4 250 3 3 251 2 2 252 1 1 253 1 1 253 1 1 253 0 0 254 0 0 254 0 0 254 0 0 254 0 0 254 0 0 254 0 0 255 0 0 254 0 0 254 0 0 254 1 0 253 1 1 253 2 2 252 3 2 251 3 3 251 4 4 250 4 4 250 5 4 249 5 4 249 4 4 250 4 4 250 4 3 250 3 3 251 3 2 251 2 2 252 2 2 252 2 2 252 2 2 252 3 2 251 3 3 251 3 3 251 4 3 250 4 4 250 4 4 250 4 3 250 3 3 251 3 3 251 3 3 251 2 2 252 2 2 252 2 2 252 2 2 252 2 2 252 3 3 251 3 3 251 3 3 251 4 3 250 4 4 250 4 4 250 4 3 250 3 3 251 3 3 251 3 2 251 2 2 252 2 2 252 2 2 252 2 2 252 3 2 251 3 3 251 4 3 250 4 4 250 4 4 250 5 4 249 5 4 249 4 4 250 4 4 250 3 3 251 3 2 251 2 2 252 1 1 253 1 0 253 0 0 254 0 0 254 0 0 254 0 0 255 0 0 254 0 0 254 0 0 254 0 0 254 0 0 254 0 0 254 1 1 253 1 1 253 1 1 253 2 2 252 3 3 251 4 4 250 5 5 249 7 6 247 8 8 246 9 9 245 11 10 243 11 11 243 12 11 242 12 11 242 12 11 242 11 10 243 10 9 244 9 8 245 7 7 247 6 5 248 5 4 249 3 3 251 3 2 251 2 2 252 2 2 252 2 2 252 2 2 252 3 3 251 4 3 250 4 4 250 5 5 249 5 5 249 6 5 248 6 5 248 6 5 248 5 5 249 5 4 249 4 4 250 3 3 251 3 3 251 3 2 251 3 2 251 3 2 251 3 3 251 4 4 250 5 5 249 6 6 248 7 7 247 9 8 245 10 10 244 
12 11 242 10 9 244 8 8 246 6 6 248 5 5 249 4 4 250 3 3 251 3 2 251 3 2 251 3 3 251 3 3 251 4 3 250 4 4 250 5 5 249 5 5 249 6 5 248 6 5 248 6 5 248 5 5 249 5 4 249 4 4 250 3 3 251 2 2 252 2 2 252 2 2 252 2 2 252 2 2 252 3 3 251 4 4 250 6 6 248 8 7 246 9 9 245 11 10 243 12 11 242 13 12 241 13 12 241 13 12 241 12 11 242 11 11 243 10 9 244 8 8 246 7 6 247 5 5 249 4 3 250 2 2 252 2 1 252 1 1 253 1 1 253 1 1 253 1 1 253 1 1 253 1 1 253 1 1 253 1 0 253 0 0 254 0 0 254 0 0 254 0 0 254 0 0 254 0 0 254 1 0 253 1 1 253 2 2 252 3 3 251 4 4 250 5 4 249 5 5 249 6 5 248 6 5 248 5 5 249 5 5 249 4 4 250 4 3 250 3 3 251 3 2 251 2 2 252 2 2 252 2 2 252 2 2 252 3 2 251 3 3 251 3 3 251 4 3 250 4 3 250 4 3 250 3 3 251 3 3 251 3 3 251 2 2 252 2 2 252 2 2 252 2 2 252 2 2 252 3 3 251 3 3 251 3 3 251 4 3 250 4 3 250 4 3 250 3 3 251 3 3 251 3 2 251 2 2 252 2 2 252 2 2 252 2 2 252 3 2 251 3 3 251 4 3 250 4 4 250 5 5 249 5 5 249 6 5 248 6 5 248 5 5 249 5 4 249 4 4 250 3 3 251 2 2 252 1 1 253 1 0 253 0 0 254 0 0 254 0 0 254 0 0 254 0 0 254 0 0 254 1 0 253 1 1 253 1 1 253 1 1 253 1 1 253 1 1 253 1 1 253 1 1 253 2 1 252 2 2 252 4 3 250 5 5 249 7 6 247 8 8 246 10 9 244 11 11 243 12 11 242 13 12 241 13 12 241 13 12 241 12 11 242 11 10 243 9 9 245 8 7 246 6 6 248 4 4 250 3 3 251 2 2 252 2 2 252 2 2 252 2 2 252 2 2 252 3 3 251 4 4 250 5 4 249 5 5 249 6 5 248 6 5 248 6 5 248 5 5 249 5 5 249 4 4 250 4 3 250 3 3 251 3 3 251 3 2 251 3 2 251 3 3 251 4 4 250 5 5 249 6 6 248 8 8 246 10 9 244 12 11 242 
13 12 241 11 10 243 9 8 245 7 6 247 5 5 249 4 4 250 3 3 251 3 2 251 3 2 251 3 3 251 3 3 251 4 4 250 5 4 249 5 5 249 5 5 249 6 5 248 6 5 248 5 5 249 5 4 249 4 4 250 3 3 251 3 2 251 2 2 252 2 2 252 2 2 252 2 2 252 3 3 251 4 4 250 6 6 248 8 7 246 9 9 245 11 10 243 13 12 241 14 13 240 14 13 240 14 13 240 13 12 241 12 11 242 11 10 243 9 8 245 7 6 247 5 5 249 4 3 250 2 2 252 2 1 252 1 1 253 1 1 253 2 2 252 2 2 252 3 3 251 4 3 250 4 4 250 4 4 250 4 4 250 4 4 250 4 4 250 4 3 250 3 3 251 3 3 251 3 3 251 3 3 251 4 4 250 5 4 249 6 5 248 6 6 248 7 7 247 8 7 246 8 7 246 8 7 246 7 7 247 6 6 248 6 5 248 4 4 250 4 3 250 3 3 251 2 2 252 2 2 252 2 2 252 2 2 252 3 2 251 3 3 251 3 3 251 4 4 250 4 4 250 4 4 250 4 3 250 3 3 251 3 3 251 2 2 252 2 2 252 2 2 252 2 2 252 2 2 252 3 3 251 3 3 251 4 3 250 4 4 250 4 4 250 4 4 250 3 3 251 3 3 251 3 2 251 2 2 252 2 2 252 2 2 252 2 2 252 3 3 251 4 3 250 4 4 250 6 5 248 6 6 248 7 7 247 8 7 246 8 7 246 8 7 246 7 7 247 6 6 248 6 5 248 5 4 249 4 4 250 3 3 251 3 3 251 3 3 251 3 3 251 4 3 250 4 4 250 4 4 250 4 4 250 4 4 250 4 4 250 4 3 250 3 3 251 2 2 252 2 2 252 1 1 253 1 1 253 2 1 252 2 2 252 4 3 250 5 5 249 7 6 247 9 8 245 11 10 243 12 11 242 13 12 241 14 13 240 14 13 240 14 13 240 13 12 241 11 10 243 9 9 245 8 7 246 6 6 248 4 4 250 3 3 251 2 2 252 2 2 252 2 2 252 2 2 252 3 2 251 3 3 251 4 4 250 5 4 249 5 5 249 6 5 248 6 5 248 5 5 249 5 5 249 5 4 249 4 4 250 3 3 251 3 3 251 3 2 251 3 2 251 3 3 251 4 4 250 5 5 249 7 6 247 9 8 245 11 10 243 13 12 241 
15 14 239 12 11 242 9 9 245 7 7 247 5 5 249 4 4 250 3 3 251 3 2 251 3 2 251 3 3 251 3 3 251 4 4 250 5 4 249 5 5 249 5 5 249 6 5 248 5 5 249 5 5 249 4 4 250 4 3 250 3 3 251 2 2 252 2 2 252 2 2 252 2 2 252 3 3 251 4 4 250 6 5 248 8 7 246 10 9 244 12 11 242 13 12 241 14 14 240 15 14 239 15 14 239 15 14 239 13 13 241 12 11 242 10 9 244 8 7 246 6 5 248 4 4 250 3 2 251 2 2 252 2 2 252 2 2 252 3 3 251 5 5 249 6 6 248 8 8 246 10 9 244 11 10 243 12 11 242 12 11 242 12 11 242 12 11 242 11 10 243 11 10 243 10 9 244 10 9 244 10 9 244 10 9 244 10 10 244 11 10 243 12 11 242 12 11 242 12 11 242 12 11 242 11 10 243 10 9 244 8 8 246 7 7 247 5 5 249 4 4 250 3 3 251 2 2 252 2 2 252 2 2 252 2 2 252 3 3 251 4 3 250 4 4 250 4 4 250 5 4 249 4 4 250 4 4 250 4 3 250 3 3 251 3 2 251 2 2 252 2 2 252 2 2 252 3 2 251 3 3 251 4 3 250 4 4 250 4 4 250 5 4 249 4 4 250 4 4 250 4 3 250 3 3 251 2 2 252 2 2 252 2 2 252 2 2 252 3 3 251 4 4 250 5 5 249 7 7 247 8 8 246 10 9 244 11 10 243 12 11 242 12 11 242 12 11 242 12 11 242 11 10 243 10 10 244 10 9 244 10 9 244 10 9 244 10 9 244 11 10 243 11 10 243 12 11 242 12 11 242 12 11 242 12 11 242 11 10 243 10 9 244 8 8 246 6 6 248 5 5 249 3 3 251 2 2 252 2 2 252 2 2 252 3 2 251 4 4 250 6 5 248 8 7 246 10 9 244 12 11 242 13 13 241 15 14 239 15 14 239 15 14 239 14 14 240 13 12 241 12 11 242 10 9 244 8 7 246 6 5 248 4 4 250 3 3 251 2 2 252 2 2 252 2 2 252 2 2 252 3 3 251 4 3 250 4 4 250 5 5 249 5 5 249 6 5 248 5 5 249 5 5 249 5 4 249 4 4 250 3 3 251 3 3 251 3 2 251 3 2 251 3 3 251 4 4 250 5 5 249 7 7 247 9 9 245 12 11 242 15 14 239 
16 15 238 13 12 241 10 9 244 7 7 247 5 5 249 4 4 250 3 3 251 2 2 252 2 2 252 3 3 251 3 3 251 4 4 250 5 4 249 5 5 249 5 5 249 5 5 249 5 5 249 4 4 250 4 4 250 3 3 251 2 2 252 2 2 252 2 2 252 2 2 252 3 2 251 4 4 250 6 5 248 8 7 246 10 9 244 12 11 242 14 13 240 15 15 239 16 15 238 17 16 237 16 15 238 15 14 239 13 12 241 11 10 243 9 8 245 6 6 248 4 4 250 3 3 251 2 2 252 2 2 252 3 3 251 5 5 249 8 7 246 11 10 243 14 13 240 17 16 237 19 18 235 21 20 233 23 22 231 24 22 230 24 23 230 24 22 230 23 22 231 22 21 232 22 20 232 21 20 233 20 19 234 20 19 234 20 19 234 20 19 234 20 18 234 19 18 235 18 17 236 17 16 237 15 15 239 13 13 241 11 10 243 9 8 245 7 6 247 5 4 249 3 3 251 2 2 252 2 2 252 2 2 252 3 2 251 4 3 250 4 4 250 5 5 249 6 5 248 6 5 248 6 5 248 5 5 249 4 4 250 3 3 251 3 2 251 2 2 252 2 2 252 2 2 252 3 2 251 3 3 251 4 4 250 5 5 249 6 5 248 6 5 248 6 5 248 5 5 249 4 4 250 4 3 250 3 2 251 2 2 252 2 2 252 2 2 252 3 3 251 5 4 249 7 6 247 9 8 245 11 10 243 13 13 241 15 15 239 17 16 237 18 17 236 19 18 235 20 18 234 20 19 234 20 19 234 20 19 234 20 19 234 21 20 233 22 20 232 22 21 232 23 22 231 24 22 230 24 23 230 24 22 230 23 22 231 21 20 233 19 18 235 17 16 237 14 13 240 11 10 243 8 7 246 5 5 249 3 3 251 2 2 252 2 2 252 3 3 251 4 4 250 6 6 248 9 8 245 11 10 243 13 12 241 15 14 239 16 15 238 17 16 237 16 15 238 15 15 239 14 13 240 12 11 242 10 9 244 8 7 246 6 5 248 4 4 250 3 2 251 2 2 252 2 2 252 2 2 252 2 2 252 3 3 251 4 4 250 4 4 250 5 5 249 5 5 249 5 5 249 5 5 249 5 4 249 4 4 250 3 3 251 3 3 251 2 2 252 2 2 252 3 3 251 4 4 250 5 5 249 7 7 247 10 9 244 13 12 241 16 15 238 
18 17 236 14 13 240 10 10 244 8 7 246 5 5 249 4 4 250 3 3 251 2 2 252 2 2 252 3 3 251 3 3 251 4 4 250 5 4 249 5 5 249 5 5 249 5 5 249 5 4 249 4 4 250 3 3 251 3 2 251 2 2 252 2 2 252 2 2 252 2 2 252 4 3 250 5 5 249 7 7 247 10 9 244 12 11 242 14 14 240 16 15 238 18 17 236 18 17 236 18 17 236 17 16 237 15 14 239 13 12 241 10 9 244 7 7 247 5 5 249 3 3 251 2 2 252 3 3 251 4 4 250 7 6 247 10 9 244 14 13 240 19 18 235 24 22 230 28 27 226 33 31 221 36 34 218 38 36 216 40 38 214 41 38 213 40 38 214 40 37 214 39 37 215 38 35 216 36 34 218 35 33 219 34 32 220 33 31 221 32 30 222 31 29 223 29 27 225 27 25 227 24 23 230 21 20 233 18 17 236 14 14 240 11 10 243 8 7 246 5 5 249 3 3 251 2 2 252 2 2 252 2 2 252 3 3 251 5 4 249 6 5 248 7 6 247 7 7 247 7 7 247 7 7 247 6 6 248 5 5 249 4 4 250 3 3 251 2 2 252 2 2 252 2 2 252 3 3 251 4 4 250 5 5 249 6 6 248 7 7 247 7 7 247 7 7 247 7 6 247 6 5 248 5 4 249 3 3 251 2 2 252 2 2 252 2 2 252 3 3 251 5 5 249 8 7 246 11 10 243 14 14 240 18 17 236 21 20 233 24 23 230 27 25 227 29 27 225 31 29 223 32 30 222 33 31 221 34 32 220 35 33 219 36 34 218 38 35 216 39 37 215 40 37 214 40 38 214 41 38 213 40 38 214 38 36 216 36 34 218 33 31 221 28 27 226 24 22 230 19 18 235 14 13 240 10 9 244 7 6 247 4 4 250 3 3 251 2 2 252 3 3 251 5 5 249 7 7 247 10 9 244 13 12 241 15 14 239 17 16 237 18 17 236 18 17 236 18 17 236 16 15 238 14 14 240 12 11 242 10 9 244 7 7 247 5 5 249 4 3 250 2 2 252 2 2 252 2 2 252 2 2 252 3 2 251 3 3 251 4 4 250 5 4 249 5 5 249 5 5 249 5 5 249 5 4 249 4 4 250 3 3 251 3 3 251 2 2 252 2 2 252 3 3 251 4 4 250 5 5 249 8 7 246 10 10 244 14 13 240 18 17 236 
19 18 235 15 14 239 11 10 243 8 7 246 5 5 249 4 4 250 3 3 251 2 2 252 2 2 252 3 3 251 3 3 251 4 4 250 5 4 249 5 5 249 5 5 249 5 4 249 4 4 250 4 3 250 3 3 251 2 2 252 2 2 252 2 2 252 2 2 252 3 3 251 5 5 249 7 7 247 9 9 245 12 11 242 15 14 239 17 16 237 19 18 235 20 19 234 20 19 234 19 18 235 17 16 237 15 14 239 12 11 242 9 8 245 6 6 248 4 4 250 3 2 251 3 2 251 4 4 250 7 7 247 11 11 243 17 16 237 23 22 231 30 28 224 37 35 217 44 41 210 49 46 205 54 51 200 58 54 196 60 57 194 61 58 193 62 58 192 61 57 193 60 56 194 58 55 196 56 53 198 54 51 200 52 49 202 50 47 204 48 45 206 45 42 209 42 39 212 38 36 216 33 31 221 29 27 225 23 22 231 18 17 236 13 13 241 9 9 245 6 6 248 4 3 250 2 2 252 2 2 252 3 3 251 4 4 250 6 6 248 8 7 246 9 8 245 9 9 245 9 9 245 9 8 245 8 7 246 6 6 248 4 4 250 3 3 251 2 2 252 2 1 252 2 2 252 3 3 251 4 4 250 6 6 248 8 7 246 9 8 245 9 9 245 9 9 245 9 8 245 8 7 246 6 6 248 4 4 250 3 3 251 2 2 252 2 2 252 4 3 250 6 6 248 9 9 245 13 13 241 18 17 236 23 22 231 29 27 225 33 31 221 38 36 216 42 39 212 45 42 209 48 45 206 50 47 204 52 49 202 54 51 200 56 53 198 58 55 196 60 56 194 61 57 193 62 58 192 61 58 193 60 57 194 58 54 196 54 51 200 49 46 205 44 41 210 37 35 217 30 28 224 23 22 231 17 16 237 11 11 243 7 7 247 4 4 250 3 2 251 3 2 251 4 4 250 6 6 248 9 8 245 12 11 242 15 14 239 17 16 237 19 18 235 20 19 234 20 19 234 19 18 235 17 16 237 15 14 239 12 11 242 9 9 245 7 7 247 5 5 249 3 3 251 2 2 252 2 2 252 2 2 252 2 2 252 3 3 251 4 3 250 4 4 250 5 4 249 5 5 249 5 5 249 5 4 249 4 4 250 3 3 251 3 3 251 2 2 252 2 2 252 3 3 251 4 4 250 5 5 249 8 7 246 11 10 243 15 14 239 19 18 235 
21 19 233 16 15 238 12 11 242 8 8 246 6 5 248 4 3 250 3 3 251 2 2 252 2 2 252 3 3 251 4 3 250 4 4 250 5 4 249 5 5 249 5 5 249 4 4 250 4 4 250 3 3 251 2 2 252 2 2 252 2 2 252 2 2 252 3 3 251 4 4 250 6 6 248 9 8 245 12 11 242 15 14 239 17 16 237 20 19 234 21 20 233 22 21 232 22 20 232 20 19 234 18 17 236 15 14 239 11 11 243 8 7 246 5 5 249 3 3 251 2 2 252 4 3 250 6 6 248 11 10 243 17 16 237 25 24 229 34 32 220 43 41 211 53 50 201 61 58 193 69 65 185 76 71 178 81 76 173 84 79 170 86 81 168 87 81 167 86 81 168 85 80 169 83 78 171 80 75 174 77 73 177 74 70 180 70 66 184 66 62 188 62 58 192 56 53 198 50 47 204 44 41 210 37 35 217 30 28 224 23 21 231 16 15 238 11 10 243 7 6 247 4 3 250 2 2 252 2 2 252 4 3 250 5 5 249 8 7 246 10 9 244 11 11 243 12 11 242 12 11 242 11 10 243 9 9 245 7 7 247 5 5 249 3 3 251 2 2 252 1 1 253 2 2 252 3 3 251 5 5 249 7 7 247 9 9 245 11 10 243 12 11 242 12 11 242 11 11 243 10 9 244 8 7 246 5 5 249 4 3 250 2 2 252 2 2 252 4 3 250 7 6 247 11 10 243 16 15 238 23 21 231 30 28 224 37 35 217 44 41 210 50 47 204 56 53 198 62 58 192 66 62 188 70 66 184 74 70 180 77 73 177 80 75 174 83 78 171 85 80 169 86 81 168 87 81 167 86 81 168 84 79 170 81 76 173 76 71 178 69 65 185 61 58 193 53 50 201 43 41 211 34 32 220 25 24 229 17 16 237 11 10 243 6 6 248 4 3 250 2 2 252 3 3 251 5 5 249 8 7 246 11 11 243 15 14 239 18 17 236 20 19 234 22 20 232 22 21 232 21 20 233 20 19 234 17 16 237 15 14 239 12 11 242 9 8 245 6 6 248 4 4 250 3 3 251 2 2 252 2 2 252 2 2 252 2 2 252 3 3 251 4 4 250 4 4 250 5 5 249 5 5 249 5 4 249 4 4 250 4 3 250 3 3 251 2 2 252 2 2 252 3 3 251 4 3 250 6 5 248 8 8 246 12 11 242 16 15 238 21 19 233 
22 21 232 17 16 237 12 11 242 8 8 246 6 5 248 4 3 250 3 2 251 2 2 252 2 2 252 3 3 251 4 3 250 4 4 250 5 4 249 5 4 249 5 4 249 4 4 250 4 3 250 3 3 251 2 2 252 2 2 252 2 2 252 2 2 252 4 3 250 5 5 249 8 7 246 11 10 243 14 13 240 17 16 237 20 19 234 22 21 232 24 22 230 24 23 230 23 22 231 21 20 233 18 17 236 14 13 240 10 10 244 7 6 247 4 4 250 2 2 252 3 2 251 5 5 249 9 9 245 16 15 238 25 23 229 35 33 219 46 44 208 58 55 196 70 66 184 81 76 173 91 86 163 99 94 155 106 100 148 110 104 144 113 107 141 114 107 140 114 107 140 112 106 142 110 103 144 106 100 148 103 97 151 98 92 156 93 87 161 87 82 167 80 76 174 73 68 181 64 60 190 55 52 199 46 43 208 36 34 218 27 26 227 19 18 235 12 12 242 7 7 247 4 4 250 2 2 252 3 3 251 4 4 250 7 6 247 10 9 244 12 11 242 14 13 240 15 14 239 15 14 239 13 13 241 11 11 243 8 8 246 6 5 248 3 3 251 2 2 252 1 1 253 2 2 252 3 3 251 6 5 248 8 8 246 11 11 243 13 13 241 15 14 239 15 14 239 14 13 240 12 11 242 10 9 244 7 6 247 4 4 250 3 3 251 2 2 252 4 4 250 7 7 247 12 12 242 19 18 235 27 26 227 36 34 218 46 43 208 55 52 199 64 60 190 73 68 181 80 76 174 87 82 167 93 87 161 98 92 156 103 97 151 106 100 148 110 103 144 112 106 142 114 107 140 114 107 140 113 107 141 110 104 144 106 100 148 99 94 155 91 86 163 81 76 173 70 66 184 58 55 196 46 44 208 35 33 219 25 23 229 16 15 238 9 9 245 5 5 249 3 2 251 2 2 252 4 4 250 7 6 247 10 10 244 14 13 240 18 17 236 21 20 233 23 22 231 24 23 230 24 22 230 22 21 232 20 19 234 17 16 237 14 13 240 11 10 243 8 7 246 5 5 249 4 3 250 2 2 252 2 2 252 2 2 252 2 2 252 3 3 251 4 3 250 4 4 250 5 4 249 5 4 249 5 4 249 4 4 250 4 3 250 3 3 251 2 2 252 2 2 252 3 2 251 4 3 250 6 5 248 8 8 246 12 11 242 17 16 237 22 21 232 
23 22 231 17 16 237 12 12 242 9 8 245 6 5 248 4 3 250 3 2 251 2 2 252 2 2 252 3 3 251 3 3 251 4 4 250 4 4 250 5 4 249 4 4 250 4 4 250 3 3 251 3 2 251 2 2 252 2 2 252 2 2 252 3 3 251 5 4 249 7 6 247 10 9 244 13 12 241 17 16 237 20 19 234 23 21 231 25 23 229 26 24 228 26 24 228 24 23 230 22 20 232 18 17 236 14 13 240 9 9 245 6 5 248 3 3 251 2 2 252 3 3 251 7 6 247 13 12 241 22 20 232 33 31 221 46 43 208 60 56 194 74 70 180 89 83 165 102 96 152 114 107 140 124 117 130 132 114 122 138 109 116 142 106 112 143 104 111 143 104 111 141 106 113 138 109 116 134 113 120 129 117 125 123 116 131 117 110 137 109 102 145 100 94 154 90 84 164 79 74 175 67 63 187 55 52 199 43 41 211 32 30 222 22 21 232 14 13 240 8 7 246 4 4 250 3 2 251 3 3 251 5 5 249 8 8 246 12 11 242 15 14 239 17 16 237 18 17 236 18 17 236 16 15 238 13 12 241 10 9 244 6 6 248 3 3 251 2 1 252 1 1 253 2 1 252 3 3 251 6 6 248 10 9 244 13 12 241 16 15 238 18 17 236 18 17 236 17 16 237 15 14 239 12 11 242 8 8 246 5 5 249 3 3 251 3 2 251 4 4 250 8 7 246 14 13 240 22 21 232 32 30 222 43 41 211 55 52 199 67 63 187 79 74 175 90 84 164 100 94 154 109 102 145 117 110 137 123 116 131 129 117 125 134 113 120 138 109 116 141 106 113 143 104 111 143 104 111 142 106 112 138 109 116 132 114 122 124 117 130 114 107 140 102 96 152 89 83 165 74 70 180 60 56 194 46 43 208 33 31 221 22 20 232 13 12 241 7 6 247 3 3 251 2 2 252 3 3 251 6 5 248 9 9 245 14 13 240 18 17 236 22 20 232 24 23 230 26 24 228 26 24 228 25 23 229 23 21 231 20 19 234 17 16 237 13 12 241 10 9 244 7 6 247 5 4 249 3 3 251 2 2 252 2 2 252 2 2 252 3 2 251 3 3 251 4 4 250 4 4 250 5 4 249 4 4 250 4 4 250 3 3 251 3 3 251 2 2 252 2 2 252 3 2 251 4 3 250 6 5 248 9 8 245 12 12 242 17 16 237 23 22 231 
24 23 230 18 17 236 13 12 241 9 8 245 6 5 248 4 3 250 3 2 251 2 2 252 2 2 252 3 3 251 3 3 251 4 4 250 4 4 250 4 4 250 4 4 250 4 3 250 3 3 251 2 2 252 2 2 252 2 2 252 2 2 252 4 3 250 5 5 249 8 8 246 11 11 243 15 14 239 19 18 235 22 21 232 25 24 229 27 26 227 28 26 226 27 26 227 25 24 229 22 21 232 18 17 236 13 12 241 9 8 245 5 4 249 2 2 252 2 2 252 4 4 250 9 8 245 17 16 237 28 26 226 41 39 213 56 53 198 73 69 181 90 85 164 107 101 147 123 115 131 137 110 117 149 99 105 158 90 96 165 83 89 170 79 84 172 77 82 172 77 82 170 79 84 167 82 87 162 87 92 156 92 98 149 99 105 140 107 114 130 116 124 119 112 135 107 100 147 93 87 161 79 74 175 64 60 190 50 47 204 36 34 218 25 23 229 15 14 239 8 8 246 4 4 250 3 2 251 3 3 251 6 6 248 10 9 244 14 13 240 17 16 237 20 19 234 21 20 233 21 19 233 19 17 235 15 14 239 11 11 243 7 7 247 4 3 250 1 1 253 1 1 253 1 1 253 4 3 250 7 7 247 11 11 243 15 14 239 19 17 235 21 19 233 21 20 233 20 19 234 17 16 237 14 13 240 10 9 244 6 6 248 3 3 251 3 2 251 4 4 250 8 8 246 15 14 239 25 23 229 36 34 218 50 47 204 64 60 190 79 74 175 93 87 161 107 100 147 119 112 135 130 116 124 140 107 114 149 99 105 156 92 98 162 87 92 167 82 87 170 79 84 172 77 82 172 77 82 170 79 84 165 83 89 158 90 96 149 99 105 137 110 117 123 115 131 107 101 147 90 85 164 73 69 181 56 53 198 41 39 213 28 26 226 17 16 237 9 8 245 4 4 250 2 2 252 2 2 252 5 4 249 9 8 245 13 12 241 18 17 236 22 21 232 25 24 229 27 26 227 28 26 226 27 26 227 25 24 229 22 21 232 19 18 235 15 14 239 11 11 243 8 8 246 5 5 249 4 3 250 2 2 252 2 2 252 2 2 252 2 2 252 3 3 251 4 3 250 4 4 250 4 4 250 4 4 250 4 4 250 3 3 251 3 3 251 2 2 252 2 2 252 3 2 251 4 3 250 6 5 248 9 8 245 13 12 241 18 17 236 24 23 230 
25 24 229 19 18 235 13 12 241 9 8 245 6 5 248 4 3 250 2 2 252 2 2 252 2 2 252 3 3 251 3 3 251 4 4 250 4 4 250 4 4 250 4 4 250 3 3 251 3 3 251 2 2 252 2 2 252 2 2 252 3 2 251 4 4 250 6 6 248 9 9 245 13 12 241 17 16 237 21 20 233 25 23 229 28 26 226 29 28 225 30 28 224 29 27 225 26 25 228 22 21 232 18 17 236 13 12 241 8 7 246 4 4 250 2 2 252 2 2 252 5 5 249 11 10 243 21 19 233 33 31 221 49 46 205 66 62 188 85 80 169 105 99 149 124 117 130 142 106 112 158 90 96 172 78 82 183 67 71 191 60 63 196 55 58 199 52 55 199 52 55 197 54 57 193 57 61 188 62 66 181 69 73 172 77 82 162 87 92 150 98 104 137 110 117 122 115 132 106 100 148 89 84 165 72 68 182 56 53 198 41 38 213 27 26 227 17 16 237 9 8 245 4 4 250 3 2 251 4 3 250 7 6 247 11 10 243 16 15 238 20 19 234 23 21 231 24 23 230 23 22 231 21 20 233 17 16 237 12 12 242 8 7 246 4 4 250 1 1 253 0 0 254 1 1 253 4 4 250 8 7 246 12 12 242 17 16 237 21 20 233 23 22 231 24 23 230 23 21 231 20 19 234 16 15 238 11 10 243 7 6 247 4 3 250 3 2 251 4 4 250 9 8 245 17 16 237 27 26 227 41 38 213 56 53 198 72 68 182 89 84 165 106 100 148 122 115 132 137 110 117 150 98 104 162 87 92 172 77 82 181 69 73 188 62 66 193 57 61 197 54 57 199 52 55 199 52 55 196 55 58 191 60 63 183 67 71 172 78 82 158 90 96 142 106 112 124 117 130 105 99 149 85 80 169 66 62 188 49 46 205 33 31 221 21 19 233 11 10 243 5 5 249 2 2 252 2 2 252 4 4 250 8 7 246 13 12 241 18 17 236 22 21 232 26 25 228 29 27 225 30 28 224 29 28 225 28 26 226 25 23 229 21 20 233 17 16 237 13 12 241 9 9 245 6 6 248 4 4 250 3 2 251 2 2 252 2 2 252 2 2 252 3 3 251 3 3 251 4 4 250 4 4 250 4 4 250 4 4 250 3 3 251 3 3 251 2 2 252 2 2 252 2 2 252 4 3 250 6 5 248 9 8 245 13 12 241 19 18 235 25 24 229 
26 25 228 19 18 235 13 13 241 9 8 245 6 5 248 4 3 250 2 2 252 2 2 252 2 2 252 3 3 251 3 3 251 4 4 250 4 4 250 4 4 250 4 4 250 3 3 251 3 2 251 2 2 252 2 2 252 2 2 252 3 3 251 5 4 249 7 7 247 11 10 243 14 14 240 19 18 235 23 21 231 27 25 227 29 28 225 31 29 223 31 29 223 30 28 224 27 25 227 23 21 231 18 17 236 12 11 242 7 7 247 3 3 251 1 1 253 2 2 252 6 5 248 13 12 241 24 23 230 38 36 216 56 52 198 75 71 179 96 90 158 117 111 137 139 109 115 158 90 96 176 73 78 191 59 63 203 48 51 212 39 42 218 34 36 221 31 33 222 30 32 220 32 34 216 36 38 210 42 44 202 49 52 192 58 62 181 69 73 167 81 87 152 96 102 136 111 118 118 111 136 99 93 155 80 75 174 61 58 193 44 42 210 29 28 225 18 17 236 9 9 245 4 4 250 3 2 251 4 4 250 7 7 247 12 12 242 17 16 237 22 21 232 25 24 229 26 25 228 26 24 228 23 21 231 19 17 235 14 13 240 8 8 246 4 4 250 1 1 253 0 0 254 1 1 253 4 4 250 8 8 246 14 13 240 19 17 235 23 21 231 26 24 228 26 25 228 25 24 229 22 21 232 17 16 237 12 12 242 7 7 247 4 4 250 3 2 251 4 4 250 9 9 245 18 17 236 29 28 225 44 42 210 61 58 193 80 75 174 99 93 155 118 111 136 136 111 118 152 96 102 167 81 87 181 69 73 192 58 62 202 49 52 210 42 44 216 36 38 220 32 34 222 30 32 221 31 33 218 34 36 212 39 42 203 48 51 191 59 63 176 73 78 158 90 96 139 109 115 117 111 137 96 90 158 75 71 179 56 52 198 38 36 216 24 23 230 13 12 241 6 5 248 2 2 252 1 1 253 3 3 251 7 7 247 12 11 242 18 17 236 23 21 231 27 25 227 30 28 224 31 29 223 31 29 223 29 28 225 27 25 227 23 21 231 19 18 235 14 14 240 11 10 243 7 7 247 5 4 249 3 3 251 2 2 252 2 2 252 2 2 252 3 2 251 3 3 251 4 4 250 4 4 250 4 4 250 4 4 250 3 3 251 3 3 251 2 2 252 2 2 252 2 2 252 4 3 250 6 5 248 9 8 245 13 13 241 19 18 235 26 25 228 
27 25 227 20 18 234 14 13 240 9 8 245 6 5 248 4 3 250 2 2 252 2 2 252 2 2 252 3 3 251 3 3 251 4 4 250 4 4 250 4 4 250 4 4 250 3 3 251 3 2 251 2 2 252 2 2 252 2 2 252 3 3 251 5 5 249 8 7 246 11 11 243 16 15 238 20 19 234 24 23 230 28 26 226 31 29 223 32 30 222 32 30 222 31 29 223 27 26 227 23 22 231 18 16 236 12 11 242 7 6 247 3 3 251 1 1 253 2 2 252 7 6 247 15 14 239 27 25 227 42 40 212 61 57 193 82 77 172 104 98 150 127 119 127 150 98 104 171 78 83 190 60 64 206 45 48 219 33 35 229 24 25 236 17 18 239 14 15 240 14 14 238 15 16 233 19 21 227 26 27 218 34 36 208 43 46 195 55 59 181 69 73 164 85 90 146 102 108 126 119 128 106 99 148 85 80 169 65 61 189 47 44 207 31 29 223 18 17 236 9 9 245 4 4 250 3 2 251 4 4 250 8 8 246 13 12 241 19 18 235 24 22 230 27 25 227 28 27 226 27 26 227 24 23 230 20 19 234 14 13 240 9 8 245 4 4 250 1 1 253 0 0 254 1 1 253 4 4 250 9 8 245 14 13 240 20 19 234 24 23 230 27 26 227 28 27 226 27 25 227 24 22 230 19 18 235 13 12 241 8 8 246 4 4 250 3 2 251 4 4 250 9 9 245 18 17 236 31 29 223 47 44 207 65 61 189 85 80 169 106 99 148 126 119 128 146 102 108 164 85 90 181 69 73 195 55 59 208 43 46 218 34 36 227 26 27 233 19 21 238 15 16 240 14 14 239 14 15 236 17 18 229 24 25 219 33 35 206 45 48 190 60 64 171 78 83 150 98 104 127 119 127 104 98 150 82 77 172 61 57 193 42 40 212 27 25 227 15 14 239 7 6 247 2 2 252 1 1 253 3 3 251 7 6 247 12 11 242 18 16 236 23 22 231 27 26 227 31 29 223 32 30 222 32 30 222 31 29 223 28 26 226 24 23 230 20 19 234 16 15 238 11 11 243 8 7 246 5 5 249 3 3 251 2 2 252 2 2 252 2 2 252 3 2 251 3 3 251 4 4 250 4 4 250 4 4 250 4 4 250 3 3 251 3 3 251 2 2 252 2 2 252 2 2 252 4 3 250 6 5 248 9 8 245 14 13 240 20 18 234 27 25 227 
27 25 227 20 19 234 14 13 240 9 8 245 6 5 248 3 3 251 2 2 252 2 2 252 2 2 252 3 3 251 3 3 251 4 4 250 4 4 250 4 4 250 4 3 250 3 3 251 2 2 252 2 2 252 2 2 252 2 2 252 3 3 251 5 5 249 8 8 246 12 11 242 16 15 238 21 19 233 25 24 229 29 27 225 32 30 222 33 31 221 33 31 221 31 29 223 28 26 226 23 22 231 17 16 237 12 11 242 6 6 248 3 2 251 1 1 253 2 2 252 7 7 247 16 15 238 28 27 226 45 42 209 64 60 190 86 81 168 110 103 144 133 113 121 157 91 97 179 71 75 199 52 55 216 36 38 229 23 25 239 14 15 246 7 8 250 4 4 251 3 3 249 5 5 244 9 10 238 15 16 229 24 25 218 34 36 204 47 50 189 61 65 172 78 82 152 96 102 132 115 122 110 104 144 89 83 165 68 64 186 49 46 205 32 30 222 19 18 235 10 9 244 4 4 250 3 2 251 4 4 250 8 8 246 14 13 240 20 18 234 25 23 229 28 26 226 29 28 225 28 27 226 25 24 229 21 19 233 15 14 239 9 9 245 4 4 250 1 1 253 0 0 254 1 1 253 4 4 250 9 9 245 15 14 239 21 19 233 25 24 229 28 27 226 29 28 225 28 26 226 25 23 229 20 18 234 14 13 240 8 8 246 4 4 250 3 2 251 4 4 250 10 9 244 19 18 235 32 30 222 49 46 205 68 64 186 89 83 165 110 104 144 132 115 122 152 96 102 172 78 82 189 61 65 204 47 50 218 34 36 229 24 25 238 15 16 244 9 10 249 5 5 251 3 3 250 4 4 246 7 8 239 14 15 229 23 25 216 36 38 199 52 55 179 71 75 157 91 97 133 113 121 110 103 144 86 81 168 64 60 190 45 42 209 28 27 226 16 15 238 7 7 247 2 2 252 1 1 253 3 2 251 6 6 248 12 11 242 17 16 237 23 22 231 28 26 226 31 29 223 33 31 221 33 31 221 32 30 222 29 27 225 25 24 229 21 19 233 16 15 238 12 11 242 8 8 246 5 5 249 3 3 251 2 2 252 2 2 252 2 2 252 2 2 252 3 3 251 4 3 250 4 4 250 4 4 250 4 4 250 3 3 251 3 3 251 2 2 252 2 2 252 2 2 252 3 3 251 6 5 248 9 8 245 14 13 240 20 19 234 27 25 227 
27 26 227 20 19 234 14 13 240 9 8 245 6 5 248 3 3 251 2 2 252 2 2 252 2 2 252 3 3 251 3 3 251 4 4 250 4 4 250 4 4 250 4 3 250 3 3 251 2 2 252 2 2 252 2 2 252 2 2 252 3 3 251 6 5 248 8 8 246 12 11 242 16 15 238 21 20 233 25 24 229 29 27 225 32 30 222 33 31 221 33 31 221 31 29 223 28 26 226 23 22 231 17 16 237 12 11 242 6 6 248 2 2 252 1 1 253 2 2 252 7 7 247 16 15 238 29 27 225 46 43 208 65 61 189 88 82 166 111 105 143 136 111 118 159 89 95 182 68 72 202 49 52 219 33 35 233 20 21 243 10 11 250 4 4 254 0 0 255 0 0 252 1 2 248 6 6 241 12 13 232 21 22 221 31 33 208 44 46 192 58 62 174 75 80 155 94 99 134 113 120 112 105 142 90 84 164 69 64 185 49 46 205 32 31 222 19 18 235 10 9 244 4 4 250 3 2 251 4 4 250 8 8 246 14 13 240 20 19 234 25 23 229 28 27 226 30 28 224 29 27 225 26 24 228 21 20 233 15 14 239 9 9 245 4 4 250 1 1 253 0 0 254 1 1 253 4 4 250 9 9 245 15 14 239 21 20 233 26 24 228 29 27 225 30 28 224 28 27 226 25 23 229 20 19 234 14 13 240 8 8 246 4 4 250 3 2 251 4 4 250 10 9 244 19 18 235 32 31 222 49 46 205 69 64 185 90 84 164 112 105 142 134 113 120 155 94 99 174 75 80 192 58 62 208 44 46 221 31 33 232 21 22 241 12 13 248 6 6 252 1 2 254 0 0 254 0 0 250 4 4 243 10 11 233 20 21 219 33 35 202 49 52 182 68 72 159 89 95 136 111 118 111 105 143 88 82 166 65 61 189 46 43 208 29 27 225 16 15 238 7 7 247 2 2 252 1 1 253 2 2 252 6 6 248 12 11 242 17 16 237 23 22 231 28 26 226 31 29 223 33 31 221 33 31 221 32 30 222 29 27 225 25 24 229 21 20 233 16 15 238 12 11 242 8 8 246 6 5 248 3 3 251 2 2 252 2 2 252 2 2 252 2 2 252 3 3 251 4 3 250 4 4 250 4 4 250 4 4 250 3 3 251 3 3 251 2 2 252 2 2 252 2 2 252 3 3 251 6 5 248 9 8 245 14 13 240 20 19 234 27 26 227 
27 25 227 20 19 234 14 13 240 9 8 245 6 5 248 3 3 251 2 2 252 2 2 252 2 2 252 3 3 251 3 3 251 4 4 250 4 4 250 4 4 250 4 3 250 3 3 251 2 2 252 2 2 252 2 2 252 2 2 252 3 3 251 5 5 249 8 8 246 12 11 242 16 15 238 21 19 233 25 24 229 29 27 225 32 30 222 33 31 221 33 31 221 31 29 223 28 26 226 23 22 231 17 16 237 12 11 242 6 6 248 3 2 251 1 1 253 2 2 252 7 7 247 16 15 238 28 27 226 45 42 209 64 60 190 86 81 168 110 103 144 133 113 121 157 91 97 179 71 75 199 52 55 216 36 38 229 23 25 239 14 15 246 7 8 250 4 4 251 3 3 249 5 5 244 9 10 238 15 16 229 24 25 218 34 36 204 47 50 189 61 65 172 78 82 152 96 102 132 115 122 110 104 144 89 83 165 68 64 186 49 46 205 32 30 222 19 18 235 10 9 244 4 4 250 3 2 251 4 4 250 8 8 246 14 13 240 20 18 234 25 23 229 28 26 226 29 28 225 28 27 226 25 24 229 21 19 233 15 14 239 9 9 245 4 4 250 1 1 253 0 0 254 1 1 253 4 4 250 9 9 245 15 14 239 21 19 233 25 24 229 28 27 226 29 28 225 28 26 226 25 23 229 20 18 234 14 13 240 8 8 246 4 4 250 3 2 251 4 4 250 10 9 244 19 18 235 32 30 222 49 46 205 68 64 186 89 83 165 110 104 144 132 115 122 152 96 102 172 78 82 189 61 65 204 47 50 218 34 36 229 24 25 238 15 16 244 9 10 249 5 5 251 3 3 250 4 4 246 7 8 239 14 15 229 23 25 216 36 38 199 52 55 179 71 75 157 91 97 133 113 121 110 103 144 86 81 168 64 60 190 45 42 209 28 27 226 16 15 238 7 7 247 2 2 252 1 1 253 3 2 251 6 6 248 12 11 242 17 16 237 23 22 231 28 26 226 31 29 223 33 31 221 33 31 221 32 30 222 29 27 225 25 24 229 21 19 233 16 15 238 12 11 242 8 8 246 5 5 249 3 3 251 2 2 252 2 2 252 2 2 252 2 2 252 3 3 251 4 3 250 4 4 250 4 4 250 4 4 250 3 3 251 3 3 251 2 2 252 2 2 252 2 2 252 3 3 251 6 5 248 9 8 245 14 13 240 20 19 234 27 25 227 
27 25 227 20 18 234 14 13 240 9 8 245 6 5 248 4 3 250 2 2 252 2 2 252 2 2 252 3 3 251 3 3 251 4 4 250 4 4 250 4 4 250 4 4 250 3 3 251 3 2 251 2 2 252 2 2 252 2 2 252 3 3 251 5 5 249 8 7 246 11 11 243 16 15 238 20 19 234 24 23 230 28 26 226 31 29 223 32 30 222 32 30 222 31 29 223 27 26 227 23 22 231 18 16 236 12 11 242 7 6 247 3 3 251 1 1 253 2 2 252 7 6 247 15 14 239 27 25 227 42 40 212 61 57 193 82 77 172 104 98 150 127 119 127 150 98 104 171 78 83 190 60 64 206 45 48 219 33 35 229 24 25 236 17 18 239 14 15 240 14 14 238 15 16 233 19 21 227 26 27 218 34 36 208 43 46 195 55 59 181 69 73 164 85 90 146 102 108 126 119 128 106 99 148 85 80 169 65 61 189 47 44 207 31 29 223 18 17 236 9 9 245 4 4 250 3 2 251 4 4 250 8 8 246 13 12 241 19 18 235 24 22 230 27 25 227 28 27 226 27 26 227 24 23 230 20 19 234 14 13 240 9 8 245 4 4 250 1 1 253 0 0 254 1 1 253 4 4 250 9 8 245 14 13 240 20 19 234 24 23 230 27 26 227 28 27 226 27 25 227 24 22 230 19 18 235 13 12 241 8 8 246 4 4 250 3 2 251 4 4 250 9 9 245 18 17 236 31 29 223 47 44 207 65 61 189 85 80 169 106 99 148 126 119 128 146 102 108 164 85 90 181 69 73 195 55 59 208 43 46 218 34 36 227 26 27 233 19 21 238 15 16 240 14 14 239 14 15 236 17 18 229 24 25 219 33 35 206 45 48 190 60 64 171 78 83 150 98 104 127 119 127 104 98 150 82 77 172 61 57 193 42 40 212 27 25 227 15 14 239 7 6 247 2 2 252 1 1 253 3 3 251 7 6 247 12 11 242 18 16 236 23 22 231 27 26 227 31 29 223 32 30 222 32 30 222 31 29 223 28 26 226 24 23 230 20 19 234 16 15 238 11 11 243 8 7 246 5 5 249 3 3 251 2 2 252 2 2 252 2 2 252 3 2 251 3 3 251 4 4 250 4 4 250 4 4 250 4 4 250 3 3 251 3 3 251 2 2 252 2 2 252 2 2 252 4 3 250 6 5 248 9 8 245 14 13 240 20 18 234 27 25 227 
26 25 228 19 18 235 13 13 241 9 8 245 6 5 248 4 3 250 2 2 252 2 2 252 2 2 252 3 3 251 3 3 251 4 4 250 4 4 250 4 4 250 4 4 250 3 3 251 3 2 251 2 2 252 2 2 252 2 2 252 3 3 251 5 4 249 7 7 247 11 10 243 14 14 240 19 18 235 23 21 231 27 25 227 29 28 225 31 29 223 31 29 223 30 28 224 27 25 227 23 21 231 18 17 236 12 11 242 7 7 247 3 3 251 1 1 253 2 2 252 6 5 248 13 12 241 24 23 230 38 36 216 56 52 198 75 71 179 96 90 158 117 111 137 139 109 115 158 90 96 176 73 78 191 59 63 203 48 51 212 39 42 218 34 36 221 31 33 222 30 32 220 32 34 216 36 38 210 42 44 202 49 52 192 58 62 181 69 73 167 81 87 152 96 102 136 111 118 118 111 136 99 93 155 80 75 174 61 58 193 44 42 210 29 28 225 18 17 236 9 9 245 4 4 250 3 2 251 4 4 250 7 7 247 12 12 242 17 16 237 22 21 232 25 24 229 26 25 228 26 24 228 23 21 231 19 17 235 14 13 240 8 8 246 4 4 250 1 1 253 0 0 254 1 1 253 4 4 250 8 8 246 14 13 240 19 17 235 23 21 231 26 24 228 26 25 228 25 24 229 22 21 232 17 16 237 12 12 242 7 7 247 4 4 250 3 2 251 4 4 250 9 9 245 18 17 236 29 28 225 44 42 210 61 58 193 80 75 174 99 93 155 118 111 136 136 111 118 152 96 102 167 81 87 181 69 73 192 58 62 202 49 52 210 42 44 216 36 38 220 32 34 222 30 32 221 31 33 218 34 36 212 39 42 203 48 51 191 59 63 176 73 78 158 90 96 139 109 115 117 111 137 96 90 158 75 71 179 56 52 198 38 36 216 24 23 230 13 12 241 6 5 248 2 2 252 1 1 253 3 3 251 7 7 247 12 11 242 18 17 236 23 21 231 27 25 227 30 28 224 31 29 223 31 29 223 29 28 225 27 25 227 23 21 231 19 18 235 14 14 240 11 10 243 7 7 247 5 4 249 3 3 251 2 2 252 2 2 252 2 2 252 3 2 251 3 3 251 4 4 250 4 4 250 4 4 250 4 4 250 3 3 251 3 3 251 2 2 252 2 2 252 2 2 252 4 3 250 6 5 248 9 8 245 13 13 241 19 18 235 26 25 228 
25 24 229 19 18 235 13 12 241 9 8 245 6 5 248 4 3 250 2 2 252 2 2 252 2 2 252 3 3 251 3 3 251 4 4 250 4 4 250 4 4 250 4 4 250 3 3 251 3 3 251 2 2 252 2 2 252 2 2 252 3 2 251 4 4 250 6 6 248 9 9 245 13 12 241 17 16 237 21 20 233 25 23 229 28 26 226 29 28 225 30 28 224 29 27 225 26 25 228 22 21 232 18 17 236 13 12 241 8 7 246 4 4 250 2 2 252 2 2 252 5 5 249 11 10 243 21 19 233 33 31 221 49 46 205 66 62 188 85 80 169 105 99 149 124 117 130 142 106 112 158 90 96 172 78 82 183 67 71 191 60 63 196 55 58 199 52 55 199 52 55 197 54 57 193 57 61 188 62 66 181 69 73 172 77 82 162 87 92 150 98 104 137 110 117 122 115 132 106 100 148 89 84 165 72 68 182 56 53 198 41 38 213 27 26 227 17 16 237 9 8 245 4 4 250 3 2 251 4 3 250 7 6 247 11 10 243 16 15 238 20 19 234 23 21 231 24 23 230 23 22 231 21 20 233 17 16 237 12 12 242 8 7 246 4 4 250 1 1 253 0 0 254 1 1 253 4 4 250 8 7 246 12 12 242 17 16 237 21 20 233 23 22 231 24 23 230 23 21 231 20 19 234 16 15 238 11 10 243 7 6 247 4 3 250 3 2 251 4 4 250 9 8 245 17 16 237 27 26 227 41 38 213 56 53 198 72 68 182 89 84 165 106 100 148 122 115 132 137 110 117 150 98 104 162 87 92 172 77 82 181 69 73 188 62 66 193 57 61 197 54 57 199 52 55 199 52 55 196 55 58 191 60 63 183 67 71 172 78 82 158 90 96 142 106 112 124 117 130 105 99 149 85 80 169 66 62 188 49 46 205 33 31 221 21 19 233 11 10 243 5 5 249 2 2 252 2 2 252 4 4 250 8 7 246 13 12 241 18 17 236 22 21 232 26 25 228 29 27 225 30 28 224 29 28 225 28 26 226 25 23 229 21 20 233 17 16 237 13 12 241 9 9 245 6 6 248 4 4 250 3 2 251 2 2 252 2 2 252 2 2 252 3 3 251 3 3 251 4 4 250 4 4 250 4 4 250 4 4 250 3 3 251 3 3 251 2 2 252 2 2 252 2 2 252 4 3 250 6 5 248 9 8 245 13 12 241 19 18 235 25 24 229 
24 23 230 18 17 236 13 12 241 9 8 245 6 5 248 4 3 250 3 2 251 2 2 252 2 2 252 3 3 251 3 3 251 4 4 250 4 4 250 4 4 250 4 4 250 4 3 250 3 3 251 2 2 252 2 2 252 2 2 252 2 2 252 4 3 250 5 5 249 8 8 246 11 11 243 15 14 239 19 18 235 22 21 232 25 24 229 27 26 227 28 26 226 27 26 227 25 24 229 22 21 232 18 17 236 13 12 241 9 8 245 5 4 249 2 2 252 2 2 252 4 4 250 9 8 245 17 16 237 28 26 226 41 39 213 56 53 198 73 69 181 90 85 164 107 101 147 123 115 131 137 110 117 149 99 105 158 90 96 165 83 89 170 79 84 172 77 82 172 77 82 170 79 84 167 82 87 162 87 92 156 92 98 149 99 105 140 107 114 130 116 124 119 112 135 107 100 147 93 87 161 79 74 175 64 60 190 50 47 204 36 34 218 25 23 229 15 14 239 8 8 246 4 4 250 3 2 251 3 3 251 6 6 248 10 9 244 14 13 240 17 16 237 20 19 234 21 20 233 21 19 233 19 17 235 15 14 239 11 11 243 7 7 247 4 3 250 1 1 253 1 1 253 1 1 253 4 3 250 7 7 247 11 11 243 15 14 239 19 17 235 21 19 233 21 20 233 20 19 234 17 16 237 14 13 240 10 9 244 6 6 248 3 3 251 3 2 251 4 4 250 8 8 246 15 14 239 25 23 229 36 34 218 50 47 204 64 60 190 79 74 175 93 87 161 107 100 147 119 112 135 130 116 124 140 107 114 149 99 105 156 92 98 162 87 92 167 82 87 170 79 84 172 77 82 172 77 82 170 79 84 165 83 89 158 90 96 149 99 105 137 110 117 123 115 131 107 101 147 90 85 164 73 69 181 56 53 198 41 39 213 28 26 226 17 16 237 9 8 245 4 4 250 2 2 252 2 2 252 5 4 249 9 8 245 13 12 241 18 17 236 22 21 232 25 24 229 27 26 227 28 26 226 27 26 227 25 24 229 22 21 232 19 18 235 15 14 239 11 11 243 8 8 246 5 5 249 4 3 250 2 2 252 2 2 252 2 2 252 2 2 252 3 3 251 4 3 250 4 4 250 4 4 250 4 4 250 4 4 250 3 3 251 3 3 251 2 2 252 2 2 252 3 2 251 4 3 250 6 5 248 9 8 245 13 12 241 18 17 236 24 23 230 
23 22 231 17 16 237 12 12 242 9 8 245 6 5 248 4 3 250 3 2 251 2 2 252 2 2 252 3 3 251 3 3 251 4 4 250 4 4 250 5 4 249 4 4 250 4 4 250 3 3 251 3 2 251 2 2 252 2 2 252 2 2 252 3 3 251 5 4 249 7 6 247 10 9 244 13 12 241 17 16 237 20 19 234 23 21 231 25 23 229 26 24 228 26 24 228 24 23 230 22 20 232 18 17 236 14 13 240 9 9 245 6 5 248 3 3 251 2 2 252 3 3 251 7 6 247 13 12 241 22 20 232 33 31 221 46 43 208 60 56 194 74 70 180 89 83 165 102 96 152 114 107 140 124 117 130 132 114 122 138 109 116 142 106 112 143 104 111 143 104 111 141 106 113 138 109 116 134 113 120 129 117 125 123 116 131 117 110 137 109 102 145 100 94 154 90 84 164 79 74 175 67 63 187 55 52 199 43 41 211 32 30 222 22 21 232 14 13 240 8 7 246 4 4 250 3 2 251 3 3 251 5 5 249 8 8 246 12 11 242 15 14 239 17 16 237 18 17 236 18 17 236 16 15 238 13 12 241 10 9 244 6 6 248 3 3 251 2 1 252 1 1 253 2 1 252 3 3 251 6 6 248 10 9 244 13 12 241 16 15 238 18 17 236 18 17 236 17 16 237 15 14 239 12 11 242 8 8 246 5 5 249 3 3 251 3 2 251 4 4 250 8 7 246 14 13 240 22 21 232 32 30 222 43 41 211 55 52 199 67 63 187 79 74 175 90 84 164 100 94 154 109 102 145 117 110 137 123 116 131 129 117 125 134 113 120 138 109 116 141 106 113 143 104 111 143 104 111 142 106 112 138 109 116 132 114 122 124 117 130 114 107 140 102 96 152 89 83 165 74 70 180 60 56 194 46 43 208 33 31 221 22 20 232 13 12 241 7 6 247 3 3 251 2 2 252 3 3 251 6 5 248 9 9 245 14 13 240 18 17 236 22 20 232 24 23 230 26 24 228 26 24 228 25 23 229 23 21 231 20 19 234 17 16 237 13 12 241 10 9 244 7 6 247 5 4 249 3 3 251 2 2 252 2 2 252 2 2 252 3 2 251 3 3 251 4 4 250 4 4 250 5 4 249 4 4 250 4 4 250 3 3 251 3 3 251 2 2 252 2 2 252 3 2 251 4 3 250 6 5 248 9 8 245 12 12 242 17 16 237 23 22 231 
22 21 232 17 16 237 12 11 242 8 8 246 6 5 248 4 3 250 3 2 251 2 2 252 2 2 252 3 3 251 4 3 250 4 4 250 5 4 249 5 4 249 5 4 249 4 4 250 4 3 250 3 3 251 2 2 252 2 2 252 2 2 252 2 2 252 4 3 250 5 5 249 8 7 246 11 10 243 14 13 240 17 16 237 20 19 234 22 21 232 24 22 230 24 23 230 23 22 231 21 20 233 18 17 236 14 13 240 10 10 244 7 6 247 4 4 250 2 2 252 3 2 251 5 5 249 9 9 245 16 15 238 25 23 229 35 33 219 46 44 208 58 55 196 70 66 184 81 76 173 91 86 163 99 94 155 106 100 148 110 104 144 113 107 141 114 107 140 114 107 140 112 106 142 110 103 144 106 100 148 103 97 151 98 92 156 93 87 161 87 82 167 80 76 174 73 68 181 64 60 190 55 52 199 46 43 208 36 34 218 27 26 227 19 18 235 12 12 242 7 7 247 4 4 250 2 2 252 3 3 251 4 4 250 7 6 247 10 9 244 12 11 242 14 13 240 15 14 239 15 14 239 13 13 241 11 11 243 8 8 246 6 5 248 3 3 251 2 2 252 1 1 253 2 2 252 3 3 251 6 5 248 8 8 246 11 11 243 13 13 241 15 14 239 15 14 239 14 13 240 12 11 242 10 9 244 7 6 247 4 4 250 3 3 251 2 2 252 4 4 250 7 7 247 12 12 242 19 18 235 27 26 227 36 34 218 46 43 208 55 52 199 64 60 190 73 68 181 80 76 174 87 82 167 93 87 161 98 92 156 103 97 151 106 100 148 110 103 144 112 106 142 114 107 140 114 107 140 113 107 141 110 104 144 106 100 148 99 94 155 91 86 163 81 76 173 70 66 184 58 55 196 46 44 208 35 33 219 25 23 229 16 15 238 9 9 245 5 5 249 3 2 251 2 2 252 4 4 250 7 6 247 10 10 244 14 13 240 18 17 236 21 20 233 23 22 231 24 23 230 24 22 230 22 21 232 20 19 234 17 16 237 14 13 240 11 10 243 8 7 246 5 5 249 4 3 250 2 2 252 2 2 252 2 2 252 2 2 252 3 3 251 4 3 250 4 4 250 5 4 249 5 4 249 5 4 249 4 4 250 4 3 250 3 3 251 2 2 252 2 2 252 3 2 251 4 3 250 6 5 248 8 8 246 12 11 242 17 16 237 22 21 232 
21 19 233 16 15 238 12 11 242 8 8 246 6 5 248 4 3 250 3 3 251 2 2 252 2 2 252 3 3 251 4 3 250 4 4 250 5 4 249 5 5 249 5 5 249 4 4 250 4 4 250 3 3 251 2 2 252 2 2 252 2 2 252 2 2 252 3 3 251 4 4 250 6 6 248 9 8 245 12 11 242 15 14 239 17 16 237 20 19 234 21 20 233 22 21 232 22 20 232 20 19 234 18 17 236 15 14 239 11 11 243 8 7 246 5 5 249 3 3 251 2 2 252 4 3 250 6 6 248 11 10 243 17 16 237 25 24 229 34 32 220 43 41 211 53 50 201 61 58 193 69 65 185 76 71 178 81 76 173 84 79 170 86 81 168 87 81 167 86 81 168 85 80 169 83 78 171 80 75 174 77 73 177 74 70 180 70 66 184 66 62 188 62 58 192 56 53 198 50 47 204 44 41 210 37 35 217 30 28 224 23 21 231 16 15 238 11 10 243 7 6 247 4 3 250 2 2 252 2 2 252 4 3 250 5 5 249 8 7 246 10 9 244 11 11 243 12 11 242 12 11 242 11 10 243 9 9 245 7 7 247 5 5 249 3 3 251 2 2 252 1 1 253 2 2 252 3 3 251 5 5 249 7 7 247 9 9 245 11 10 243 12 11 242 12 11 242 11 11 243 10 9 244 8 7 246 5 5 249 4 3 250 2 2 252 2 2 252 4 3 250 7 6 247 11 10 243 16 15 238 23 21 231 30 28 224 37 35 217 44 41 210 50 47 204 56 53 198 62 58 192 66 62 188 70 66 184 74 70 180 77 73 177 80 75 174 83 78 171 85 80 169 86 81 168 87 81 167 86 81 168 84 79 170 81 76 173 76 71 178 69 65 185 61 58 193 53 50 201 43 41 211 34 32 220 25 24 229 17 16 237 11 10 243 6 6 248 4 3 250 2 2 252 3 3 251 5 5 249 8 7 246 11 11 243 15 14 239 18 17 236 20 19 234 22 20 232 22 21 232 21 20 233 20 19 234 17 16 237 15 14 239 12 11 242 9 8 245 6 6 248 4 4 250 3 3 251 2 2 252 2 2 252 2 2 252 2 2 252 3 3 251 4 4 250 4 4 250 5 5 249 5 5 249 5 4 249 4 4 250 4 3 250 3 3 251 2 2 252 2 2 252 3 3 251 4 3 250 6 5 248 8 8 246 12 11 242 16 15 238 21 19 233 
19 18 235 15 14 239 11 10 243 8 7 246 5 5 249 4 4 250 3 3 251 2 2 252 2 2 252 3 3 251 3 3 251 4 4 250 5 4 249 5 5 249 5 5 249 5 4 249 4 4 250 4 3 250 3 3 251 2 2 252 2 2 252 2 2 252 2 2 252 3 3 251 5 5 249 7 7 247 9 9 245 12 11 242 15 14 239 17 16 237 19 18 235 20 19 234 20 19 234 19 18 235 17 16 237 15 14 239 12 11 242 9 8 245 6 6 248 4 4 250 3 2 251 3 2 251 4 4 250 7 7 247 11 11 243 17 16 237 23 22 231 30 28 224 37 35 217 44 41 210 49 46 205 54 51 200 58 54 196 60 57 194 61 58 193 62 58 192 61 57 193 60 56 194 58 55 196 56 53 198 54 51 200 52 49 202 50 47 204 48 45 206 45 42 209 42 39 212 38 36 216 33 31 221 29 27 225 23 22 231 18 17 236 13 13 241 9 9 245 6 6 248 4 3 250 2 2 252 2 2 252 3 3 251 4 4 250 6 6 248 8 7 246 9 8 245 9 9 245 9 9 245 9 8 245 8 7 246 6 6 248 4 4 250 3 3 251 2 2 252 2 1 252 2 2 252 3 3 251 4 4 250 6 6 248 8 7 246 9 8 245 9 9 245 9 9 245 9 8 245 8 7 246 6 6 248 4 4 250 3 3 251 2 2 252 2 2 252 4 3 250 6 6 248 9 9 245 13 13 241 18 17 236 23 22 231 29 27 225 33 31 221 38 36 216 42 39 212 45 42 209 48 45 206 50 47 204 52 49 202 54 51 200 56 53 198 58 55 196 60 56 194 61 57 193 62 58 192 61 58 193 60 57 194 58 54 196 54 51 200 49 46 205 44 41 210 37 35 217 30 28 224 23 22 231 17 16 237 11 11 243 7 7 247 4 4 250 3 2 251 3 2 251 4 4 250 6 6 248 9 8 245 12 11 242 15 14 239 17 16 237 19 18 235 20 19 234 20 19 234 19 18 235 17 16 237 15 14 239 12 11 242 9 9 245 7 7 247 5 5 249 3 3 251 2 2 252 2 2 252 2 2 252 2 2 252 3 3 251 4 3 250 4 4 250 5 4 249 5 5 249 5 5 249 5 4 249 4 4 250 3 3 251 3 3 251 2 2 252 2 2 252 3 3 251 4 4 250 5 5 249 8 7 246 11 10 243 15 14 239 19 18 235 
18 17 236 14 13 240 10 10 244 8 7 246 5 5 249 4 4 250 3 3 251 2 2 252 2 2 252 3 3 251 3 3 251 4 4 250 5 4 249 5 5 249 5 5 249 5 5 249 5 4 249 4 4 250 3 3 251 3 2 251 2 2 252 2 2 252 2 2 252 2 2 252 4 3 250 5 5 249 7 7 247 10 9 244 12 11 242 14 14 240 16 15 238 18 17 236 18 17 236 18 17 236 17 16 237 15 14 239 13 12 241 10 9 244 7 7 247 5 5 249 3 3 251 2 2 252 3 3 251 4 4 250 7 6 247 10 9 244 14 13 240 19 18 235 24 22 230 28 27 226 33 31 221 36 34 218 38 36 216 40 38 214 41 38 213 40 38 214 40 37 214 39 37 215 38 35 216 36 34 218 35 33 219 34 32 220 33 31 221 32 30 222 31 29 223 29 27 225 27 25 227 24 23 230 21 20 233 18 17 236 14 14 240 11 10 243 8 7 246 5 5 249 3 3 251 2 2 252 2 2 252 2 2 252 3 3 251 5 4 249 6 5 248 7 6 247 7 7 247 7 7 247 7 7 247 6 6 248 5 5 249 4 4 250 3 3 251 2 2 252 2 2 252 2 2 252 3 3 251 4 4 250 5 5 249 6 6 248 7 7 247 7 7 247 7 7 247 7 6 247 6 5 248 5 4 249 3 3 251 2 2 252 2 2 252 2 2 252 3 3 251 5 5 249 8 7 246 11 10 243 14 14 240 18 17 236 21 20 233 24 23 230 27 25 227 29 27 225 31 29 223 32 30 222 33 31 221 34 32 220 35 33 219 36 34 218 38 35 216 39 37 215 40 37 214 40 38 214 41 38 213 40 38 214 38 36 216 36 34 218 33 31 221 28 27 226 24 22 230 19 18 235 14 13 240 10 9 244 7 6 247 4 4 250 3 3 251 2 2 252 3 3 251 5 5 249 7 7 247 10 9 244 13 12 241 15 14 239 17 16 237 18 17 236 18 17 236 18 17 236 16 15 238 14 14 240 12 11 242 10 9 244 7 7 247 5 5 249 4 3 250 2 2 252 2 2 252 2 2 252 2 2 252 3 2 251 3 3 251 4 4 250 5 4 249 5 5 249 5 5 249 5 5 249 5 4 249 4 4 250 3 3 251 3 3 251 2 2 252 2 2 252 3 3 251 4 4 250 5 5 249 8 7 246 10 10 244 14 13 240 18 17 236 
16 15 238 13 12 241 10 9 244 7 7 247 5 5 249 4 4 250 3 3 251 2 2 252 2 2 252 3 3 251 3 3 251 4 4 250 5 4 249 5 5 249 5 5 249 5 5 249 5 5 249 4 4 250 4 4 250 3 3 251 2 2 252 2 2 252 2 2 252 2 2 252 3 2 251 4 4 250 6 5 248 8 7 246 10 9 244 12 11 242 14 13 240 15 15 239 16 15 238 17 16 237 16 15 238 15 14 239 13 12 241 11 10 243 9 8 245 6 6 248 4 4 250 3 3 251 2 2 252 2 2 252 3 3 251 5 5 249 8 7 246 11 10 243 14 13 240 17 16 237 19 18 235 21 20 233 23 22 231 24 22 230 24 23 230 24 22 230 23 22 231 22 21 232 22 20 232 21 20 233 20 19 234 20 19 234 20 19 234 20 19 234 20 18 234 19 18 235 18 17 236 17 16 237 15 15 239 13 13 241 11 10 243 9 8 245 7 6 247 5 4 249 3 3 251 2 2 252 2 2 252 2 2 252 3 2 251 4 3 250 4 4 250 5 5 249 6 5 248 6 5 248 6 5 248 5 5 249 4 4 250 3 3 251 3 2 251 2 2 252 2 2 252 2 2 252 3 2 251 3 3 251 4 4 250 5 5 249 6 5 248 6 5 248 6 5 248 5 5 249 4 4 250 4 3 250 3 2 251 2 2 252 2 2 252 2 2 252 3 3 251 5 4 249 7 6 247 9 8 245 11 10 243 13 13 241 15 15 239 17 16 237 18 17 236 19 18 235 20 18 234 20 19 234 20 19 234 20 19 234 20 19 234 21 20 233 22 20 232 22 21 232 23 22 231 24 22 230 24 23 230 24 22 230 23 22 231 21 20 233 19 18 235 17 16 237 14 13 240 11 10 243 8 7 246 5 5 249 3 3 251 2 2 252 2 2 252 3 3 251 4 4 250 6 6 248 9 8 245 11 10 243 13 12 241 15 14 239 16 15 238 17 16 237 16 15 238 15 15 239 14 13 240 12 11 242 10 9 244 8 7 246 6 5 248 4 4 250 3 2 251 2 2 252 2 2 252 2 2 252 2 2 252 3 3 251 4 4 250 4 4 250 5 5 249 5 5 249 5 5 249 5 5 249 5 4 249 4 4 250 3 3 251 3 3 251 2 2 252 2 2 252 3 3 251 4 4 250 5 5 249 7 7 247 10 9 244 13 12 241 16 15 238 
15 14 239 12 11 242 9 9 245 7 7 247 5 5 249 4 4 250 3 3 251 3 2 251 3 2 251 3 3 251 3 3 251 4 4 250 5 4 249 5 5 249 5 5 249 6 5 248 5 5 249 5 5 249 4 4 250 4 3 250 3 3 251 2 2 252 2 2 252 2 2 252 2 2 252 3 3 251 4 4 250 6 5 248 8 7 246 10 9 244 12 11 242 13 12 241 14 14 240 15 14 239 15 14 239 15 14 239 13 13 241 12 11 242 10 9 244 8 7 246 6 5 248 4 4 250 3 2 251 2 2 252 2 2 252 2 2 252 3 3 251 5 5 249 6 6 248 8 8 246 10 9 244 11 10 243 12 11 242 12 11 242 12 11 242 12 11 242 11 10 243 11 10 243 10 9 244 10 9 244 10 9 244 10 9 244 10 10 244 11 10 243 12 11 242 12 11 242 12 11 242 12 11 242 11 10 243 10 9 244 8 8 246 7 7 247 5 5 249 4 4 250 3 3 251 2 2 252 2 2 252 2 2 252 2 2 252 3 3 251 4 3 250 4 4 250 4 4 250 5 4 249 4 4 250 4 4 250 4 3 250 3 3 251 3 2 251 2 2 252 2 2 252 2 2 252 3 2 251 3 3 251 4 3 250 4 4 250 4 4 250 5 4 249 4 4 250 4 4 250 4 3 250 3 3 251 2 2 252 2 2 252 2 2 252 2 2 252 3 3 251 4 4 250 5 5 249 7 7 247 8 8 246 10 9 244 11 10 243 12 11 242 12 11 242 12 11 242 12 11 242 11 10 243 10 10 244 10 9 244 10 9 244 10 9 244 10 9 244 11 10 243 11 10 243 12 11 242 12 11 242 12 11 242 12 11 242 11 10 243 10 9 244 8 8 246 6 6 248 5 5 249 3 3 251 2 2 252 2 2 252 2 2 252 3 2 251 4 4 250 6 5 248 8 7 246 10 9 244 12 11 242 13 13 241 15 14 239 15 14 239 15 14 239 14 14 240 13 12 241 12 11 242 10 9 244 8 7 246 6 5 248 4 4 250 3 3 251 2 2 252 2 2 252 2 2 252 2 2 252 3 3 251 4 3 250 4 4 250 5 5 249 5 5 249 6 5 248 5 5 249 5 5 249 5 4 249 4 4 250 3 3 251 3 3 251 3 2 251 3 2 251 3 3 251 4 4 250 5 5 249 7 7 247 9 9 245 12 11 242 15 14 239 
13 12 241 11 10 243 9 8 245 7 6 247 5 5 249 4 4 250 3 3 251 3 2 251 3 2 251 3 3 251 3 3 251 4 4 250 5 4 249 5 5 249 5 5 249 6 5 248 6 5 248 5 5 249 5 4 249 4 4 250 3 3 251 3 2 251 2 2 252 2 2 252 2 2 252 2 2 252 3 3 251 4 4 250 6 6 248 8 7 246 9 9 245 11 10 243 13 12 241 14 13 240 14 13 240 14 13 240 13 12 241 12 11 242 11 10 243 9 8 245 7 6 247 5 5 249 4 3 250 2 2 252 2 1 252 1 1 253 1 1 253 2 2 252 2 2 252 3 3 251 4 3 250 4 4 250 4 4 250 4 4 250 4 4 250 4 4 250 4 3 250 3 3 251 3 3 251 3 3 251 3 3 251 4 4 250 5 4 249 6 5 248 6 6 248 7 7 247 8 7 246 8 7 246 8 7 246 7 7 247 6 6 248 6 5 248 4 4 250 4 3 250 3 3 251 2 2 252 2 2 252 2 2 252 2 2 252 3 2 251 3 3 251 3 3 251 4 4 250 4 4 250 4 4 250 4 3 250 3 3 251 3 3 251 2 2 252 2 2 252 2 2 252 2 2 252 2 2 252 3 3 251 3 3 251 4 3 250 4 4 250 4 4 250 4 4 250 3 3 251 3 3 251 3 2 251 2 2 252 2 2 252 2 2 252 2 2 252 3 3 251 4 3 250 4 4 250 6 5 248 6 6 248 7 7 247 8 7 246 8 7 246 8 7 246 7 7 247 6 6 248 6 5 248 5 4 249 4 4 250 3 3 251 3 3 251 3 3 251 3 3 251 4 3 250 4 4 250 4 4 250 4 4 250 4 4 250 4 4 250 4 3 250 3 3 251 2 2 252 2 2 252 1 1 253 1 1 253 2 1 252 2 2 252 4 3 250 5 5 249 7 6 247 9 8 245 11 10 243 12 11 242 13 12 241 14 13 240 14 13 240 14 13 240 13 12 241 11 10 243 9 9 245 8 7 246 6 6 248 4 4 250 3 3 251 2 2 252 2 2 252 2 2 252 2 2 252 3 2 251 3 3 251 4 4 250 5 4 249 5 5 249 6 5 248 6 5 248 5 5 249 5 5 249 5 4 249 4 4 250 3 3 251 3 3 251 3 2 251 3 2 251 3 3 251 4 4 250 5 5 249 7 6 247 9 8 245 11 10 243 13 12 241 
12 11 242 10 9 244 8 8 246 6 6 248 5 5 249 4 4 250 3 3 251 3 2 251 3 2 251 3 3 251 3 3 251 4 3 250 4 4 250 5 5 249 5 5 249 6 5 248 6 5 248 6 5 248 5 5 249 5 4 249 4 4 250 3 3 251 2 2 252 2 2 252 2 2 252 2 2 252 2 2 252 3 3 251 4 4 250 6 6 248 8 7 246 9 9 245 11 10 243 12 11 242 13 12 241 13 12 241 13 12 241 12 11 242 11 11 243 10 9 244 8 8 246 7 6 247 5 5 249 4 3 250 2 2 252 2 1 252 1 1 253 1 1 253 1 1 253 1 1 253 1 1 253 1 1 253 1 1 253 1 0 253 0 0 254 0 0 254 0 0 254 0 0 254 0 0 254 0 0 254 1 0 253 1 1 253 2 2 252 3 3 251 4 4 250 5 4 249 5 5 249 6 5 248 6 5 248 5 5 249 5 5 249 4 4 250 4 3 250 3 3 251 3 2 251 2 2 252 2 2 252 2 2 252 2 2 252 3 2 251 3 3 251 3 3 251 4 3 250 4 3 250 4 3 250 3 3 251 3 3 251 3 3 251 2 2 252 2 2 252 2 2 252 2 2 252 2 2 252 3 3 251 3 3 251 3 3 251 4 3 250 4 3 250 4 3 250 3 3 251 3 3 251 3 2 251 2 2 252 2 2 252 2 2 252 2 2 252 3 2 251 3 3 251 4 3 250 4 4 250 5 5 249 5 5 249 6 5 248 6 5 248 5 5 249 5 4 249 4 4 250 3 3 251 2 2 252 1 1 253 1 0 253 0 0 254 0 0 254 0 0 254 0 0 254 0 0 254 0 0 254 1 0 253 1 1 253 1 1 253 1 1 253 1 1 253 1 1 253 1 1 253 1 1 253 2 1 252 2 2 252 4 3 250 5 5 249 7 6 247 8 8 246 10 9 244 11 11 243 12 11 242 13 12 241 13 12 241 13 12 241 12 11 242 11 10 243 9 9 245 8 7 246 6 6 248 4 4 250 3 3 251 2 2 252 2 2 252 2 2 252 2 2 252 2 2 252 3 3 251 4 4 250 5 4 249 5 5 249 6 5 248 6 5 248 6 5 248 5 5 249 5 5 249 4 4 250 4 3 250 3 3 251 3 3 251 3 2 251 3 2 251 3 3 251 4 4 250 5 5 249 6 6 248 8 8 246 10 9 244 12 11 242 
10 10 244 9 8 245 7 7 247 6 6 248 5 5 249 4 4 250 3 3 251 3 2 251 3 2 251 3 2 251 3 3 251 3 3 251 4 4 250 5 4 249 5 5 249 6 5 248 6 5 248 6 5 248 5 5 249 5 5 249 4 4 250 4 3 250 3 3 251 2 2 252 2 2 252 2 2 252 2 2 252 3 2 251 3 3 251 5 4 249 6 5 248 7 7 247 9 8 245 10 9 244 11 10 243 12 11 242 12 11 242 12 11 242 11 11 243 11 10 243 9 9 245 8 8 246 7 6 247 5 5 249 4 4 250 3 3 251 2 2 252 1 1 253 1 1 253 1 1 253 0 0 254 0 0 254 0 0 254 0 0 254 0 0 254 0 0 254 0 0 255 0 0 254 0 0 254 0 0 254 1 0 253 1 1 253 2 2 252 3 2 251 3 3 251 4 4 250 4 4 250 5 4 249 5 4 249 4 4 250 4 4 250 4 3 250 3 3 251 3 2 251 2 2 252 2 2 252 2 2 252 2 2 252 3 2 251 3 3 251 3 3 251 4 3 250 4 4 250 4 4 250 4 3 250 3 3 251 3 3 251 3 3 251 2 2 252 2 2 252 2 2 252 2 2 252 2 2 252 3 3 251 3 3 251 3 3 251 4 3 250 4 4 250 4 4 250 4 3 250 3 3 251 3 3 251 3 2 251 2 2 252 2 2 252 2 2 252 2 2 252 3 2 251 3 3 251 4 3 250 4 4 250 4 4 250 5 4 249 5 4 249 4 4 250 4 4 250 3 3 251 3 2 251 2 2 252 1 1 253 1 0 253 0 0 254 0 0 254 0 0 254 0 0 255 0 0 254 0 0 254 0 0 254 0 0 254 0 0 254 0 0 254 1 1 253 1 1 253 1 1 253 2 2 252 3 3 251 4 4 250 5 5 249 7 6 247 8 8 246 9 9 245 11 10 243 11 11 243 12 11 242 12 11 242 12 11 242 11 10 243 10 9 244 9 8 245 7 7 247 6 5 248 5 4 249 3 3 251 3 2 251 2 2 252 2 2 252 2 2 252 2 2 252 3 3 251 4 3 250 4 4 250 5 5 249 5 5 249 6 5 248 6 5 248 6 5 248 5 5 249 5 4 249 4 4 250 3 3 251 3 3 251 3 2 251 3 2 251 3 2 251 3 3 251 4 4 250 5 5 249 6 6 248 7 7 247 9 8 245 10 10 244 
9 9 245 8 8 246 7 6 247 6 5 248 5 4 249 4 4 250 3 3 251 3 3 251 3 2 251 3 2 251 3 3 251 3 3 251 4 4 250 4 4 250 5 5 249 5 5 249 6 5 248 6 5 248 6 5 248 5 5 249 5 5 249 4 4 250 4 3 250 3 3 251 2 2 252 2 2 252 2 2 252 2 2 252 3 2 251 3 3 251 4 4 250 6 5 248 7 7 247 8 8 246 9 9 245 10 10 244 11 10 243 11 11 243 11 11 243 11 10 243 10 10 244 10 9 244 9 8 245 7 7 247 6 6 248 5 5 249 4 4 250 3 3 251 3 3 251 2 2 252 2 2 252 2 1 252 1 1 253 1 1 253 1 1 253 1 1 253 1 1 253 2 1 252 2 2 252 2 2 252 3 2 251 3 3 251 4 3 250 4 4 250 4 4 250 5 4 249 5 4 249 5 4 249 4 4 250 4 4 250 4 3 250 3 3 251 3 3 251 2 2 252 2 2 252 2 2 252 2 2 252 3 2 251 3 3 251 3 3 251 4 4 250 4 4 250 4 4 250 4 4 250 4 4 250 4 3 250 3 3 251 3 3 251 2 2 252 2 2 252 2 2 252 2 2 252 2 2 252 3 3 251 3 3 251 4 3 250 4 4 250 4 4 250 4 4 250 4 4 250 4 4 250 3 3 251 3 3 251 3 2 251 2 2 252 2 2 252 2 2 252 2 2 252 3 3 251 3 3 251 4 3 250 4 4 250 4 4 250 5 4 249 5 4 249 5 4 249 4 4 250 4 4 250 4 3 250 3 3 251 3 2 251 2 2 252 2 2 252 2 1 252 1 1 253 1 1 253 1 1 253 1 1 253 1 1 253 2 1 252 2 2 252 2 2 252 3 3 251 3 3 251 4 4 250 5 5 249 6 6 248 7 7 247 9 8 245 10 9 244 10 10 244 11 10 243 11 11 243 11 11 243 11 10 243 10 10 244 9 9 245 8 8 246 7 7 247 6 5 248 4 4 250 3 3 251 3 2 251 2 2 252 2 2 252 2 2 252 2 2 252 3 3 251 4 3 250 4 4 250 5 5 249 5 5 249 6 5 248 6 5 248 6 5 248 5 5 249 5 5 249 4 4 250 4 4 250 3 3 251 3 3 251 3 2 251 3 2 251 3 3 251 3 3 251 4 4 250 5 4 249 6 5 248 7 6 247 8 8 246 9 9 245 
8 8 246 7 7 247 6 6 248 5 5 249 5 4 249 4 4 250 3 3 251 3 3 251 3 2 251 2 2 252 3 2 251 3 3 251 4 3 250 4 4 250 5 4 249 5 5 249 6 5 248 6 5 248 6 5 248 6 5 248 5 5 249 5 4 249 4 4 250 3 3 251 3 3 251 2 2 252 2 2 252 2 2 252 2 2 252 3 2 251 3 3 251 4 4 250 5 5 249 7 6 247 8 7 246 9 8 245 10 9 244 11 10 243 11 10 243 11 10 243 11 10 243 11 10 243 10 9 244 9 9 245 8 8 246 8 7 246 7 6 247 6 6 248 5 5 249 5 5 249 5 4 249 4 4 250 4 4 250 4 4 250 4 4 250 4 4 250 5 4 249 5 4 249 5 5 249 5 5 249 6 5 248 6 6 248 6 6 248 6 6 248 6 6 248 6 6 248 6 5 248 5 5 249 5 4 249 4 4 250 3 3 251 3 3 251 2 2 252 2 2 252 2 2 252 2 2 252 3 2 251 3 3 251 3 3 251 4 4 250 4 4 250 5 4 249 5 4 249 5 4 249 4 4 250 4 4 250 3 3 251 3 3 251 2 2 252 2 2 252 2 2 252 2 2 252 2 2 252 3 3 251 3 3 251 4 4 250 4 4 250 5 4 249 5 4 249 5 4 249 4 4 250 4 4 250 3 3 251 3 3 251 3 2 251 2 2 252 2 2 252 2 2 252 2 2 252 3 3 251 3 3 251 4 4 250 5 4 249 5 5 249 6 5 248 6 6 248 6 6 248 6 6 248 6 6 248 6 6 248 6 5 248 5 5 249 5 5 249 5 4 249 5 4 249 4 4 250 4 4 250 4 4 250 4 4 250 4 4 250 5 4 249 5 5 249 5 5 249 6 6 248 7 6 247 8 7 246 8 8 246 9 9 245 10 9 244 11 10 243 11 10 243 11 10 243 11 10 243 11 10 243 10 9 244 9 8 245 8 7 246 7 6 247 5 5 249 4 4 250 3 3 251 3 2 251 2 2 252 2 2 252 2 2 252 2 2 252 3 3 251 3 3 251 4 4 250 5 4 249 5 5 249 6 5 248 6 5 248 6 5 248 6 5 248 5 5 249 5 4 249 4 4 250 4 3 250 3 3 251 3 2 251 2 2 252 3 2 251 3 3 251 3 3 251 4 4 250 5 4 249 5 5 249 6 6 248 7 7 247 8 8 246 
7 7 247 6 6 248 6 5 248 5 5 249 4 4 250 4 4 250 3 3 251 3 3 251 3 2 251 2 2 252 3 2 251 3 3 251 3 3 251 4 3 250 4 4 250 5 4 249 5 5 249 6 5 248 6 5 248 6 5 248 5 5 249 5 5 249 5 4 249 4 4 250 3 3 251 3 3 251 2 2 252 2 2 252 2 2 252 2 2 252 3 2 251 3 3 251 4 4 250 5 5 249 6 6 248 7 7 247 8 8 246 9 9 245 10 10 244 11 10 243 11 10 243 11 10 243 11 10 243 11 10 243 10 10 244 10 9 244 9 9 245 9 8 245 8 8 246 8 7 246 8 7 246 7 7 247 7 7 247 7 7 247 8 7 246 8 7 246 8 8 246 8 8 246 9 8 245 9 8 245 9 9 245 9 9 245 9 9 245 9 8 245 8 8 246 8 7 246 7 7 247 6 6 248 5 5 249 4 4 250 3 3 251 3 3 251 2 2 252 2 2 252 2 2 252 2 2 252 3 3 251 3 3 251 4 4 250 4 4 250 5 5 249 5 5 249 5 5 249 5 5 249 5 4 249 4 4 250 4 3 250 3 3 251 3 2 251 2 2 252 2 2 252 2 2 252 3 2 251 3 3 251 4 3 250 4 4 250 5 4 249 5 5 249 5 5 249 5 5 249 5 5 249 4 4 250 4 4 250 3 3 251 3 3 251 2 2 252 2 2 252 2 2 252 2 2 252 3 3 251 3 3 251 4 4 250 5 5 249 6 6 248 7 7 247 8 7 246 8 8 246 9 8 245 9 9 245 9 9 245 9 9 245 9 8 245 9 8 245 8 8 246 8 8 246 8 7 246 8 7 246 7 7 247 7 7 247 7 7 247 8 7 246 8 7 246 8 8 246 9 8 245 9 9 245 10 9 244 10 10 244 11 10 243 11 10 243 11 10 243 11 10 243 11 10 243 10 10 244 9 9 245 8 8 246 7 7 247 6 6 248 5 5 249 4 4 250 3 3 251 3 2 251 2 2 252 2 2 252 2 2 252 2 2 252 3 3 251 3 3 251 4 4 250 5 4 249 5 5 249 5 5 249 6 5 248 6 5 248 6 5 248 5 5 249 5 4 249 4 4 250 4 3 250 3 3 251 3 3 251 3 2 251 2 2 252 3 2 251 3 3 251 3 3 251 4 4 250 4 4 250 5 5 249 6 5 248 6 6 248 7 7 247 
6 6 248 6 5 248 5 5 249 5 5 249 4 4 250 4 4 250 3 3 251 3 3 251 3 2 251 2 2 252 2 2 252 3 2 251 3 3 251 3 3 251 4 4 250 4 4 250 5 4 249 5 5 249 5 5 249 6 5 248 6 5 248 5 5 249 5 5 249 5 4 249 4 4 250 3 3 251 3 3 251 2 2 252 2 2 252 2 2 252 2 2 252 3 2 251 3 3 251 4 4 250 5 5 249 6 6 248 7 7 247 8 8 246 9 9 245 10 9 244 11 10 243 11 11 243 12 11 242 12 11 242 12 11 242 12 11 242 11 11 243 11 11 243 11 10 243 11 10 243 11 10 243 10 10 244 10 10 244 11 10 243 11 10 243 11 10 243 11 11 243 12 11 242 12 11 242 12 12 242 12 12 242 12 11 242 12 11 242 11 10 243 10 10 244 9 9 245 8 8 246 7 7 247 6 5 248 5 4 249 3 3 251 3 3 251 2 2 252 2 2 252 2 2 252 2 2 252 3 3 251 4 3 250 4 4 250 5 5 249 5 5 249 6 5 248 6 5 248 5 5 249 5 5 249 4 4 250 4 3 250 3 3 251 3 2 251 2 2 252 2 2 252 2 2 252 3 2 251 3 3 251 4 3 250 4 4 250 5 5 249 5 5 249 6 5 248 6 5 248 5 5 249 5 5 249 4 4 250 4 3 250 3 3 251 2 2 252 2 2 252 2 2 252 2 2 252 3 3 251 3 3 251 5 4 249 6 5 248 7 7 247 8 8 246 9 9 245 10 10 244 11 10 243 12 11 242 12 11 242 12 12 242 12 12 242 12 11 242 12 11 242 11 11 243 11 10 243 11 10 243 11 10 243 10 10 244 10 10 244 11 10 243 11 10 243 11 10 243 11 11 243 11 11 243 12 11 242 12 11 242 12 11 242 12 11 242 11 11 243 11 10 243 10 9 244 9 9 245 8 8 246 7 7 247 6 6 248 5 5 249 4 4 250 3 3 251 3 2 251 2 2 252 2 2 252 2 2 252 2 2 252 3 3 251 3 3 251 4 4 250 5 4 249 5 5 249 5 5 249 6 5 248 6 5 248 5 5 249 5 5 249 5 4 249 4 4 250 4 4 250 3 3 251 3 3 251 3 2 251 2 2 252 2 2 252 3 2 251 3 3 251 3 3 251 4 4 250 4 4 250 5 5 249 5 5 249 6 5 248 6 6 248 
5 5 249 5 5 249 5 5 249 5 4 249 4 4 250 4 4 250 3 3 251 3 3 251 3 2 251 2 2 252 2 2 252 2 2 252 3 2 251 3 3 251 3 3 251 4 4 250 4 4 250 5 4 249 5 5 249 5 5 249 6 5 248 6 5 248 5 5 249 5 5 249 5 4 249 4 4 250 3 3 251 3 3 251 2 2 252 2 2 252 2 2 252 2 2 252 2 2 252 3 3 251 4 3 250 5 4 249 6 5 248 7 6 247 8 7 246 9 8 245 10 9 244 11 10 243 12 11 242 12 11 242 13 12 241 13 12 241 13 12 241 13 12 241 13 12 241 13 12 241 13 12 241 13 12 241 13 12 241 13 12 241 13 13 241 14 13 240 14 13 240 14 13 240 15 14 239 15 14 239 15 14 239 14 13 240 14 13 240 13 12 241 12 11 242 11 10 243 9 9 245 8 7 246 6 6 248 5 4 249 4 3 250 3 3 251 2 2 252 2 2 252 2 2 252 2 2 252 3 3 251 4 4 250 5 4 249 5 5 249 6 5 248 6 6 248 6 6 248 6 5 248 5 5 249 5 4 249 4 4 250 3 3 251 3 2 251 2 2 252 2 2 252 2 2 252 3 2 251 3 3 251 4 4 250 5 4 249 5 5 249 6 5 248 6 6 248 6 6 248 6 5 248 5 5 249 5 4 249 4 4 250 3 3 251 2 2 252 2 2 252 2 2 252 2 2 252 3 3 251 4 3 250 5 4 249 6 6 248 8 7 246 9 9 245 11 10 243 12 11 242 13 12 241 14 13 240 14 13 240 15 14 239 15 14 239 15 14 239 14 13 240 14 13 240 14 13 240 13 13 241 13 12 241 13 12 241 13 12 241 13 12 241 13 12 241 13 12 241 13 12 241 13 12 241 13 12 241 13 12 241 12 11 242 12 11 242 11 10 243 10 9 244 9 8 245 8 7 246 7 6 247 6 5 248 5 4 249 4 3 250 3 3 251 2 2 252 2 2 252 2 2 252 2 2 252 2 2 252 3 3 251 3 3 251 4 4 250 5 4 249 5 5 249 5 5 249 6 5 248 6 5 248 5 5 249 5 5 249 5 4 249 4 4 250 4 4 250 3 3 251 3 3 251 3 2 251 2 2 252 2 2 252 2 2 252 3 2 251 3 3 251 3 3 251 4 4 250 4 4 250 5 4 249 5 5 249 5 5 249 5 5 249 
5 4 249 5 4 249 5 4 249 4 4 250 4 4 250 4 4 250 3 3 251 3 3 251 3 3 251 2 2 252 2 2 252 2 2 252 2 2 252 3 2 251 3 3 251 3 3 251 4 4 250 4 4 250 5 4 249 5 5 249 5 5 249 5 5 249 5 5 249 5 5 249 5 5 249 4 4 250 4 4 250 3 3 251 3 3 251 2 2 252 2 2 252 2 2 252 2 2 252 2 2 252 3 3 251 3 3 251 4 4 250 5 5 249 7 6 247 8 7 246 9 8 245 10 9 244 11 10 243 12 11 242 13 12 241 13 12 241 14 13 240 14 13 240 14 13 240 14 13 240 14 13 240 14 14 240 14 14 240 15 14 239 15 14 239 15 14 239 15 14 239 16 15 238 16 15 238 16 15 238 16 15 238 15 14 239 15 14 239 14 13 240 13 12 241 11 10 243 10 9 244 8 8 246 6 6 248 5 5 249 4 4 250 3 3 251 2 2 252 2 2 252 2 2 252 3 2 251 3 3 251 4 4 250 5 4 249 5 5 249 6 6 248 6 6 248 6 6 248 6 6 248 5 5 249 5 4 249 4 4 250 3 3 251 3 2 251 2 2 252 2 2 252 2 2 252 3 2 251 3 3 251 4 4 250 5 4 249 5 5 249 6 6 248 6 6 248 6 6 248 6 6 248 5 5 249 5 4 249 4 4 250 3 3 251 3 2 251 2 2 252 2 2 252 2 2 252 3 3 251 4 4 250 5 5 249 6 6 248 8 8 246 10 9 244 11 10 243 13 12 241 14 13 240 15 14 239 15 14 239 16 15 238 16 15 238 16 15 238 16 15 238 15 14 239 15 14 239 15 14 239 15 14 239 14 14 240 14 14 240 14 13 240 14 13 240 14 13 240 14 13 240 14 13 240 13 12 241 13 12 241 12 11 242 11 10 243 10 9 244 9 8 245 8 7 246 7 6 247 5 5 249 4 4 250 3 3 251 3 3 251 2 2 252 2 2 252 2 2 252 2 2 252 2 2 252 3 3 251 3 3 251 4 4 250 4 4 250 5 5 249 5 5 249 5 5 249 5 5 249 5 5 249 5 5 249 5 4 249 4 4 250 4 4 250 3 3 251 3 3 251 3 2 251 2 2 252 2 2 252 2 2 252 2 2 252 3 3 251 3 3 251 3 3 251 4 4 250 4 4 250 4 4 250 5 4 249 5 4 249 5 4 249 
4 4 250 4 4 250 4 4 250 4 4 250 4 4 250 4 4 250 3 3 251 3 3 251 3 3 251 3 2 251 2 2 252 2 2 252 2 2 252 2 2 252 3 2 251 3 3 251 3 3 251 4 4 250 4 4 250 5 4 249 5 5 249 5 5 249 5 5 249 5 5 249 5 5 249 5 5 249 4 4 250 4 4 250 3 3 251 3 3 251 2 2 252 2 2 252 2 2 252 2 2 252 2 2 252 3 2 251 3 3 251 4 4 250 5 5 249 6 6 248 8 7 246 9 8 245 10 10 244 11 11 243 12 11 242 13 12 241 14 13 240 14 13 240 14 13 240 15 14 239 15 14 239 15 14 239 15 14 239 15 14 239 15 14 239 15 14 239 16 15 238 16 15 238 16 15 238 16 15 238 16 15 238 15 14 239 15 14 239 14 13 240 13 12 241 11 10 243 10 9 244 8 8 246 7 6 247 5 5 249 4 4 250 3 3 251 2 2 252 2 2 252 2 2 252 3 2 251 3 3 251 4 4 250 5 4 249 5 5 249 6 6 248 6 6 248 6 6 248 6 5 248 5 5 249 5 4 249 4 4 250 3 3 251 3 2 251 2 2 252 2 2 252 2 2 252 3 2 251 3 3 251 4 4 250 5 4 249 5 5 249 6 5 248 6 6 248 6 6 248 6 6 248 5 5 249 5 4 249 4 4 250 3 3 251 3 2 251 2 2 252 2 2 252 2 2 252 3 3 251 4 4 250 5 5 249 7 6 247 8 8 246 10 9 244 11 10 243 13 12 241 14 13 240 15 14 239 15 14 239 16 15 238 16 15 238 16 15 238 16 15 238 16 15 238 15 14 239 15 14 239 15 14 239 15 14 239 15 14 239 15 14 239 15 14 239 14 13 240 14 13 240 14 13 240 13 12 241 12 11 242 11 11 243 10 10 244 9 8 245 8 7 246 6 6 248 5 5 249 4 4 250 3 3 251 3 2 251 2 2 252 2 2 252 2 2 252 2 2 252 2 2 252 3 3 251 3 3 251 4 4 250 4 4 250 5 5 249 5 5 249 5 5 249 5 5 249 5 5 249 5 5 249 5 4 249 4 4 250 4 4 250 3 3 251 3 3 251 3 2 251 2 2 252 2 2 252 2 2 252 2 2 252 3 2 251 3 3 251 3 3 251 3 3 251 4 4 250 4 4 250 4 4 250 4 4 250 4 4 250 4 4 250 
4 4 250 4 4 250 4 4 250 4 4 250 4 4 250 4 3 250 4 3 250 3 3 251 3 3 251 3 3 251 2 2 252 2 2 252 2 2 252 2 2 252 2 2 252 3 2 251 3 3 251 3 3 251 4 4 250 4 4 250 5 4 249 5 5 249 5 5 249 5 5 249 5 5 249 5 5 249 5 5 249 4 4 250 4 4 250 3 3 251 3 3 251 2 2 252 2 2 252 2 2 252 2 2 252 2 2 252 3 2 251 3 3 251 4 4 250 5 5 249 6 6 248 8 7 246 9 8 245 10 9 244 11 10 243 12 11 242 13 12 241 13 13 241 14 13 240 14 13 240 14 13 240 14 13 240 14 14 240 14 14 240 15 14 239 15 14 239 15 14 239 15 14 239 15 14 239 15 14 239 15 14 239 14 13 240 14 13 240 13 12 241 12 11 242 11 10 243 9 9 245 8 7 246 6 6 248 5 5 249 4 4 250 3 3 251 2 2 252 2 2 252 2 2 252 3 2 251 3 3 251 4 4 250 5 4 249 5 5 249 6 5 248 6 5 248 6 5 248 6 5 248 5 5 249 4 4 250 4 4 250 3 3 251 3 2 251 2 2 252 2 2 252 2 2 252 3 2 251 3 3 251 4 4 250 4 4 250 5 5 249 6 5 248 6 5 248 6 5 248 6 5 248 5 5 249 5 4 249 4 4 250 3 3 251 3 2 251 2 2 252 2 2 252 2 2 252 3 3 251 4 4 250 5 5 249 6 6 248 8 7 246 9 9 245 11 10 243 12 11 242 13 12 241 14 13 240 14 13 240 15 14 239 15 14 239 15 14 239 15 14 239 15 14 239 15 14 239 15 14 239 14 14 240 14 14 240 14 13 240 14 13 240 14 13 240 14 13 240 13 13 241 13 12 241 12 11 242 11 10 243 10 9 244 9 8 245 8 7 246 6 6 248 5 5 249 4 4 250 3 3 251 3 2 251 2 2 252 2 2 252 2 2 252 2 2 252 2 2 252 3 3 251 3 3 251 4 4 250 4 4 250 5 5 249 5 5 249 5 5 249 5 5 249 5 5 249 5 5 249 5 4 249 4 4 250 4 4 250 3 3 251 3 3 251 3 2 251 2 2 252 2 2 252 2 2 252 2 2 252 2 2 252 3 3 251 3 3 251 3 3 251 4 3 250 4 3 250 4 4 250 4 4 250 4 4 250 4 4 250 4 4 250 
3 3 251 4 3 250 4 3 250 4 4 250 4 4 250 4 3 250 4 3 250 3 3 251 3 3 251 3 3 251 3 2 251 2 2 252 2 2 252 2 2 252 2 2 252 2 2 252 3 2 251 3 3 251 3 3 251 4 3 250 4 4 250 5 4 249 5 5 249 5 5 249 5 5 249 5 5 249 5 5 249 5 5 249 4 4 250 4 4 250 3 3 251 3 3 251 2 2 252 2 2 252 2 2 252 2 2 252 2 2 252 3 2 251 3 3 251 4 4 250 5 5 249 6 6 248 7 7 247 9 8 245 10 9 244 11 10 243 11 11 243 12 11 242 12 12 242 13 12 241 13 12 241 13 12 241 13 12 241 13 12 241 13 12 241 13 12 241 13 12 241 13 12 241 13 12 241 13 12 241 13 12 241 12 12 242 12 11 242 11 11 243 11 10 243 10 9 244 8 8 246 7 7 247 6 6 248 5 5 249 4 4 250 3 3 251 3 2 251 2 2 252 2 2 252 3 2 251 3 3 251 4 3 250 4 4 250 5 5 249 5 5 249 5 5 249 5 5 249 5 5 249 5 4 249 4 4 250 4 3 250 3 3 251 3 2 251 2 2 252 2 2 252 2 2 252 3 2 251 3 3 251 4 3 250 4 4 250 5 4 249 5 5 249 5 5 249 5 5 249 5 5 249 5 5 249 4 4 250 4 3 250 3 3 251 3 2 251 2 2 252 2 2 252 3 2 251 3 3 251 4 4 250 5 5 249 6 6 248 7 7 247 8 8 246 10 9 244 11 10 243 11 11 243 12 11 242 12 12 242 13 12 241 13 12 241 13 12 241 13 12 241 13 12 241 13 12 241 13 12 241 13 12 241 13 12 241 13 12 241 13 12 241 13 12 241 12 12 242 12 11 242 11 11 243 11 10 243 10 9 244 9 8 245 7 7 247 6 6 248 5 5 249 4 4 250 3 3 251 3 2 251 2 2 252 2 2 252 2 2 252 2 2 252 2 2 252 3 3 251 3 3 251 4 4 250 4 4 250 5 5 249 5 5 249 5 5 249 5 5 249 5 5 249 5 5 249 5 4 249 4 4 250 4 3 250 3 3 251 3 3 251 3 2 251 2 2 252 2 2 252 2 2 252 2 2 252 2 2 252 3 2 251 3 3 251 3 3 251 3 3 251 4 3 250 4 3 250 4 4 250 4 4 250 4 3 250 4 3 250 3 3 251 
3 3 251 3 3 251 3 3 251 4 3 250 4 3 250 4 3 250 4 3 250 3 3 251 3 3 251 3 3 251 3 3 251 3 2 251 2 2 252 2 2 252 2 2 252 2 2 252 2 2 252 3 2 251 3 3 251 3 3 251 4 3 250 4 4 250 5 4 249 5 5 249 5 5 249 5 5 249 5 5 249 5 5 249 5 5 249 4 4 250 4 4 250 3 3 251 3 3 251 2 2 252 2 2 252 2 2 252 2 2 252 2 2 252 3 2 251 3 3 251 4 4 250 5 5 249 6 6 248 7 7 247 8 8 246 9 8 245 10 9 244 10 10 244 11 10 243 11 10 243 11 10 243 11 10 243 11 10 243 11 10 243 11 10 243 11 10 243 11 10 243 11 10 243 10 10 244 10 10 244 10 10 244 10 10 244 10 9 244 10 9 244 9 8 245 8 8 246 7 7 247 6 6 248 6 5 248 5 4 249 4 4 250 3 3 251 3 2 251 2 2 252 2 2 252 3 2 251 3 3 251 3 3 251 4 4 250 4 4 250 5 4 249 5 5 249 5 5 249 5 4 249 4 4 250 4 4 250 3 3 251 3 3 251 2 2 252 2 2 252 2 2 252 2 2 252 2 2 252 3 3 251 3 3 251 4 4 250 4 4 250 5 4 249 5 5 249 5 5 249 5 4 249 4 4 250 4 4 250 3 3 251 3 3 251 3 2 251 2 2 252 2 2 252 3 2 251 3 3 251 4 4 250 5 4 249 6 5 248 6 6 248 7 7 247 8 8 246 9 8 245 10 9 244 10 9 244 10 10 244 10 10 244 10 10 244 10 10 244 11 10 243 11 10 243 11 10 243 11 10 243 11 10 243 11 10 243 11 10 243 11 10 243 11 10 243 11 10 243 10 10 244 10 9 244 9 8 245 8 8 246 7 7 247 6 6 248 5 5 249 4 4 250 3 3 251 3 2 251 2 2 252 2 2 252 2 2 252 2 2 252 2 2 252 3 3 251 3 3 251 4 4 250 4 4 250 5 5 249 5 5 249 5 5 249 5 5 249 5 5 249 5 5 249 5 4 249 4 4 250 4 3 250 3 3 251 3 3 251 3 2 251 2 2 252 2 2 252 2 2 252 2 2 252 2 2 252 3 2 251 3 3 251 3 3 251 3 3 251 3 3 251 4 3 250 4 3 250 4 3 250 4 3 250 3 3 251 3 3 251 3 3 251 
3 3 251 3 3 251 3 3 251 3 3 251 4 3 250 4 3 250 4 3 250 4 3 250 3 3 251 3 3 251 3 3 251 3 3 251 3 2 251 2 2 252 2 2 252 2 2 252 2 2 252 2 2 252 3 2 251 3 3 251 3 3 251 4 3 250 4 4 250 5 4 249 5 5 249 5 5 249 5 5 249 5 5 249 5 5 249 5 5 249 5 4 249 4 4 250 4 3 250 3 3 251 3 2 251 2 2 252 2 2 252 2 2 252 2 2 252 3 2 251 3 3 251 4 4 250 5 4 249 6 5 248 6 6 248 7 7 247 8 7 246 8 8 246 9 8 245 9 8 245 9 8 245 9 8 245 9 8 245 9 8 245 8 8 246 8 8 246 8 8 246 8 7 246 8 7 246 8 7 246 8 7 246 8 7 246 8 7 246 8 7 246 7 7 247 7 6 247 6 6 248 6 5 248 5 5 249 4 4 250 4 3 250 3 3 251 3 3 251 2 2 252 2 2 252 3 2 251 3 3 251 3 3 251 4 3 250 4 4 250 4 4 250 4 4 250 4 4 250 4 4 250 4 4 250 4 3 250 3 3 251 3 3 251 2 2 252 2 2 252 2 2 252 2 2 252 2 2 252 3 3 251 3 3 251 4 3 250 4 4 250 4 4 250 4 4 250 4 4 250 4 4 250 4 4 250 4 3 250 3 3 251 3 3 251 3 2 251 2 2 252 2 2 252 3 3 251 3 3 251 4 3 250 4 4 250 5 5 249 6 5 248 6 6 248 7 6 247 7 7 247 8 7 246 8 7 246 8 7 246 8 7 246 8 7 246 8 7 246 8 7 246 8 8 246 8 8 246 8 8 246 9 8 245 9 8 245 9 8 245 9 8 245 9 8 245 9 8 245 8 8 246 8 7 246 7 7 247 6 6 248 6 5 248 5 4 249 4 4 250 3 3 251 3 2 251 2 2 252 2 2 252 2 2 252 2 2 252 3 2 251 3 3 251 4 3 250 4 4 250 5 4 249 5 5 249 5 5 249 5 5 249 5 5 249 5 5 249 5 5 249 5 4 249 4 4 250 4 3 250 3 3 251 3 3 251 3 2 251 2 2 252 2 2 252 2 2 252 2 2 252 2 2 252 3 2 251 3 3 251 3 3 251 3 3 251 3 3 251 4 3 250 4 3 250 4 3 250 4 3 250 3 3 251 3 3 251 3 3 251 3 3 251 
3 2 251 3 3 251 3 3 251 3 3 251 3 3 251 4 3 250 4 3 250 4 3 250 4 3 250 3 3 251 3 3 251 3 3 251 3 3 251 3 2 251 2 2 252 2 2 252 2 2 252 2 2 252 2 2 252 3 2 251 3 3 251 3 3 251 4 3 250 4 4 250 5 4 249 5 5 249 5 5 249 5 5 249 5 5 249 5 5 249 5 5 249 5 4 249 4 4 250 4 3 250 3 3 251 3 3 251 2 2 252 2 2 252 2 2 252 2 2 252 3 2 251 3 3 251 4 3 250 4 4 250 5 5 249 5 5 249 6 6 248 6 6 248 7 6 247 7 6 247 7 6 247 7 6 247 7 6 247 6 6 248 6 6 248 6 5 248 6 5 248 6 5 248 6 5 248 6 5 248 6 5 248 6 5 248 6 6 248 6 6 248 6 5 248 6 5 248 5 5 249 5 5 249 4 4 250 4 4 250 4 3 250 3 3 251 3 3 251 3 2 251 2 2 252 3 2 251 3 2 251 3 3 251 3 3 251 3 3 251 4 3 250 4 4 250 4 4 250 4 3 250 4 3 250 3 3 251 3 3 251 3 2 251 2 2 252 2 2 252 2 2 252 2 2 252 2 2 252 3 2 251 3 3 251 3 3 251 4 3 250 4 3 250 4 4 250 4 4 250 4 3 250 3 3 251 3 3 251 3 3 251 3 2 251 3 2 251 2 2 252 3 2 251 3 3 251 3 3 251 4 3 250 4 4 250 4 4 250 5 5 249 5 5 249 6 5 248 6 5 248 6 6 248 6 6 248 6 5 248 6 5 248 6 5 248 6 5 248 6 5 248 6 5 248 6 5 248 6 6 248 6 6 248 7 6 247 7 6 247 7 6 247 7 6 247 7 6 247 6 6 248 6 6 248 5 5 249 5 5 249 4 4 250 4 3 250 3 3 251 3 2 251 2 2 252 2 2 252 2 2 252 2 2 252 3 3 251 3 3 251 4 3 250 4 4 250 5 4 249 5 5 249 5 5 249 5 5 249 5 5 249 5 5 249 5 5 249 5 4 249 4 4 250 4 3 250 3 3 251 3 3 251 3 2 251 2 2 252 2 2 252 2 2 252 2 2 252 2 2 252 3 2 251 3 3 251 3 3 251 3 3 251 3 3 251 4 3 250 4 3 250 4 3 250 4 3 250 3 3 251 3 3 251 3 3 251 3 3 251 3 2 251 
3 2 251 3 3 251 3 3 251 3 3 251 3 3 251 4 3 250 4 3 250 4 3 250 4 3 250 4 3 250 3 3 251 3 3 251 3 3 251 3 3 251 3 2 251 2 2 252 2 2 252 2 2 252 2 2 252 2 2 252 3 2 251 3 3 251 3 3 251 4 4 250 4 4 250 5 4 249 5 5 249 5 5 249 5 5 249 5 5 249 5 5 249 5 5 249 5 4 249 4 4 250 4 4 250 3 3 251 3 3 251 3 2 251 2 2 252 2 2 252 2 2 252 3 2 251 3 3 251 3 3 251 4 3 250 4 4 250 4 4 250 5 4 249 5 5 249 5 5 249 5 5 249 5 5 249 5 4 249 4 4 250 4 4 250 4 4 250 4 4 250 4 3 250 4 3 250 4 4 250 4 4 250 4 4 250 4 4 250 5 4 249 5 4 249 5 4 249 5 4 249 4 4 250 4 4 250 4 3 250 3 3 251 3 3 251 3 3 251 3 2 251 2 2 252 2 2 252 3 2 251 3 2 251 3 3 251 3 3 251 3 3 251 3 3 251 3 3 251 3 3 251 3 3 251 3 3 251 3 3 251 3 2 251 2 2 252 2 2 252 2 2 252 2 2 252 2 2 252 3 2 251 3 3 251 3 3 251 3 3 251 3 3 251 3 3 251 3 3 251 3 3 251 3 3 251 3 3 251 3 2 251 3 2 251 2 2 252 2 2 252 3 2 251 3 3 251 3 3 251 3 3 251 4 3 250 4 4 250 4 4 250 5 4 249 5 4 249 5 4 249 5 4 249 4 4 250 4 4 250 4 4 250 4 4 250 4 3 250 4 3 250 4 4 250 4 4 250 4 4 250 4 4 250 5 4 249 5 5 249 5 5 249 5 5 249 5 5 249 5 4 249 4 4 250 4 4 250 4 3 250 3 3 251 3 3 251 3 2 251 2 2 252 2 2 252 2 2 252 3 2 251 3 3 251 3 3 251 4 4 250 4 4 250 5 4 249 5 5 249 5 5 249 5 5 249 5 5 249 5 5 249 5 5 249 5 4 249 4 4 250 4 4 250 3 3 251 3 3 251 3 2 251 2 2 252 2 2 252 2 2 252 2 2 252 2 2 252 3 2 251 3 3 251 3 3 251 3 3 251 3 3 251 4 3 250 4 3 250 4 3 250 4 3 250 4 3 250 3 3 251 3 3 251 3 3 251 3 3 251 3 2 251 
2 2 252 3 2 251 3 3 251 3 3 251 3 3 251 3 3 251 4 3 250 4 3 250 4 4 250 4 4 250 4 3 250 4 3 250 3 3 251 3 3 251 3 3 251 3 2 251 2 2 252 2 2 252 2 2 252 2 2 252 2 2 252 3 2 251 3 3 251 3 3 251 4 4 250 4 4 250 5 4 249 5 5 249 5 5 249 6 5 248 6 5 248 5 5 249 5 5 249 5 4 249 4 4 250 4 4 250 3 3 251 3 3 251 3 3 251 2 2 252 2 2 252 2 2 252 2 2 252 3 2 251 3 3 251 3 3 251 3 3 251 4 3 250 4 3 250 4 3 250 4 3 250 3 3 251 3 3 251 3 3 251 3 3 251 3 2 251 2 2 252 2 2 252 2 2 252 3 2 251 3 3 251 3 3 251 3 3 251 4 3 250 4 4 250 4 4 250 4 4 250 4 4 250 4 4 250 4 3 250 3 3 251 3 3 251 3 3 251 3 2 251 2 2 252 2 2 252 2 2 252 2 2 252 3 2 251 3 3 251 3 3 251 3 3 251 3 3 251 3 3 251 3 3 251 3 3 251 3 2 251 3 2 251 2 2 252 2 2 252 2 2 252 2 2 252 2 2 252 3 2 251 3 2 251 3 3 251 3 3 251 3 3 251 3 3 251 3 3 251 3 3 251 3 3 251 3 2 251 2 2 252 2 2 252 2 2 252 2 2 252 3 2 251 3 3 251 3 3 251 3 3 251 4 3 250 4 4 250 4 4 250 4 4 250 4 4 250 4 4 250 4 3 250 3 3 251 3 3 251 3 3 251 3 2 251 2 2 252 2 2 252 2 2 252 3 2 251 3 3 251 3 3 251 3 3 251 3 3 251 4 3 250 4 3 250 4 3 250 4 3 250 3 3 251 3 3 251 3 3 251 3 2 251 2 2 252 2 2 252 2 2 252 2 2 252 3 3 251 3 3 251 3 3 251 4 4 250 4 4 250 5 4 249 5 5 249 5 5 249 6 5 248 6 5 248 5 5 249 5 5 249 5 4 249 4 4 250 4 4 250 3 3 251 3 3 251 3 2 251 2 2 252 2 2 252 2 2 252 2 2 252 2 2 252 3 2 251 3 3 251 3 3 251 3 3 251 4 3 250 4 3 250 4 4 250 4 4 250 4 3 250 4 3 250 3 3 251 3 3 251 3 3 251 3 3 251 3 2 251 2 2 252 
2 2 252 2 2 252 3 2 251 3 3 251 3 3 251 3 3 251 4 3 250 4 3 250 4 4 250 4 4 250 4 4 250 4 3 250 4 3 250 3 3 251 3 3 251 3 3 251 3 2 251 2 2 252 2 2 252 2 2 252 2 2 252 2 2 252 3 2 251 3 3 251 3 3 251 4 4 250 4 4 250 5 4 249 5 5 249 5 5 249 6 5 248 6 5 248 5 5 249 5 5 249 5 5 249 4 4 250 4 4 250 4 3 250 3 3 251 3 3 251 3 2 251 2 2 252 2 2 252 2 2 252 2 2 252 2 2 252 3 2 251 3 2 251 3 2 251 3 2 251 3 2 251 2 2 252 2 2 252 2 2 252 2 2 252 2 2 252 2 2 252 2 2 252 2 2 252 2 2 252 2 2 252 3 2 251 3 3 251 3 3 251 3 3 251 4 3 250 4 3 250 4 3 250 4 3 250 3 3 251 3 3 251 3 3 251 3 3 251 3 2 251 2 2 252 2 2 252 2 2 252 2 2 252 2 2 252 3 2 251 3 3 251 3 3 251 3 3 251 3 3 251 3 3 251 3 3 251 3 2 251 2 2 252 2 2 252 2 2 252 2 2 252 2 2 252 2 2 252 2 2 252 3 2 251 3 3 251 3 3 251 3 3 251 3 3 251 3 3 251 3 3 251 3 2 251 2 2 252 2 2 252 2 2 252 2 2 252 2 2 252 3 2 251 3 3 251 3 3 251 3 3 251 3 3 251 4 3 250 4 3 250 4 3 250 4 3 250 3 3 251 3 3 251 3 3 251 3 2 251 2 2 252 2 2 252 2 2 252 2 2 252 2 2 252 2 2 252 2 2 252 2 2 252 2 2 252 2 2 252 3 2 251 3 2 251 3 2 251 3 2 251 3 2 251 2 2 252 2 2 252 2 2 252 2 2 252 2 2 252 3 2 251 3 3 251 3 3 251 4 3 250 4 4 250 4 4 250 5 5 249 5 5 249 5 5 249 6 5 248 6 5 248 5 5 249 5 5 249 5 4 249 4 4 250 4 4 250 3 3 251 3 3 251 3 2 251 2 2 252 2 2 252 2 2 252 2 2 252 2 2 252 3 2 251 3 3 251 3 3 251 3 3 251 4 3 250 4 3 250 4 4 250 4 4 250 4 4 250 4 3 250 4 3 250 3 3 251 3 3 251 3 3 251 3 2 251 2 2 252 2 2 252 
2 2 252 2 2 252 3 2 251 3 3 251 3 3 251 3 3 251 3 3 251 4 3 250 4 4 250 4 4 250 4 4 250 4 4 250 4 3 250 4 3 250 3 3 251 3 3 251 3 3 251 3 2 251 2 2 252 2 2 252 2 2 252 2 2 252 2 2 252 3 3 251 3 3 251 3 3 251 4 4 250 4 4 250 5 5 249 5 5 249 5 5 249 6 5 248 6 5 248 5 5 249 5 5 249 5 5 249 5 4 249 4 4 250 4 3 250 3 3 251 3 3 251 3 2 251 2 2 252 2 2 252 2 2 252 2 2 252 2 2 252 2 2 252 2 2 252 2 2 252 2 2 252 2 2 252 2 2 252 2 2 252 2 2 252 2 2 252 2 2 252 2 2 252 2 2 252 2 2 252 2 2 252 3 3 251 3 3 251 3 3 251 3 3 251 4 3 250 4 3 250 4 3 250 4 3 250 3 3 251 3 3 251 3 3 251 3 2 251 2 2 252 2 2 252 2 2 252 2 2 252 2 2 252 2 2 252 3 2 251 3 2 251 3 3 251 3 3 251 3 3 251 3 3 251 3 2 251 3 2 251 2 2 252 2 2 252 2 2 252 2 2 252 2 2 252 2 2 252 2 2 252 3 2 251 3 2 251 3 3 251 3 3 251 3 3 251 3 3 251 3 2 251 3 2 251 2 2 252 2 2 252 2 2 252 2 2 252 2 2 252 2 2 252 3 2 251 3 3 251 3 3 251 3 3 251 4 3 250 4 3 250 4 3 250 4 3 250 3 3 251 3 3 251 3 3 251 3 3 251 2 2 252 2 2 252 2 2 252 2 2 252 2 2 252 2 2 252 2 2 252 2 2 252 2 2 252 2 2 252 2 2 252 2 2 252 2 2 252 2 2 252 2 2 252 2 2 252 2 2 252 2 2 252 2 2 252 3 2 251 3 3 251 3 3 251 4 3 250 4 4 250 5 4 249 5 5 249 5 5 249 5 5 249 6 5 248 6 5 248 5 5 249 5 5 249 5 5 249 4 4 250 4 4 250 3 3 251 3 3 251 3 3 251 2 2 252 2 2 252 2 2 252 2 2 252 2 2 252 3 2 251 3 3 251 3 3 251 3 3 251 4 3 250 4 3 250 4 4 250 4 4 250 4 4 250 4 4 250 4 3 250 3 3 251 3 3 251 3 3 251 3 3 251 3 2 251 2 2 252 2 2 252 
2 2 252 2 2 252 2 2 252 3 2 251 3 3 251 3 3 251 3 3 251 4 3 250 4 3 250 4 4 250 4 4 250 4 4 250 4 4 250 4 3 250 4 3 250 3 3 251 3 3 251 3 3 251 2 2 252 2 2 252 2 2 252 2 2 252 2 2 252 2 2 252 3 3 251 3 3 251 4 3 250 4 4 250 4 4 250 5 4 249 5 5 249 5 5 249 5 5 249 5 5 249 5 5 249 5 5 249 5 5 249 5 4 249 4 4 250 4 4 250 3 3 251 3 3 251 3 3 251 3 2 251 2 2 252 2 2 252 2 2 252 2 2 252 2 2 252 2 2 252 2 2 252 2 2 252 2 2 252 2 2 252 2 2 252 2 2 252 2 2 252 2 2 252 3 2 251 3 3 251 3 3 251 3 3 251 4 3 250 4 3 250 4 4 250 4 4 250 4 4 250 4 4 250 4 3 250 3 3 251 3 3 251 3 3 251 3 2 251 2 2 252 2 2 252 2 2 252 2 2 252 2 2 252 2 2 252 3 2 251 3 3 251 3 3 251 3 3 251 3 3 251 3 3 251 3 3 251 3 2 251 2 2 252 2 2 252 2 2 252 2 2 252 2 2 252 2 2 252 2 2 252 3 2 251 3 3 251 3 3 251 3 3 251 3 3 251 3 3 251 3 3 251 3 2 251 2 2 252 2 2 252 2 2 252 2 2 252 2 2 252 2 2 252 3 2 251 3 3 251 3 3 251 3 3 251 4 3 250 4 4 250 4 4 250 4 4 250 4 4 250 4 3 250 4 3 250 3 3 251 3 3 251 3 3 251 3 2 251 2 2 252 2 2 252 2 2 252 2 2 252 2 2 252 2 2 252 2 2 252 2 2 252 2 2 252 2 2 252 2 2 252 2 2 252 2 2 252 2 2 252 3 2 251 3 3 251 3 3 251 3 3 251 4 4 250 4 4 250 5 4 249 5 5 249 5 5 249 5 5 249 5 5 249 5 5 249 5 5 249 5 5 249 5 4 249 4 4 250 4 4 250 4 3 250 3 3 251 3 3 251 2 2 252 2 2 252 2 2 252 2 2 252 2 2 252 2 2 252 3 3 251 3 3 251 3 3 251 4 3 250 4 3 250 4 4 250 4 4 250 4 4 250 4 4 250 4 3 250 4 3 250 3 3 251 3 3 251 3 3 251 3 2 251 2 2 252 2 2 252 2 2 252 
2 2 252 2 2 252 2 2 252 2 2 252 3 2 251 3 3 251 3 3 251 3 3 251 4 3 250 4 4 250 4 4 250 4 4 250 4 4 250 4 4 250 4 3 250 3 3 251 3 3 251 3 3 251 3 2 251 2 2 252 2 2 252 2 2 252 2 2 252 2 2 252 2 2 252 3 3 251 3 3 251 4 3 250 4 4 250 4 4 250 5 4 249 5 5 249 5 5 249 5 5 249 5 5 249 5 5 249 5 5 249 5 5 249 5 4 249 4 4 250 4 4 250 4 3 250 3 3 251 3 3 251 3 3 251 3 2 251 3 2 251 2 2 252 2 2 252 2 2 252 2 2 252 2 2 252 2 2 252 3 2 251 3 2 251 3 3 251 3 3 251 3 3 251 3 3 251 4 3 250 4 4 250 4 4 250 4 4 250 4 4 250 4 4 250 4 4 250 4 4 250 4 4 250 4 3 250 3 3 251 3 3 251 3 3 251 2 2 252 2 2 252 2 2 252 2 2 252 2 2 252 2 2 252 3 2 251 3 3 251 3 3 251 3 3 251 3 3 251 3 3 251 3 3 251 3 3 251 3 3 251 3 2 251 2 2 252 2 2 252 2 2 252 2 2 252 2 2 252 3 2 251 3 3 251 3 3 251 3 3 251 3 3 251 3 3 251 3 3 251 3 3 251 3 3 251 3 2 251 2 2 252 2 2 252 2 2 252 2 2 252 2 2 252 2 2 252 3 3 251 3 3 251 3 3 251 4 3 250 4 4 250 4 4 250 4 4 250 4 4 250 4 4 250 4 4 250 4 4 250 4 4 250 4 3 250 3 3 251 3 3 251 3 3 251 3 3 251 3 2 251 3 2 251 2 2 252 2 2 252 2 2 252 2 2 252 2 2 252 2 2 252 3 2 251 3 2 251 3 3 251 3 3 251 3 3 251 4 3 250 4 4 250 4 4 250 5 4 249 5 5 249 5 5 249 5 5 249 5 5 249 5 5 249 5 5 249 5 5 249 5 4 249 4 4 250 4 4 250 4 3 250 3 3 251 3 3 251 2 2 252 2 2 252 2 2 252 2 2 252 2 2 252 2 2 252 3 2 251 3 3 251 3 3 251 3 3 251 4 3 250 4 4 250 4 4 250 4 4 250 4 4 250 4 4 250 4 3 250 3 3 251 3 3 251 3 3 251 3 2 251 2 2 252 2 2 252 2 2 252 2 2 252 
2 2 252 2 2 252 2 2 252 2 2 252 3 2 251 3 3 251 3 3 251 3 3 251 3 3 251 4 3 250 4 4 250 4 4 250 4 4 250 4 4 250 4 4 250 4 3 250 3 3 251 3 3 251 3 3 251 3 2 251 2 2 252 2 2 252 2 2 252 2 2 252 2 2 252 3 2 251 3 3 251 3 3 251 4 3 250 4 4 250 4 4 250 5 4 249 5 5 249 5 5 249 5 5 249 5 5 249 5 5 249 5 5 249 5 4 249 5 4 249 4 4 250 4 4 250 4 3 250 3 3 251 3 3 251 3 3 251 3 3 251 3 3 251 3 3 251 3 3 251 3 3 251 3 3 251 3 3 251 3 3 251 4 3 250 4 3 250 4 4 250 4 4 250 5 4 249 5 4 249 5 5 249 5 5 249 5 5 249 5 5 249 5 5 249 5 5 249 5 4 249 4 4 250 4 4 250 3 3 251 3 3 251 3 2 251 2 2 252 2 2 252 2 2 252 2 2 252 2 2 252 3 2 251 3 3 251 3 3 251 3 3 251 3 3 251 3 3 251 3 3 251 3 3 251 3 3 251 3 3 251 3 2 251 2 2 252 2 2 252 2 2 252 2 2 252 2 2 252 3 2 251 3 3 251 3 3 251 3 3 251 3 3 251 3 3 251 3 3 251 3 3 251 3 3 251 3 3 251 3 2 251 2 2 252 2 2 252 2 2 252 2 2 252 2 2 252 3 2 251 3 3 251 3 3 251 4 4 250 4 4 250 5 4 249 5 5 249 5 5 249 5 5 249 5 5 249 5 5 249 5 5 249 5 4 249 5 4 249 4 4 250 4 4 250 4 3 250 4 3 250 3 3 251 3 3 251 3 3 251 3 3 251 3 3 251 3 3 251 3 3 251 3 3 251 3 3 251 3 3 251 3 3 251 4 3 250 4 4 250 4 4 250 5 4 249 5 4 249 5 5 249 5 5 249 5 5 249 5 5 249 5 5 249 5 5 249 5 4 249 4 4 250 4 4 250 4 3 250 3 3 251 3 3 251 3 2 251 2 2 252 2 2 252 2 2 252 2 2 252 2 2 252 3 2 251 3 3 251 3 3 251 3 3 251 4 3 250 4 4 250 4 4 250 4 4 250 4 4 250 4 4 250 4 3 250 3 3 251 3 3 251 3 3 251 3 3 251 3 2 251 2 2 252 2 2 252 2 2 252 2 2 252 
2 2 252 2 2 252 2 2 252 2 2 252 2 2 252 3 2 251 3 3 251 3 3 251 3 3 251 3 3 251 4 3 250 4 4 250 4 4 250 4 4 250 4 4 250 4 3 250 3 3 251 3 3 251 3 3 251 3 3 251 3 2 251 2 2 252 2 2 252 2 2 252 2 2 252 2 2 252 3 2 251 3 3 251 3 3 251 3 3 251 4 3 250 4 4 250 4 4 250 5 4 249 5 4 249 5 5 249 5 5 249 5 5 249 5 5 249 5 4 249 5 4 249 4 4 250 4 4 250 4 4 250 4 4 250 4 3 250 4 3 250 3 3 251 3 3 251 3 3 251 4 3 250 4 3 250 4 4 250 4 4 250 4 4 250 5 4 249 5 5 249 5 5 249 6 5 248 6 5 248 6 6 248 6 6 248 6 6 248 6 6 248 6 5 248 5 5 249 5 5 249 4 4 250 4 4 250 3 3 251 3 3 251 3 2 251 2 2 252 2 2 252 2 2 252 2 2 252 3 2 251 3 3 251 3 3 251 3 3 251 4 3 250 4 3 250 4 3 250 4 3 250 3 3 251 3 3 251 3 3 251 3 2 251 2 2 252 2 2 252 2 2 252 2 2 252 2 2 252 3 2 251 3 3 251 3 3 251 3 3 251 4 3 250 4 3 250 4 3 250 4 3 250 3 3 251 3 3 251 3 3 251 3 2 251 2 2 252 2 2 252 2 2 252 2 2 252 3 2 251 3 3 251 3 3 251 4 4 250 4 4 250 5 5 249 5 5 249 6 5 248 6 6 248 6 6 248 6 6 248 6 6 248 6 5 248 6 5 248 5 5 249 5 5 249 5 4 249 4 4 250 4 4 250 4 4 250 4 3 250 4 3 250 3 3 251 3 3 251 3 3 251 4 3 250 4 3 250 4 4 250 4 4 250 4 4 250 4 4 250 5 4 249 5 4 249 5 5 249 5 5 249 5 5 249 5 5 249 5 4 249 5 4 249 4 4 250 4 4 250 4 3 250 3 3 251 3 3 251 3 3 251 3 2 251 2 2 252 2 2 252 2 2 252 2 2 252 2 2 252 3 2 251 3 3 251 3 3 251 3 3 251 3 3 251 4 3 250 4 4 250 4 4 250 4 4 250 4 4 250 4 3 250 3 3 251 3 3 251 3 3 251 3 3 251 3 2 251 2 2 252 2 2 252 2 2 252 2 2 252 2 2 252 
2 2 252 2 2 252 2 2 252 2 2 252 2 2 252 2 2 252 3 2 251 3 3 251 3 3 251 3 3 251 3 3 251 4 3 250 4 3 250 4 3 250 4 3 250 4 3 250 4 3 250 3 3 251 3 3 251 3 3 251 3 3 251 3 2 251 2 2 252 2 2 252 2 2 252 2 2 252 2 2 252 2 2 252 3 3 251 3 3 251 3 3 251 4 3 250 4 4 250 4 4 250 4 4 250 5 4 249 5 4 249 5 4 249 5 4 249 5 4 249 5 4 249 5 4 249 4 4 250 4 4 250 4 4 250 4 4 250 4 4 250 4 4 250 4 4 250 4 4 250 4 4 250 4 4 250 5 4 249 5 4 249 5 5 249 5 5 249 6 5 248 6 6 248 6 6 248 7 6 247 7 6 247 7 6 247 7 6 247 7 6 247 6 6 248 6 5 248 5 5 249 5 4 249 4 4 250 3 3 251 3 3 251 3 2 251 2 2 252 2 2 252 2 2 252 2 2 252 3 2 251 3 3 251 3 3 251 4 3 250 4 4 250 4 4 250 4 4 250 4 4 250 4 3 250 3 3 251 3 3 251 3 3 251 2 2 252 2 2 252 2 2 252 2 2 252 2 2 252 3 3 251 3 3 251 3 3 251 4 3 250 4 4 250 4 4 250 4 4 250 4 4 250 4 3 250 3 3 251 3 3 251 3 2 251 2 2 252 2 2 252 2 2 252 2 2 252 3 2 251 3 3 251 3 3 251 4 4 250 5 4 249 5 5 249 6 5 248 6 6 248 7 6 247 7 6 247 7 6 247 7 6 247 7 6 247 6 6 248 6 6 248 6 5 248 5 5 249 5 5 249 5 4 249 5 4 249 4 4 250 4 4 250 4 4 250 4 4 250 4 4 250 4 4 250 4 4 250 4 4 250 4 4 250 4 4 250 5 4 249 5 4 249 5 4 249 5 4 249 5 4 249 5 4 249 5 4 249 4 4 250 4 4 250 4 4 250 4 3 250 3 3 251 3 3 251 3 3 251 2 2 252 2 2 252 2 2 252 2 2 252 2 2 252 2 2 252 3 2 251 3 3 251 3 3 251 3 3 251 3 3 251 4 3 250 4 3 250 4 3 250 4 3 250 4 3 250 4 3 250 3 3 251 3 3 251 3 3 251 3 3 251 3 2 251 2 2 252 2 2 252 2 2 252 2 2 252 2 2 252 2 2 252 
2 2 252 2 2 252 2 2 252 2 2 252 2 2 252 2 2 252 3 2 251 3 2 251 3 3 251 3 3 251 3 3 251 3 3 251 3 3 251 4 3 250 4 3 250 4 3 250 4 3 250 3 3 251 3 3 251 3 3 251 3 3 251 3 2 251 3 2 251 2 2 252 2 2 252 2 2 252 2 2 252 2 2 252 2 2 252 3 2 251 3 3 251 3 3 251 3 3 251 4 3 250 4 4 250 4 4 250 4 4 250 4 4 250 5 4 249 5 4 249 5 4 249 5 4 249 5 4 249 5 4 249 5 4 249 4 4 250 4 4 250 4 4 250 4 4 250 4 4 250 5 4 249 5 4 249 5 5 249 5 5 249 6 5 248 6 6 248 6 6 248 7 6 247 7 6 247 7 7 247 7 7 247 7 7 247 7 7 247 7 6 247 6 6 248 6 6 248 5 5 249 5 4 249 4 4 250 3 3 251 3 3 251 2 2 252 2 2 252 2 2 252 2 2 252 2 2 252 3 3 251 3 3 251 4 3 250 4 4 250 4 4 250 4 4 250 4 4 250 4 4 250 4 4 250 3 3 251 3 3 251 3 3 251 2 2 252 2 2 252 2 2 252 2 2 252 2 2 252 3 3 251 3 3 251 3 3 251 4 4 250 4 4 250 4 4 250 4 4 250 4 4 250 4 4 250 4 3 250 3 3 251 3 3 251 2 2 252 2 2 252 2 2 252 2 2 252 2 2 252 3 3 251 3 3 251 4 4 250 5 4 249 5 5 249 6 6 248 6 6 248 7 6 247 7 7 247 7 7 247 7 7 247 7 7 247 7 6 247 7 6 247 6 6 248 6 6 248 6 5 248 5 5 249 5 5 249 5 4 249 5 4 249 4 4 250 4 4 250 4 4 250 4 4 250 4 4 250 5 4 249 5 4 249 5 4 249 5 4 249 5 4 249 5 4 249 5 4 249 4 4 250 4 4 250 4 4 250 4 4 250 4 3 250 3 3 251 3 3 251 3 3 251 3 2 251 2 2 252 2 2 252 2 2 252 2 2 252 2 2 252 2 2 252 3 2 251 3 2 251 3 3 251 3 3 251 3 3 251 3 3 251 4 3 250 4 3 250 4 3 250 4 3 250 3 3 251 3 3 251 3 3 251 3 3 251 3 3 251 3 2 251 3 2 251 2 2 252 2 2 252 2 2 252 2 2 252 2 2 252 2 2 252 
2 2 252 2 2 252 2 2 252 2 2 252 2 2 252 2 2 252 2 2 252 3 2 251 3 2 251 3 3 251 3 3 251 3 3 251 3 3 251 3 3 251 3 3 251 3 3 251 3 3 251 3 3 251 3 3 251 3 3 251 3 3 251 3 3 251 3 2 251 2 2 252 2 2 252 2 2 252 2 2 252 2 2 252 2 2 252 2 2 252 2 2 252 3 2 251 3 3 251 3 3 251 3 3 251 4 3 250 4 4 250 4 4 250 4 4 250 4 4 250 4 4 250 5 4 249 5 4 249 5 4 249 5 4 249 5 4 249 5 4 249 5 4 249 5 4 249 5 4 249 5 5 249 5 5 249 5 5 249 5 5 249 6 5 248 6 6 248 6 6 248 7 6 247 7 7 247 7 7 247 7 7 247 7 7 247 7 7 247 7 7 247 7 6 247 6 6 248 5 5 249 5 4 249 4 4 250 3 3 251 3 3 251 2 2 252 2 2 252 2 2 252 2 2 252 3 2 251 3 3 251 3 3 251 4 3 250 4 4 250 4 4 250 4 4 250 4 4 250 4 4 250 4 4 250 4 3 250 3 3 251 3 3 251 2 2 252 2 2 252 2 2 252 2 2 252 2 2 252 3 3 251 3 3 251 4 3 250 4 4 250 4 4 250 4 4 250 4 4 250 4 4 250 4 4 250 4 3 250 3 3 251 3 3 251 3 2 251 2 2 252 2 2 252 2 2 252 2 2 252 3 3 251 3 3 251 4 4 250 5 4 249 5 5 249 6 6 248 7 6 247 7 7 247 7 7 247 7 7 247 7 7 247 7 7 247 7 7 247 7 6 247 6 6 248 6 6 248 6 5 248 5 5 249 5 5 249 5 5 249 5 5 249 5 4 249 5 4 249 5 4 249 5 4 249 5 4 249 5 4 249 5 4 249 5 4 249 5 4 249 4 4 250 4 4 250 4 4 250 4 4 250 4 4 250 4 3 250 3 3 251 3 3 251 3 3 251 3 2 251 2 2 252 2 2 252 2 2 252 2 2 252 2 2 252 2 2 252 2 2 252 2 2 252 3 2 251 3 3 251 3 3 251 3 3 251 3 3 251 3 3 251 3 3 251 3 3 251 3 3 251 3 3 251 3 3 251 3 3 251 3 3 251 3 3 251 3 2 251 3 2 251 2 2 252 2 2 252 2 2 252 2 2 252 2 2 252 2 2 252 2 2 252 
2 2 252 2 2 252 2 2 252 2 2 252 2 2 252 2 2 252 2 2 252 2 2 252 3 2 251 3 2 251 3 3 251 3 3 251 3 3 251 3 3 251 3 3 251 3 3 251 3 3 251 3 3 251 3 3 251 3 3 251 3 3 251 3 3 251 3 3 251 3 2 251 3 2 251 2 2 252 2 2 252 2 2 252 2 2 252 2 2 252 2 2 252 2 2 252 3 2 251 3 2 251 3 3 251 3 3 251 3 3 251 4 3 250 4 4 250 4 4 250 4 4 250 4 4 250 4 4 250 5 4 249 5 4 249 5 4 249 5 4 249 5 4 249 5 4 249 5 5 249 5 5 249 5 5 249 5 5 249 5 5 249 6 5 248 6 6 248 6 6 248 7 6 247 7 6 247 7 7 247 7 7 247 7 7 247 7 7 247 7 6 247 6 6 248 6 5 248 5 5 249 5 4 249 4 4 250 3 3 251 3 3 251 3 2 251 2 2 252 2 2 252 2 2 252 3 2 251 3 3 251 3 3 251 4 4 250 4 4 250 4 4 250 4 4 250 4 4 250 4 4 250 4 4 250 4 3 250 3 3 251 3 3 251 2 2 252 2 2 252 2 2 252 2 2 252 2 2 252 3 3 251 3 3 251 4 3 250 4 4 250 4 4 250 4 4 250 4 4 250 4 4 250 4 4 250 4 4 250 3 3 251 3 3 251 3 2 251 2 2 252 2 2 252 2 2 252 3 2 251 3 3 251 3 3 251 4 4 250 5 4 249 5 5 249 6 5 248 6 6 248 7 6 247 7 7 247 7 7 247 7 7 247 7 7 247 7 6 247 7 6 247 6 6 248 6 6 248 6 5 248 5 5 249 5 5 249 5 5 249 5 5 249 5 5 249 5 4 249 5 4 249 5 4 249 5 4 249 5 4 249 5 4 249 4 4 250 4 4 250 4 4 250 4 4 250 4 4 250 4 3 250 3 3 251 3 3 251 3 3 251 3 2 251 3 2 251 2 2 252 2 2 252 2 2 252 2 2 252 2 2 252 2 2 252 2 2 252 3 2 251 3 2 251 3 3 251 3 3 251 3 3 251 3 3 251 3 3 251 3 3 251 3 3 251 3 3 251 3 3 251 3 3 251 3 3 251 3 3 251 3 3 251 3 2 251 3 2 251 2 2 252 2 2 252 2 2 252 2 2 252 2 2 252 2 2 252 2 2 252 2 2 252 
3 2 251 2 2 252 2 2 252 2 2 252 2 2 252 2 2 252 2 2 252 2 2 252 2 2 252 2 2 252 3 2 251 3 2 251 3 3 251 3 3 251 3 3 251 3 3 251 3 3 251 3 3 251 3 3 251 3 3 251 3 3 251 3 3 251 3 3 251 3 3 251 3 2 251 3 2 251 2 2 252 2 2 252 2 2 252 2 2 252 2 2 252 2 2 252 2 2 252 2 2 252 3 2 251 3 3 251 3 3 251 3 3 251 3 3 251 4 3 250 4 4 250 4 4 250 4 4 250 4 4 250 5 4 249 5 4 249 5 4 249 5 4 249 5 4 249 5 4 249 5 4 249 5 5 249 5 5 249 5 5 249 5 5 249 5 5 249 6 5 248 6 6 248 6 6 248 6 6 248 7 6 247 7 6 247 7 6 247 6 6 248 6 6 248 6 5 248 5 5 249 4 4 250 4 4 250 3 3 251 3 3 251 3 2 251 2 2 252 2 2 252 2 2 252 3 2 251 3 3 251 3 3 251 4 3 250 4 4 250 4 4 250 4 4 250 4 4 250 4 4 250 4 4 250 4 3 250 3 3 251 3 3 251 2 2 252 2 2 252 2 2 252 2 2 252 2 2 252 3 3 251 3 3 251 4 3 250 4 4 250 4 4 250 4 4 250 4 4 250 4 4 250 4 4 250 4 3 250 3 3 251 3 3 251 3 2 251 2 2 252 2 2 252 2 2 252 3 2 251 3 3 251 3 3 251 4 4 250 4 4 250 5 5 249 6 5 248 6 6 248 6 6 248 7 6 247 7 6 247 7 6 247 6 6 248 6 6 248 6 6 248 6 5 248 5 5 249 5 5 249 5 5 249 5 5 249 5 5 249 5 4 249 5 4 249 5 4 249 5 4 249 5 4 249 5 4 249 5 4 249 4 4 250 4 4 250 4 4 250 4 4 250 4 3 250 3 3 251 3 3 251 3 3 251 3 3 251 3 2 251 2 2 252 2 2 252 2 2 252 2 2 252 2 2 252 2 2 252 2 2 252 2 2 252 3 2 251 3 2 251 3 3 251 3 3 251 3 3 251 3 3 251 3 3 251 3 3 251 3 3 251 3 3 251 3 3 251 3 3 251 3 3 251 3 3 251 3 2 251 3 2 251 2 2 252 2 2 252 2 2 252 2 2 252 2 2 252 2 2 252 2 2 252 2 2 252 2 2 252 3 2 251 
3 2 251 2 2 252 2 2 252 2 2 252 2 2 252 2 2 252 2 2 252 2 2 252 2 2 252 2 2 252 2 2 252 3 2 251 3 2 251 3 3 251 3 3 251 3 3 251 3 3 251 3 3 251 3 3 251 3 3 251 3 3 251 3 3 251 3 3 251 3 3 251 3 3 251 3 3 251 3 2 251 2 2 252 2 2 252 2 2 252 2 2 252 2 2 252 2 2 252 2 2 252 2 2 252 2 2 252 3 2 251 3 3 251 3 3 251 3 3 251 3 3 251 4 3 250 4 4 250 4 4 250 4 4 250 4 4 250 4 4 250 4 4 250 4 4 250 4 4 250 4 4 250 4 4 250 4 4 250 5 4 249 5 4 249 5 5 249 5 5 249 5 5 249 6 5 248 6 5 248 6 5 248 6 6 248 6 6 248 6 5 248 5 5 249 5 5 249 5 4 249 4 4 250 4 3 250 3 3 251 3 3 251 3 2 251 2 2 252 2 2 252 2 2 252 3 3 251 3 3 251 3 3 251 4 3 250 4 4 250 4 4 250 4 4 250 4 4 250 4 4 250 4 4 250 3 3 251 3 3 251 3 3 251 2 2 252 2 2 252 2 2 252 2 2 252 2 2 252 3 3 251 3 3 251 3 3 251 4 4 250 4 4 250 4 4 250 4 4 250 4 4 250 4 4 250 4 3 250 3 3 251 3 3 251 3 3 251 2 2 252 2 2 252 2 2 252 3 2 251 3 3 251 3 3 251 4 3 250 4 4 250 5 4 249 5 5 249 5 5 249 6 5 248 6 6 248 6 6 248 6 5 248 6 5 248 6 5 248 5 5 249 5 5 249 5 5 249 5 4 249 5 4 249 4 4 250 4 4 250 4 4 250 4 4 250 4 4 250 4 4 250 4 4 250 4 4 250 4 4 250 4 4 250 4 4 250 4 3 250 3 3 251 3 3 251 3 3 251 3 3 251 3 2 251 2 2 252 2 2 252 2 2 252 2 2 252 2 2 252 2 2 252 2 2 252 2 2 252 2 2 252 3 2 251 3 3 251 3 3 251 3 3 251 3 3 251 3 3 251 3 3 251 3 3 251 3 3 251 3 3 251 3 3 251 3 3 251 3 3 251 3 3 251 3 2 251 3 2 251 2 2 252 2 2 252 2 2 252 2 2 252 2 2 252 2 2 252 2 2 252 2 2 252 2 2 252 2 2 252 3 2 251 
3 2 251 3 2 251 2 2 252 2 2 252 2 2 252 2 2 252 2 2 252 2 2 252 2 2 252 2 2 252 2 2 252 2 2 252 2 2 252 3 2 251 3 2 251 3 3 251 3 3 251 3 3 251 3 3 251 3 3 251 3 3 251 3 3 251 3 3 251 3 3 251 3 3 251 3 3 251 3 3 251 3 2 251 3 2 251 2 2 252 2 2 252 2 2 252 2 2 252 2 2 252 2 2 252 2 2 252 2 2 252 3 2 251 3 3 251 3 3 251 3 3 251 3 3 251 4 3 250 4 4 250 4 4 250 4 4 250 4 4 250 4 4 250 4 4 250 4 4 250 4 4 250 4 4 250 4 4 250 4 4 250 4 4 250 4 4 250 4 4 250 4 4 250 5 4 249 5 5 249 5 5 249 5 5 249 5 5 249 5 5 249 5 5 249 5 4 249 4 4 250 4 4 250 4 3 250 3 3 251 3 3 251 3 2 251 2 2 252 2 2 252 3 2 251 3 3 251 3 3 251 3 3 251 4 3 250 4 4 250 4 4 250 4 4 250 4 4 250 4 4 250 4 3 250 3 3 251 3 3 251 3 2 251 2 2 252 2 2 252 2 2 252 2 2 252 2 2 252 3 2 251 3 3 251 3 3 251 4 3 250 4 4 250 4 4 250 4 4 250 4 4 250 4 4 250 4 3 250 3 3 251 3 3 251 3 3 251 3 2 251 2 2 252 2 2 252 3 2 251 3 3 251 3 3 251 4 3 250 4 4 250 4 4 250 5 4 249 5 5 249 5 5 249 5 5 249 5 5 249 5 5 249 5 5 249 5 4 249 4 4 250 4 4 250 4 4 250 4 4 250 4 4 250 4 4 250 4 4 250 4 4 250 4 4 250 4 4 250 4 4 250 4 4 250 4 4 250 4 4 250 4 4 250 4 3 250 3 3 251 3 3 251 3 3 251 3 3 251 3 2 251 2 2 252 2 2 252 2 2 252 2 2 252 2 2 252 2 2 252 2 2 252 2 2 252 3 2 251 3 2 251 3 3 251 3 3 251 3 3 251 3 3 251 3 3 251 3 3 251 3 3 251 3 3 251 3 3 251 3 3 251 3 3 251 3 3 251 3 2 251 3 2 251 2 2 252 2 2 252 2 2 252 2 2 252 2 2 252 2 2 252 2 2 252 2 2 252 2 2 252 2 2 252 2 2 252 3 2 251 3 2 251 
3 2 251 3 2 251 3 2 251 2 2 252 2 2 252 2 2 252 2 2 252 2 2 252 2 2 252 2 2 252 2 2 252 2 2 252 2 2 252 2 2 252 2 2 252 3 2 251 3 2 251 3 3 251 3 3 251 3 3 251 3 3 251 3 3 251 3 3 251 3 3 251 3 3 251 3 3 251 3 3 251 3 3 251 3 3 251 3 2 251 3 2 251 2 2 252 2 2 252 2 2 252 2 2 252 2 2 252 2 2 252 2 2 252 3 2 251 3 2 251 3 3 251 3 3 251 3 3 251 3 3 251 4 3 250 4 3 250 4 3 250 4 3 250 4 3 250 4 3 250 4 3 250 3 3 251 3 3 251 3 3 251 3 3 251 3 3 251 4 3 250 4 3 250 4 4 250 4 4 250 4 4 250 4 4 250 4 4 250 4 4 250 4 4 250 4 4 250 4 4 250 4 4 250 3 3 251 3 3 251 3 3 251 3 2 251 3 2 251 2 2 252 3 2 251 3 2 251 3 3 251 3 3 251 3 3 251 4 3 250 4 3 250 4 3 250 4 3 250 4 3 250 3 3 251 3 3 251 3 3 251 3 2 251 2 2 252 2 2 252 2 2 252 2 2 252 2 2 252 3 2 251 3 3 251 3 3 251 3 3 251 4 3 250 4 3 250 4 3 250 4 3 250 4 3 250 3 3 251 3 3 251 3 3 251 3 2 251 3 2 251 2 2 252 3 2 251 3 2 251 3 3 251 3 3 251 3 3 251 4 4 250 4 4 250 4 4 250 4 4 250 4 4 250 4 4 250 4 4 250 4 4 250 4 4 250 4 4 250 4 3 250 4 3 250 3 3 251 3 3 251 3 3 251 3 3 251 3 3 251 4 3 250 4 3 250 4 3 250 4 3 250 4 3 250 4 3 250 4 3 250 3 3 251 3 3 251 3 3 251 3 3 251 3 2 251 3 2 251 2 2 252 2 2 252 2 2 252 2 2 252 2 2 252 2 2 252 2 2 252 3 2 251 3 2 251 3 3 251 3 3 251 3 3 251 3 3 251 3 3 251 3 3 251 3 3 251 3 3 251 3 3 251 3 3 251 3 3 251 3 3 251 3 2 251 3 2 251 2 2 252 2 2 252 2 2 252 2 2 252 2 2 252 2 2 252 2 2 252 2 2 252 2 2 252 2 2 252 2 2 252 2 2 252 3 2 251 3 2 251 3 2 251 
3 2 251 3 2 251 3 2 251 3 2 251 3 2 251 2 2 252 2 2 252 2 2 252 2 2 252 2 2 252 2 2 252 2 2 252 2 2 252 2 2 252 2 2 252 2 2 252 3 2 251 3 2 251 3 2 251 3 3 251 3 3 251 3 3 251 3 3 251 3 3 251 3 3 251 3 3 251 3 3 251 3 3 251 3 3 251 3 3 251 3 3 251 3 2 251 3 2 251 2 2 252 2 2 252 2 2 252 2 2 252 2 2 252 2 2 252 3 2 251 3 2 251 3 3 251 3 3 251 3 3 251 3 3 251 3 3 251 3 3 251 3 3 251 3 3 251 3 3 251 3 3 251 3 3 251 3 3 251 3 3 251 3 3 251 3 3 251 3 3 251 3 3 251 3 3 251 3 3 251 4 3 250 4 3 250 4 4 250 4 4 250 4 4 250 4 4 250 4 4 250 4 3 250 3 3 251 3 3 251 3 3 251 3 3 251 3 2 251 3 2 251 3 2 251 3 2 251 3 3 251 3 3 251 3 3 251 3 3 251 3 3 251 3 3 251 3 3 251 3 3 251 3 3 251 3 3 251 3 3 251 3 2 251 2 2 252 2 2 252 2 2 252 2 2 252 2 2 252 3 2 251 3 3 251 3 3 251 3 3 251 3 3 251 3 3 251 3 3 251 3 3 251 3 3 251 3 3 251 3 3 251 3 3 251 3 2 251 3 2 251 3 2 251 3 2 251 3 3 251 3 3 251 3 3 251 3 3 251 4 3 250 4 4 250 4 4 250 4 4 250 4 4 250 4 4 250 4 3 250 4 3 250 3 3 251 3 3 251 3 3 251 3 3 251 3 3 251 3 3 251 3 3 251 3 3 251 3 3 251 3 3 251 3 3 251 3 3 251 3 3 251 3 3 251 3 3 251 3 3 251 3 3 251 3 3 251 3 3 251 3 2 251 3 2 251 2 2 252 2 2 252 2 2 252 2 2 252 2 2 252 2 2 252 3 2 251 3 2 251 3 3 251 3 3 251 3 3 251 3 3 251 3 3 251 3 3 251 3 3 251 3 3 251 3 3 251 3 3 251 3 3 251 3 3 251 3 2 251 3 2 251 3 2 251 2 2 252 2 2 252 2 2 252 2 2 252 2 2 252 2 2 252 2 2 252 2 2 252 2 2 252 2 2 252 2 2 252 3 2 251 3 2 251 3 2 251 3 2 251 3 2 251 
3 2 251 3 2 251 3 2 251 3 2 251 3 2 251 3 2 251 3 2 251 2 2 252 2 2 252 2 2 252 2 2 252 2 2 252 2 2 252 2 2 252 2 2 252 2 2 252 2 2 252 2 2 252 3 2 251 3 2 251 3 3 251 3 3 251 3 3 251 3 3 251 3 3 251 3 3 251 3 3 251 3 3 251 3 3 251 3 3 251 3 3 251 3 3 251 3 3 251 3 3 251 3 2 251 3 2 251 2 2 252 2 2 252 2 2 252 2 2 252 3 2 251 3 2 251 3 3 251 3 3 251 3 3 251 3 3 251 3 3 251 3 3 251 3 3 251 3 3 251 3 3 251 3 2 251 3 2 251 2 2 252 2 2 252 2 2 252 2 2 252 3 2 251 3 2 251 3 3 251 3 3 251 3 3 251 3 3 251 4 3 250 4 3 250 4 3 250 4 3 250 3 3 251 3 3 251 3 3 251 3 3 251 3 3 251 3 2 251 3 2 251 3 2 251 3 2 251 3 2 251 3 3 251 3 3 251 3 3 251 3 3 251 3 3 251 3 3 251 3 3 251 3 3 251 3 3 251 3 2 251 3 2 251 2 2 252 2 2 252 2 2 252 2 2 252 2 2 252 3 2 251 3 2 251 3 3 251 3 3 251 3 3 251 3 3 251 3 3 251 3 3 251 3 3 251 3 3 251 3 3 251 3 2 251 3 2 251 3 2 251 3 2 251 3 2 251 3 3 251 3 3 251 3 3 251 3 3 251 3 3 251 4 3 250 4 3 250 4 3 250 4 3 250 3 3 251 3 3 251 3 3 251 3 3 251 3 2 251 3 2 251 2 2 252 2 2 252 2 2 252 2 2 252 3 2 251 3 2 251 3 3 251 3 3 251 3 3 251 3 3 251 3 3 251 3 3 251 3 3 251 3 3 251 3 3 251 3 2 251 3 2 251 2 2 252 2 2 252 2 2 252 2 2 252 3 2 251 3 2 251 3 3 251 3 3 251 3 3 251 3 3 251 3 3 251 3 3 251 3 3 251 3 3 251 3 3 251 3 3 251 3 3 251 3 3 251 3 3 251 3 3 251 3 2 251 3 2 251 2 2 252 2 2 252 2 2 252 2 2 252 2 2 252 2 2 252 2 2 252 2 2 252 2 2 252 2 2 252 2 2 252 3 2 251 3 2 251 3 2 251 3 2 251 3 2 251 3 2 251 3 2 251 
3 2 251 3 2 251 3 2 251 3 2 251 3 2 251 3 2 251 3 2 251 3 2 251 3 2 251 2 2 252 2 2 252 2 2 252 2 2 252 2 2 252 2 2 252 2 2 252 2 2 252 2 2 252 2 2 252 3 2 251 3 2 251 3 3 251 3 3 251 3 3 251 3 3 251 3 3 251 3 3 251 3 3 251 3 3 251 3 3 251 3 3 251 3 3 251 3 3 251 3 3 251 3 3 251 3 3 251 3 2 251 3 2 251 3 2 251 2 2 252 3 2 251 3 2 251 3 2 251 3 2 251 3 3 251 3 3 251 3 3 251 3 3 251 3 3 251 3 2 251 3 2 251 2 2 252 2 2 252 2 2 252 2 2 252 2 2 252 2 2 252 2 2 252 2 2 252 3 2 251 3 3 251 3 3 251 3 3 251 3 3 251 3 3 251 3 3 251 3 3 251 3 3 251 3 3 251 3 3 251 3 3 251 3 3 251 3 2 251 3 2 251 2 2 252 2 2 252 3 2 251 3 2 251 3 3 251 3 3 251 3 3 251 3 3 251 3 3 251 3 3 251 3 3 251 3 3 251 3 2 251 2 2 252 2 2 252 2 2 252 2 2 252 2 2 252 2 2 252 2 2 252 3 2 251 3 3 251 3 3 251 3 3 251 3 3 251 3 3 251 3 3 251 3 3 251 3 3 251 3 2 251 3 2 251 2 2 252 2 2 252 3 2 251 3 2 251 3 3 251 3 3 251 3 3 251 3 3 251 3 3 251 3 3 251 3 3 251 3 3 251 3 3 251 3 3 251 3 3 251 3 3 251 3 2 251 2 2 252 2 2 252 2 2 252 2 2 252 2 2 252 2 2 252 2 2 252 2 2 252 3 2 251 3 2 251 3 3 251 3 3 251 3 3 251 3 3 251 3 3 251 3 2 251 3 2 251 3 2 251 3 2 251 2 2 252 3 2 251 3 2 251 3 2 251 3 3 251 3 3 251 3 3 251 3 3 251 3 3 251 3 3 251 3 3 251 3 3 251 3 3 251 3 3 251 3 3 251 3 3 251 3 3 251 3 3 251 3 3 251 3 2 251 3 2 251 2 2 252 2 2 252 2 2 252 2 2 252 2 2 252 2 2 252 2 2 252 2 2 252 2 2 252 2 2 252 3 2 251 3 2 251 3 2 251 3 2 251 3 2 251 3 2 251 3 2 251 3 2 251 3 2 251 
3 2 251 3 2 251 3 2 251 3 2 251 3 2 251 3 2 251 3 2 251 3 2 251 3 2 251 3 2 251 3 2 251 2 2 252 2 2 252 2 2 252 2 2 252 2 2 252 2 2 252 2 2 252 2 2 252 2 2 252 3 2 251 3 2 251 3 3 251 3 3 251 3 3 251 3 3 251 3 3 251 3 3 251 3 3 251 3 3 251 3 3 251 3 3 251 3 3 251 3 3 251 3 3 251 3 3 251 3 3 251 3 3 251 3 2 251 3 2 251 3 2 251 3 2 251 3 2 251 3 2 251 3 2 251 3 2 251 3 2 251 3 2 251 3 2 251 2 2 252 2 2 252 2 2 252 2 2 252 2 2 252 2 2 252 2 2 252 2 2 252 2 2 252 2 2 252 3 2 251 3 3 251 3 3 251 3 3 251 3 3 251 3 3 251 3 3 251 3 3 251 3 3 251 3 3 251 3 3 251 3 3 251 3 3 251 3 2 251 2 2 252 2 2 252 2 2 252 2 2 252 2 2 252 3 2 251 3 2 251 3 3 251 3 3 251 3 3 251 3 3 251 3 3 251 3 2 251 3 2 251 2 2 252 2 2 252 2 2 252 2 2 252 2 2 252 2 2 252 2 2 252 3 2 251 3 2 251 3 3 251 3 3 251 3 3 251 3 3 251 3 3 251 3 2 251 3 2 251 2 2 252 2 2 252 2 2 252 2 2 252 2 2 252 3 2 251 3 3 251 3 3 251 3 3 251 3 3 251 3 3 251 3 3 251 3 3 251 3 3 251 3 3 251 3 3 251 3 3 251 3 3 251 3 2 251 2 2 252 2 2 252 2 2 252 2 2 252 2 2 252 2 2 252 2 2 252 2 2 252 2 2 252 2 2 252 3 2 251 3 2 251 3 2 251 3 2 251 3 2 251 3 2 251 3 2 251 3 2 251 3 2 251 3 2 251 3 2 251 3 3 251 3 3 251 3 3 251 3 3 251 3 3 251 3 3 251 3 3 251 3 3 251 3 3 251 3 3 251 3 3 251 3 3 251 3 3 251 3 3 251 3 3 251 3 3 251 3 2 251 3 2 251 2 2 252 2 2 252 2 2 252 2 2 252 2 2 252 2 2 252 2 2 252 2 2 252 2 2 252 3 2 251 3 2 251 3 2 251 3 2 251 3 2 251 3 2 251 3 2 251 3 2 251 3 2 251 3 2 251 3 2 251 
2 2 252 3 2 251 3 2 251 3 2 251 3 2 251 3 3 251 3 3 251 3 3 251 3 3 251 3 2 251 3 2 251 3 2 251 3 2 251 2 2 252 2 2 252 2 2 252 2 2 252 2 2 252 2 2 252 2 2 252 2 2 252 3 2 251 3 2 251 3 3 251 3 3 251 3 3 251 3 3 251 3 3 251 3 3 251 4 3 250 4 3 250 4 3 250 4 3 250 3 3 251 3 3 251 3 3 251 3 3 251 3 3 251 3 3 251 3 3 251 3 2 251 3 2 251 3 2 251 3 2 251 3 2 251 3 2 251 3 2 251 3 2 251 2 2 252 2 2 252 2 2 252 2 2 252 2 2 252 2 2 252 2 2 252 2 2 252 2 2 252 2 2 252 3 2 251 3 2 251 3 3 251 3 3 251 3 3 251 3 3 251 3 3 251 3 3 251 3 3 251 3 3 251 3 3 251 3 3 251 3 3 251 3 3 251 3 2 251 2 2 252 2 2 252 2 2 252 2 2 252 2 2 252 2 2 252 3 2 251 3 2 251 3 3 251 3 3 251 3 3 251 3 2 251 3 2 251 3 2 251 2 2 252 2 2 252 2 2 252 2 2 252 2 2 252 2 2 252 2 2 252 3 2 251 3 2 251 3 2 251 3 3 251 3 3 251 3 3 251 3 2 251 3 2 251 2 2 252 2 2 252 2 2 252 2 2 252 2 2 252 2 2 252 3 2 251 3 3 251 3 3 251 3 3 251 3 3 251 3 3 251 3 3 251 3 3 251 3 3 251 3 3 251 3 3 251 3 3 251 3 3 251 3 2 251 3 2 251 2 2 252 2 2 252 2 2 252 2 2 252 2 2 252 2 2 252 2 2 252 2 2 252 2 2 252 2 2 252 3 2 251 3 2 251 3 2 251 3 2 251 3 2 251 3 2 251 3 2 251 3 2 251 3 3 251 3 3 251 3 3 251 3 3 251 3 3 251 3 3 251 3 3 251 4 3 250 4 3 250 4 3 250 4 3 250 3 3 251 3 3 251 3 3 251 3 3 251 3 3 251 3 3 251 3 2 251 3 2 251 2 2 252 2 2 252 2 2 252 2 2 252 2 2 252 2 2 252 2 2 252 2 2 252 3 2 251 3 2 251 3 2 251 3 2 251 3 3 251 3 3 251 3 3 251 3 3 251 3 2 251 3 2 251 3 2 251 3 2 251 2 2 252 
2 2 252 3 2 251 3 2 251 3 2 251 3 3 251 3 3 251 3 3 251 3 3 251 3 3 251 3 3 251 3 3 251 3 2 251 3 2 251 3 2 251 2 2 252 2 2 252 2 2 252 2 2 252 2 2 252 2 2 252 2 2 252 2 2 252 3 2 251 3 2 251 3 3 251 3 3 251 3 3 251 3 3 251 3 3 251 4 3 250 4 3 250 4 3 250 4 3 250 4 3 250 4 3 250 3 3 251 3 3 251 3 3 251 3 3 251 3 3 251 3 3 251 3 3 251 3 2 251 3 2 251 3 2 251 3 2 251 3 2 251 3 2 251 3 2 251 3 2 251 2 2 252 2 2 252 2 2 252 2 2 252 2 2 252 3 2 251 3 2 251 3 3 251 3 3 251 3 3 251 3 3 251 3 3 251 3 3 251 4 3 250 4 3 250 4 3 250 4 3 250 3 3 251 3 3 251 3 3 251 3 3 251 3 2 251 3 2 251 2 2 252 2 2 252 2 2 252 2 2 252 2 2 252 2 2 252 3 2 251 3 2 251 3 2 251 3 3 251 3 3 251 3 2 251 3 2 251 3 2 251 2 2 252 2 2 252 2 2 252 2 2 252 2 2 252 2 2 252 2 2 252 3 2 251 3 2 251 3 2 251 3 3 251 3 3 251 3 2 251 3 2 251 3 2 251 2 2 252 2 2 252 2 2 252 2 2 252 2 2 252 2 2 252 3 2 251 3 2 251 3 3 251 3 3 251 3 3 251 3 3 251 4 3 250 4 3 250 4 3 250 4 3 250 3 3 251 3 3 251 3 3 251 3 3 251 3 3 251 3 3 251 3 2 251 3 2 251 2 2 252 2 2 252 2 2 252 2 2 252 2 2 252 3 2 251 3 2 251 3 2 251 3 2 251 3 2 251 3 2 251 3 2 251 3 2 251 3 3 251 3 3 251 3 3 251 3 3 251 3 3 251 3 3 251 3 3 251 4 3 250 4 3 250 4 3 250 4 3 250 4 3 250 4 3 250 3 3 251 3 3 251 3 3 251 3 3 251 3 3 251 3 2 251 3 2 251 2 2 252 2 2 252 2 2 252 2 2 252 2 2 252 2 2 252 2 2 252 2 2 252 3 2 251 3 2 251 3 2 251 3 3 251 3 3 251 3 3 251 3 3 251 3 3 251 3 3 251 3 3 251 3 2 251 3 2 251 3 2 251 2 2 252 
2 2 252 2 2 252 3 2 251 3 2 251 3 2 251 3 3 251 3 3 251 3 3 251 3 3 251 3 3 251 3 3 251 3 3 251 3 3 251 3 2 251 3 2 251 2 2 252 2 2 252 2 2 252 2 2 252 2 2 252 2 2 252 2 2 252 2 2 252 3 2 251 3 2 251 3 3 251 3 3 251 3 3 251 3 3 251 3 3 251 4 3 250 4 3 250 4 3 250 4 3 250 4 3 250 4 3 250 3 3 251 3 3 251 3 3 251 3 3 251 3 3 251 3 3 251 3 3 251 3 3 251 3 2 251 3 2 251 3 2 251 3 2 251 3 2 251 3 2 251 3 2 251 3 2 251 3 2 251 3 3 251 3 3 251 3 3 251 3 3 251 3 3 251 3 3 251 3 3 251 4 3 250 4 3 250 4 4 250 4 4 250 4 4 250 4 3 250 4 3 250 3 3 251 3 3 251 3 3 251 3 3 251 3 2 251 2 2 252 2 2 252 2 2 252 2 2 252 2 2 252 2 2 252 2 2 252 3 2 251 3 3 251 3 3 251 3 3 251 3 3 251 3 3 251 3 2 251 3 2 251 2 2 252 2 2 252 2 2 252 2 2 252 2 2 252 2 2 252 2 2 252 3 2 251 3 2 251 3 3 251 3 3 251 3 3 251 3 3 251 3 3 251 3 2 251 2 2 252 2 2 252 2 2 252 2 2 252 2 2 252 2 2 252 2 2 252 3 2 251 3 3 251 3 3 251 3 3 251 3 3 251 4 3 250 4 3 250 4 4 250 4 4 250 4 4 250 4 3 250 4 3 250 3 3 251 3 3 251 3 3 251 3 3 251 3 3 251 3 3 251 3 3 251 3 2 251 3 2 251 3 2 251 3 2 251 3 2 251 3 2 251 3 2 251 3 2 251 3 2 251 3 3 251 3 3 251 3 3 251 3 3 251 3 3 251 3 3 251 3 3 251 3 3 251 4 3 250 4 3 250 4 3 250 4 3 250 4 3 250 4 3 250 3 3 251 3 3 251 3 3 251 3 3 251 3 3 251 3 2 251 3 2 251 2 2 252 2 2 252 2 2 252 2 2 252 2 2 252 2 2 252 2 2 252 2 2 252 3 2 251 3 2 251 3 3 251 3 3 251 3 3 251 3 3 251 3 3 251 3 3 251 3 3 251 3 3 251 3 2 251 3 2 251 3 2 251 2 2 252 2 2 252 
2 2 252 2 2 252 3 2 251 3 2 251 3 2 251 3 3 251 3 3 251 3 3 251 3 3 251 3 3 251 3 3 251 3 3 251 3 3 251 3 3 251 3 2 251 3 2 251 2 2 252 2 2 252 2 2 252 2 2 252 2 2 252 2 2 252 2 2 252 2 2 252 3 2 251 3 3 251 3 3 251 3 3 251 3 3 251 3 3 251 3 3 251 4 3 250 4 3 250 4 3 250 4 3 250 4 3 250 4 3 250 3 3 251 3 3 251 3 3 251 3 3 251 3 3 251 3 3 251 3 3 251 3 3 251 3 3 251 3 3 251 3 3 251 3 3 251 3 3 251 3 3 251 3 3 251 3 3 251 3 3 251 3 3 251 3 3 251 3 3 251 4 3 250 4 3 250 4 4 250 4 4 250 4 4 250 4 4 250 4 4 250 4 4 250 4 4 250 4 3 250 3 3 251 3 3 251 3 3 251 3 3 251 3 2 251 2 2 252 2 2 252 2 2 252 2 2 252 2 2 252 2 2 252 3 2 251 3 3 251 3 3 251 3 3 251 3 3 251 3 3 251 3 3 251 3 3 251 3 2 251 2 2 252 2 2 252 2 2 252 2 2 252 2 2 252 2 2 252 2 2 252 3 2 251 3 3 251 3 3 251 3 3 251 3 3 251 3 3 251 3 3 251 3 3 251 3 2 251 2 2 252 2 2 252 2 2 252 2 2 252 2 2 252 2 2 252 3 2 251 3 3 251 3 3 251 3 3 251 3 3 251 4 3 250 4 4 250 4 4 250 4 4 250 4 4 250 4 4 250 4 4 250 4 4 250 4 3 250 4 3 250 3 3 251 3 3 251 3 3 251 3 3 251 3 3 251 3 3 251 3 3 251 3 3 251 3 3 251 3 3 251 3 3 251 3 3 251 3 3 251 3 3 251 3 3 251 3 3 251 3 3 251 3 3 251 3 3 251 3 3 251 4 3 250 4 3 250 4 3 250 4 3 250 4 3 250 4 3 250 3 3 251 3 3 251 3 3 251 3 3 251 3 3 251 3 3 251 3 2 251 2 2 252 2 2 252 2 2 252 2 2 252 2 2 252 2 2 252 2 2 252 2 2 252 3 2 251 3 2 251 3 3 251 3 3 251 3 3 251 3 3 251 3 3 251 3 3 251 3 3 251 3 3 251 3 3 251 3 2 251 3 2 251 3 2 251 2 2 252 2 2 252 
2 2 252 2 2 252 2 2 252 3 2 251 3 2 251 3 3 251 3 3 251 3 3 251 3 3 251 3 3 251 3 3 251 3 3 251 3 3 251 3 3 251 3 3 251 3 2 251 3 2 251 2 2 252 2 2 252 2 2 252 2 2 252 2 2 252 2 2 252 2 2 252 2 2 252 3 2 251 3 3 251 3 3 251 3 3 251 3 3 251 3 3 251 3 3 251 4 3 250 4 3 250 4 3 250 4 3 250 4 3 250 3 3 251 3 3 251 3 3 251 3 3 251 3 3 251 3 3 251 3 3 251 3 3 251 3 3 251 3 3 251 3 3 251 3 3 251 3 3 251 3 3 251 3 3 251 3 3 251 3 3 251 3 3 251 4 3 250 4 4 250 4 4 250 4 4 250 4 4 250 4 4 250 4 4 250 4 4 250 4 4 250 4 4 250 4 4 250 4 4 250 4 3 250 3 3 251 3 3 251 3 3 251 2 2 252 2 2 252 2 2 252 2 2 252 2 2 252 2 2 252 3 2 251 3 3 251 3 3 251 3 3 251 3 3 251 3 3 251 3 3 251 3 3 251 3 3 251 3 2 251 3 2 251 2 2 252 2 2 252 2 2 252 2 2 252 2 2 252 3 2 251 3 2 251 3 3 251 3 3 251 3 3 251 3 3 251 3 3 251 3 3 251 3 3 251 3 3 251 3 2 251 2 2 252 2 2 252 2 2 252 2 2 252 2 2 252 2 2 252 3 3 251 3 3 251 3 3 251 4 3 250 4 4 250 4 4 250 4 4 250 4 4 250 4 4 250 4 4 250 4 4 250 4 4 250 4 4 250 4 4 250 4 4 250 4 3 250 3 3 251 3 3 251 3 3 251 3 3 251 3 3 251 3 3 251 3 3 251 3 3 251 3 3 251 3 3 251 3 3 251 3 3 251 3 3 251 3 3 251 3 3 251 3 3 251 3 3 251 3 3 251 4 3 250 4 3 250 4 3 250 4 3 250 4 3 250 3 3 251 3 3 251 3 3 251 3 3 251 3 3 251 3 3 251 3 2 251 2 2 252 2 2 252 2 2 252 2 2 252 2 2 252 2 2 252 2 2 252 2 2 252 3 2 251 3 2 251 3 3 251 3 3 251 3 3 251 3 3 251 3 3 251 3 3 251 3 3 251 3 3 251 3 3 251 3 3 251 3 2 251 3 2 251 2 2 252 2 2 252 2 2 252 
2 2 252 2 2 252 2 2 252 3 2 251 3 2 251 3 2 251 3 3 251 3 3 251 3 3 251 3 3 251 3 3 251 3 3 251 3 3 251 3 3 251 3 3 251 3 3 251 3 2 251 3 2 251 2 2 252 2 2 252 2 2 252 2 2 252 2 2 252 2 2 252 2 2 252 2 2 252 3 2 251 3 2 251 3 3 251 3 3 251 3 3 251 3 3 251 3 3 251 3 3 251 3 3 251 3 3 251 3 3 251 3 3 251 3 3 251 3 3 251 3 3 251 3 3 251 3 3 251 3 3 251 3 3 251 3 3 251 3 3 251 3 3 251 3 3 251 3 3 251 3 3 251 3 3 251 3 3 251 3 3 251 4 3 250 4 4 250 4 4 250 4 4 250 4 4 250 5 4 249 5 4 249 5 4 249 5 4 249 5 4 249 4 4 250 4 4 250 4 4 250 4 3 250 3 3 251 3 3 251 3 2 251 2 2 252 2 2 252 2 2 252 2 2 252 2 2 252 3 2 251 3 2 251 3 3 251 3 3 251 3 3 251 3 3 251 3 3 251 3 3 251 3 3 251 3 3 251 3 3 251 3 2 251 2 2 252 2 2 252 2 2 252 2 2 252 2 2 252 3 2 251 3 3 251 3 3 251 3 3 251 3 3 251 3 3 251 3 3 251 3 3 251 3 3 251 3 3 251 3 2 251 3 2 251 2 2 252 2 2 252 2 2 252 2 2 252 2 2 252 3 2 251 3 3 251 3 3 251 4 3 250 4 4 250 4 4 250 4 4 250 5 4 249 5 4 249 5 4 249 5 4 249 5 4 249 4 4 250 4 4 250 4 4 250 4 4 250 4 3 250 3 3 251 3 3 251 3 3 251 3 3 251 3 3 251 3 3 251 3 3 251 3 3 251 3 3 251 3 3 251 3 3 251 3 3 251 3 3 251 3 3 251 3 3 251 3 3 251 3 3 251 3 3 251 3 3 251 3 3 251 3 3 251 3 3 251 3 3 251 3 3 251 3 3 251 3 3 251 3 2 251 3 2 251 2 2 252 2 2 252 2 2 252 2 2 252 2 2 252 2 2 252 2 2 252 2 2 252 3 2 251 3 2 251 3 3 251 3 3 251 3 3 251 3 3 251 3 3 251 3 3 251 3 3 251 3 3 251 3 3 251 3 3 251 3 2 251 3 2 251 3 2 251 2 2 252 2 2 252 2 2 252 
2 2 252 2 2 252 2 2 252 2 2 252 3 2 251 3 2 251 3 2 251 3 3 251 3 3 251 3 3 251 3 3 251 3 3 251 3 3 251 3 3 251 3 3 251 3 3 251 3 2 251 3 2 251 3 2 251 2 2 252 2 2 252 2 2 252 2 2 252 2 2 252 2 2 252 2 2 252 2 2 252 3 2 251 3 2 251 3 3 251 3 3 251 3 3 251 3 3 251 3 3 251 3 3 251 3 3 251 3 3 251 3 3 251 3 3 251 3 3 251 3 3 251 3 3 251 3 3 251 3 3 251 3 3 251 3 3 251 3 3 251 3 3 251 3 3 251 3 3 251 3 3 251 3 3 251 3 3 251 4 3 250 4 4 250 4 4 250 4 4 250 4 4 250 5 4 249 5 4 249 5 4 249 5 4 249 5 4 249 5 4 249 4 4 250 4 4 250 4 4 250 4 3 250 3 3 251 3 3 251 3 2 251 2 2 252 2 2 252 2 2 252 2 2 252 2 2 252 3 2 251 3 3 251 3 3 251 3 3 251 3 3 251 3 3 251 3 3 251 3 3 251 3 3 251 3 3 251 3 3 251 3 2 251 2 2 252 2 2 252 2 2 252 2 2 252 2 2 252 3 2 251 3 3 251 3 3 251 3 3 251 3 3 251 3 3 251 3 3 251 3 3 251 3 3 251 3 3 251 3 3 251 3 2 251 2 2 252 2 2 252 2 2 252 2 2 252 2 2 252 3 2 251 3 3 251 3 3 251 4 3 250 4 4 250 4 4 250 4 4 250 5 4 249 5 4 249 5 4 249 5 4 249 5 4 249 5 4 249 4 4 250 4 4 250 4 4 250 4 4 250 4 3 250 3 3 251 3 3 251 3 3 251 3 3 251 3 3 251 3 3 251 3 3 251 3 3 251 3 3 251 3 3 251 3 3 251 3 3 251 3 3 251 3 3 251 3 3 251 3 3 251 3 3 251 3 3 251 3 3 251 3 3 251 3 3 251 3 3 251 3 3 251 3 3 251 3 2 251 3 2 251 2 2 252 2 2 252 2 2 252 2 2 252 2 2 252 2 2 252 2 2 252 2 2 252 3 2 251 3 2 251 3 2 251 3 3 251 3 3 251 3 3 251 3 3 251 3 3 251 3 3 251 3 3 251 3 3 251 3 3 251 3 2 251 3 2 251 3 2 251 2 2 252 2 2 252 2 2 252 2 2 252 
2 2 252 2 2 252 2 2 252 2 2 252 2 2 252 3 2 251 3 2 251 3 2 251 3 3 251 3 3 251 3 3 251 3 3 251 3 3 251 3 3 251 3 3 251 3 3 251 3 3 251 3 2 251 3 2 251 3 2 251 2 2 252 2 2 252 2 2 252 2 2 252 2 2 252 2 2 252 2 2 252 2 2 252 2 2 252 3 2 251 3 2 251 3 3 251 3 3 251 3 3 251 3 3 251 3 3 251 3 3 251 3 3 251 3 3 251 3 3 251 3 3 251 3 3 251 3 3 251 3 3 251 3 3 251 3 3 251 3 3 251 3 3 251 3 3 251 3 3 251 3 3 251 3 3 251 3 3 251 4 3 250 4 4 250 4 4 250 4 4 250 4 4 250 5 4 249 5 4 249 5 4 249 5 4 249 5 4 249 5 4 249 4 4 250 4 4 250 4 4 250 3 3 251 3 3 251 3 3 251 3 2 251 2 2 252 2 2 252 2 2 252 2 2 252 2 2 252 3 3 251 3 3 251 3 3 251 3 3 251 3 3 251 4 3 250 4 3 250 3 3 251 3 3 251 3 3 251 3 3 251 3 2 251 2 2 252 2 2 252 2 2 252 2 2 252 2 2 252 3 2 251 3 3 251 3 3 251 3 3 251 3 3 251 4 3 250 4 3 250 3 3 251 3 3 251 3 3 251 3 3 251 3 3 251 2 2 252 2 2 252 2 2 252 2 2 252 2 2 252 3 2 251 3 3 251 3 3 251 3 3 251 4 4 250 4 4 250 4 4 250 5 4 249 5 4 249 5 4 249 5 4 249 5 4 249 5 4 249 4 4 250 4 4 250 4 4 250 4 4 250 4 3 250 3 3 251 3 3 251 3 3 251 3 3 251 3 3 251 3 3 251 3 3 251 3 3 251 3 3 251 3 3 251 3 3 251 3 3 251 3 3 251 3 3 251 3 3 251 3 3 251 3 3 251 3 3 251 3 3 251 3 3 251 3 3 251 3 3 251 3 2 251 3 2 251 2 2 252 2 2 252 2 2 252 2 2 252 2 2 252 2 2 252 2 2 252 2 2 252 2 2 252 3 2 251 3 2 251 3 2 251 3 3 251 3 3 251 3 3 251 3 3 251 3 3 251 3 3 251 3 3 251 3 3 251 3 3 251 3 2 251 3 2 251 3 2 251 2 2 252 2 2 252 2 2 252 2 2 252 2 2 252 
2 2 252 2 2 252 2 2 252 2 2 252 2 2 252 2 2 252 3 2 251 3 2 251 3 2 251 3 3 251 3 3 251 3 3 251 3 3 251 3 3 251 3 3 251 3 3 251 3 3 251 3 3 251 3 2 251 3 2 251 2 2 252 2 2 252 2 2 252 2 2 252 2 2 252 2 2 252 2 2 252 2 2 252 2 2 252 2 2 252 3 2 251 3 2 251 3 2 251 3 3 251 3 3 251 3 3 251 3 3 251 3 3 251 3 3 251 3 3 251 3 3 251 3 3 251 3 3 251 3 3 251 3 3 251 3 3 251 3 3 251 3 3 251 3 3 251 3 3 251 3 3 251 3 3 251 3 3 251 3 3 251 4 3 250 4 4 250 4 4 250 4 4 250 4 4 250 5 4 249 5 4 249 5 4 249 5 4 249 4 4 250 4 4 250 4 4 250 4 3 250 3 3 251 3 3 251 3 3 251 3 2 251 2 2 252 2 2 252 2 2 252 2 2 252 3 2 251 3 3 251 3 3 251 3 3 251 3 3 251 4 3 250 4 3 250 4 3 250 3 3 251 3 3 251 3 3 251 3 3 251 3 2 251 2 2 252 2 2 252 2 2 252 2 2 252 2 2 252 3 2 251 3 3 251 3 3 251 3 3 251 3 3 251 4 3 250 4 3 250 4 3 250 3 3 251 3 3 251 3 3 251 3 3 251 3 2 251 2 2 252 2 2 252 2 2 252 2 2 252 3 2 251 3 3 251 3 3 251 3 3 251 4 3 250 4 4 250 4 4 250 4 4 250 5 4 249 5 4 249 5 4 249 5 4 249 4 4 250 4 4 250 4 4 250 4 4 250 4 3 250 3 3 251 3 3 251 3 3 251 3 3 251 3 3 251 3 3 251 3 3 251 3 3 251 3 3 251 3 3 251 3 3 251 3 3 251 3 3 251 3 3 251 3 3 251 3 3 251 3 3 251 3 3 251 3 3 251 3 3 251 3 3 251 3 2 251 3 2 251 3 2 251 2 2 252 2 2 252 2 2 252 2 2 252 2 2 252 2 2 252 2 2 252 2 2 252 2 2 252 2 2 252 3 2 251 3 2 251 3 3 251 3 3 251 3 3 251 3 3 251 3 3 251 3 3 251 3 3 251 3 3 251 3 3 251 3 2 251 3 2 251 3 2 251 2 2 252 2 2 252 2 2 252 2 2 252 2 2 252 2 2 252 
2 2 252 2 2 252 2 2 252 2 2 252 2 2 252 2 2 252 2 2 252 3 2 251 3 2 251 3 2 251 3 2 251 3 3 251 3 3 251 3 3 251 3 3 251 3 3 251 3 3 251 3 3 251 3 2 251 3 2 251 3 2 251 2 2 252 2 2 252 2 2 252 2 2 252 2 2 252 2 2 252 2 2 252 2 2 252 2 2 252 2 2 252 2 2 252 3 2 251 3 2 251 3 2 251 3 3 251 3 3 251 3 3 251 3 3 251 3 3 251 3 3 251 3 3 251 3 3 251 3 3 251 3 3 251 3 3 251 3 3 251 3 3 251 3 3 251 3 3 251 3 3 251 3 3 251 3 3 251 3 3 251 3 3 251 4 3 250 4 4 250 4 4 250 4 4 250 4 4 250 4 4 250 4 4 250 4 4 250 4 4 250 4 4 250 4 4 250 4 3 250 3 3 251 3 3 251 3 3 251 3 2 251 2 2 252 2 2 252 2 2 252 2 2 252 3 2 251 3 3 251 3 3 251 3 3 251 3 3 251 4 3 250 4 3 250 4 3 250 4 3 250 3 3 251 3 3 251 3 3 251 3 2 251 2 2 252 2 2 252 2 2 252 2 2 252 2 2 252 3 2 251 3 3 251 3 3 251 3 3 251 4 3 250 4 3 250 4 3 250 4 3 250 3 3 251 3 3 251 3 3 251 3 3 251 3 2 251 2 2 252 2 2 252 2 2 252 2 2 252 3 2 251 3 3 251 3 3 251 3 3 251 4 3 250 4 4 250 4 4 250 4 4 250 4 4 250 4 4 250 4 4 250 4 4 250 4 4 250 4 4 250 4 4 250 4 3 250 3 3 251 3 3 251 3 3 251 3 3 251 3 3 251 3 3 251 3 3 251 3 3 251 3 3 251 3 3 251 3 3 251 3 3 251 3 3 251 3 3 251 3 3 251 3 3 251 3 3 251 3 3 251 3 3 251 3 3 251 3 2 251 3 2 251 3 2 251 2 2 252 2 2 252 2 2 252 2 2 252 2 2 252 2 2 252 2 2 252 2 2 252 2 2 252 2 2 252 2 2 252 3 2 251 3 2 251 3 2 251 3 3 251 3 3 251 3 3 251 3 3 251 3 3 251 3 3 251 3 3 251 3 2 251 3 2 251 3 2 251 3 2 251 2 2 252 2 2 252 2 2 252 2 2 252 2 2 252 2 2 252 2 2 252 
2 2 252 2 2 252 2 2 252 2 2 252 2 2 252 2 2 252 2 2 252 2 2 252 2 2 252 3 2 251 3 2 251 3 2 251 3 2 251 3 3 251 3 3 251 3 3 251 3 3 251 3 3 251 3 3 251 3 2 251 3 2 251 3 2 251 3 2 251 2 2 252 2 2 252 2 2 252 2 2 252 2 2 252 2 2 252 2 2 252 2 2 252 2 2 252 2 2 252 2 2 252 2 2 252 3 2 251 3 2 251 3 2 251 3 3 251 3 3 251 3 3 251 3 3 251 3 3 251 3 3 251 3 3 251 3 3 251 3 3 251 3 3 251 3 3 251 3 3 251 3 3 251 3 3 251 3 3 251 3 3 251 3 3 251 3 3 251 4 3 250 4 3 250 4 4 250 4 4 250 4 4 250 4 4 250 4 4 250 4 4 250 4 4 250 4 4 250 4 3 250 3 3 251 3 3 251 3 3 251 3 2 251 2 2 252 2 2 252 2 2 252 3 2 251 3 2 251 3 3 251 3 3 251 3 3 251 3 3 251 4 3 250 4 3 250 4 3 250 3 3 251 3 3 251 3 3 251 3 3 251 3 2 251 2 2 252 2 2 252 2 2 252 2 2 252 2 2 252 3 2 251 3 3 251 3 3 251 3 3 251 3 3 251 4 3 250 4 3 250 4 3 250 3 3 251 3 3 251 3 3 251 3 3 251 3 2 251 3 2 251 2 2 252 2 2 252 2 2 252 3 2 251 3 3 251 3 3 251 3 3 251 4 3 250 4 4 250 4 4 250 4 4 250 4 4 250 4 4 250 4 4 250 4 4 250 4 4 250 4 3 250 4 3 250 3 3 251 3 3 251 3 3 251 3 3 251 3 3 251 3 3 251 3 3 251 3 3 251 3 3 251 3 3 251 3 3 251 3 3 251 3 3 251 3 3 251 3 3 251 3 3 251 3 3 251 3 3 251 3 2 251 3 2 251 3 2 251 2 2 252 2 2 252 2 2 252 2 2 252 2 2 252 2 2 252 2 2 252 2 2 252 2 2 252 2 2 252 2 2 252 2 2 252 3 2 251 3 2 251 3 2 251 3 2 251 3 3 251 3 3 251 3 3 251 3 3 251 3 3 251 3 3 251 3 2 251 3 2 251 3 2 251 3 2 251 2 2 252 2 2 252 2 2 252 2 2 252 2 2 252 2 2 252 2 2 252 2 2 252 2 2 252 
2 2 252 2 2 252 2 2 252 2 2 252 2 2 252 2 2 252 2 2 252 2 2 252 2 2 252 2 2 252 2 2 252 3 2 251 3 2 251 3 2 251 3 2 251 3 2 251 3 3 251 3 3 251 3 3 251 3 2 251 3 2 251 3 2 251 3 2 251 3 2 251 2 2 252 2 2 252 2 2 252 2 2 252 2 2 252 2 2 252 2 2 252 2 2 252 2 2 252 2 2 252 2 2 252 2 2 252 2 2 252 3 2 251 3 2 251 3 2 251 3 3 251 3 3 251 3 3 251 3 3 251 3 3 251 3 3 251 3 3 251 3 3 251 3 3 251 3 3 251 3 3 251 3 3 251 3 3 251 3 3 251 3 3 251 3 3 251 3 3 251 3 3 251 4 3 250 4 3 250 4 4 250 4 4 250 4 4 250 4 4 250 4 4 250 4 3 250 3 3 251 3 3 251 3 3 251 3 3 251 3 2 251 2 2 252 2 2 252 2 2 252 3 2 251 3 2 251 3 3 251 3 3 251 3 3 251 3 3 251 4 3 250 4 3 250 4 3 250 3 3 251 3 3 251 3 3 251 3 3 251 3 2 251 2 2 252 2 2 252 2 2 252 2 2 252 2 2 252 3 2 251 3 3 251 3 3 251 3 3 251 3 3 251 4 3 250 4 3 250 4 3 250 3 3 251 3 3 251 3 3 251 3 3 251 3 2 251 3 2 251 2 2 252 2 2 252 2 2 252 3 2 251 3 3 251 3 3 251 3 3 251 3 3 251 4 3 250 4 4 250 4 4 250 4 4 250 4 4 250 4 4 250 4 3 250 4 3 250 3 3 251 3 3 251 3 3 251 3 3 251 3 3 251 3 3 251 3 3 251 3 3 251 3 3 251 3 3 251 3 3 251 3 3 251 3 3 251 3 3 251 3 3 251 3 3 251 3 3 251 3 3 251 3 2 251 3 2 251 3 2 251 2 2 252 2 2 252 2 2 252 2 2 252 2 2 252 2 2 252 2 2 252 2 2 252 2 2 252 2 2 252 2 2 252 2 2 252 2 2 252 3 2 251 3 2 251 3 2 251 3 2 251 3 2 251 3 3 251 3 3 251 3 3 251 3 2 251 3 2 251 3 2 251 3 2 251 3 2 251 2 2 252 2 2 252 2 2 252 2 2 252 2 2 252 2 2 252 2 2 252 2 2 252 2 2 252 2 2 252 2 2 252 
2 2 252 2 2 252 2 2 252 2 2 252 2 2 252 2 2 252 2 2 252 2 2 252 2 2 252 2 2 252 2 2 252 2 2 252 3 2 251 3 2 251 3 2 251 3 2 251 3 2 251 3 2 251 3 3 251 3 3 251 3 2 251 3 2 251 3 2 251 3 2 251 3 2 251 3 2 251 2 2 252 2 2 252 2 2 252 2 2 252 2 2 252 2 2 252 2 2 252 2 2 252 2 2 252 2 2 252 2 2 252 2 2 252 3 2 251 3 2 251 3 2 251 3 3 251 3 3 251 3 3 251 3 3 251 3 3 251 3 3 251 3 3 251 3 2 251 3 2 251 3 2 251 3 2 251 3 2 251 3 2 251 3 2 251 3 3 251 3 3 251 3 3 251 3 3 251 3 3 251 3 3 251 4 3 250 4 3 250 4 3 250 4 3 250 3 3 251 3 3 251 3 3 251 3 3 251 3 3 251 3 2 251 3 2 251 2 2 252 2 2 252 3 2 251 3 2 251 3 3 251 3 3 251 3 3 251 3 3 251 3 3 251 3 3 251 3 3 251 3 3 251 3 3 251 3 3 251 3 3 251 3 2 251 2 2 252 2 2 252 2 2 252 2 2 252 2 2 252 3 2 251 3 3 251 3 3 251 3 3 251 3 3 251 3 3 251 3 3 251 3 3 251 3 3 251 3 3 251 3 3 251 3 3 251 3 2 251 3 2 251 2 2 252 2 2 252 3 2 251 3 2 251 3 3 251 3 3 251 3 3 251 3 3 251 3 3 251 4 3 250 4 3 250 4 3 250 4 3 250 3 3 251 3 3 251 3 3 251 3 3 251 3 3 251 3 3 251 3 2 251 3 2 251 3 2 251 3 2 251 3 2 251 3 2 251 3 2 251 3 3 251 3 3 251 3 3 251 3 3 251 3 3 251 3 3 251 3 3 251 3 2 251 3 2 251 3 2 251 2 2 252 2 2 252 2 2 252 2 2 252 2 2 252 2 2 252 2 2 252 2 2 252 2 2 252 2 2 252 2 2 252 2 2 252 3 2 251 3 2 251 3 2 251 3 2 251 3 2 251 3 2 251 3 3 251 3 3 251 3 2 251 3 2 251 3 2 251 3 2 251 3 2 251 3 2 251 2 2 252 2 2 252 2 2 252 2 2 252 2 2 252 2 2 252 2 2 252 2 2 252 2 2 252 2 2 252 2 2 252 2 2 252 
2 2 252 2 2 252 2 2 252 2 2 252 2 2 252 2 2 252 2 2 252 2 2 252 2 2 252 2 2 252 2 2 252 2 2 252 2 2 252 2 2 252 3 2 251 3 2 251 3 2 251 3 2 251 3 2 251 3 2 251 3 2 251 3 2 251 3 2 251 3 2 251 3 2 251 3 2 251 3 2 251 3 2 251 2 2 252 2 2 252 2 2 252 2 2 252 2 2 252 2 2 252 2 2 252 2 2 252 2 2 252 2 2 252 2 2 252 3 2 251 3 2 251 3 2 251 3 2 251 3 2 251 3 3 251 3 2 251 3 2 251 3 2 251 3 2 251 3 2 251 2 2 252 2 2 252 2 2 252 2 2 252 2 2 252 3 2 251 3 2 251 3 3 251 3 3 251 3 3 251 3 3 251 3 3 251 3 3 251 3 3 251 3 3 251 3 3 251 3 3 251 3 3 251 3 3 251 3 3 251 3 3 251 3 2 251 3 2 251 3 2 251 3 2 251 3 2 251 3 3 251 3 3 251 3 3 251 3 3 251 3 3 251 3 3 251 3 3 251 3 3 251 3 3 251 3 3 251 3 3 251 3 2 251 2 2 252 2 2 252 2 2 252 2 2 252 2 2 252 3 2 251 3 3 251 3 3 251 3 3 251 3 3 251 3 3 251 3 3 251 3 3 251 3 3 251 3 3 251 3 3 251 3 3 251 3 2 251 3 2 251 3 2 251 3 2 251 3 2 251 3 3 251 3 3 251 3 3 251 3 3 251 3 3 251 3 3 251 3 3 251 3 3 251 3 3 251 3 3 251 3 3 251 3 3 251 3 3 251 3 3 251 3 2 251 3 2 251 2 2 252 2 2 252 2 2 252 2 2 252 2 2 252 3 2 251 3 2 251 3 2 251 3 2 251 3 2 251 3 3 251 3 2 251 3 2 251 3 2 251 3 2 251 3 2 251 2 2 252 2 2 252 2 2 252 2 2 252 2 2 252 2 2 252 2 2 252 2 2 252 2 2 252 2 2 252 2 2 252 3 2 251 3 2 251 3 2 251 3 2 251 3 2 251 3 2 251 3 2 251 3 2 251 3 2 251 3 2 251 3 2 251 3 2 251 3 2 251 3 2 251 2 2 252 2 2 252 2 2 252 2 2 252 2 2 252 2 2 252 2 2 252 2 2 252 2 2 252 2 2 252 2 2 252 2 2 252 2 2 252 2 2 252 
2 2 252 2 2 252 2 2 252 2 2 252 2 2 252 2 2 252 2 2 252 2 2 252 2 2 252 2 2 252 2 2 252 2 2 252 2 2 252 2 2 252 2 2 252 2 2 252 3 2 251 3 2 251 3 2 251 3 2 251 3 2 251 3 3 251 3 3 251 3 3 251 3 3 251 3 2 251 3 2 251 3 2 251 3 2 251 3 2 251 3 2 251 2 2 252 2 2 252 2 2 252 2 2 252 2 2 252 2 2 252 2 2 252 2 2 252 2 2 252 3 2 251 3 2 251 3 2 251 3 2 251 3 2 251 3 2 251 3 2 251 3 2 251 3 2 251 2 2 252 2 2 252 2 2 252 2 2 252 2 2 252 2 2 252 2 2 252 2 2 252 3 2 251 3 3 251 3 3 251 3 3 251 3 3 251 3 3 251 3 3 251 3 3 251 3 3 251 3 3 251 3 3 251 3 3 251 3 3 251 3 3 251 3 2 251 3 2 251 3 2 251 3 2 251 3 2 251 3 3 251 3 3 251 3 3 251 3 3 251 3 3 251 3 3 251 3 3 251 3 3 251 3 3 251 3 3 251 3 2 251 2 2 252 2 2 252 2 2 252 2 2 252 2 2 252 2 2 252 2 2 252 3 2 251 3 3 251 3 3 251 3 3 251 3 3 251 3 3 251 3 3 251 3 3 251 3 3 251 3 3 251 3 3 251 3 2 251 3 2 251 3 2 251 3 2 251 3 2 251 3 3 251 3 3 251 3 3 251 3 3 251 3 3 251 3 3 251 3 3 251 3 3 251 3 3 251 3 3 251 3 3 251 3 3 251 3 3 251 3 2 251 2 2 252 2 2 252 2 2 252 2 2 252 2 2 252 2 2 252 2 2 252 2 2 252 3 2 251 3 2 251 3 2 251 3 2 251 3 2 251 3 2 251 3 2 251 3 2 251 3 2 251 2 2 252 2 2 252 2 2 252 2 2 252 2 2 252 2 2 252 2 2 252 2 2 252 2 2 252 3 2 251 3 2 251 3 2 251 3 2 251 3 2 251 3 2 251 3 3 251 3 3 251 3 3 251 3 3 251 3 2 251 3 2 251 3 2 251 3 2 251 3 2 251 2 2 252 2 2 252 2 2 252 2 2 252 2 2 252 2 2 252 2 2 252 2 2 252 2 2 252 2 2 252 2 2 252 2 2 252 2 2 252 2 2 252 2 2 252 2 2 252 
2 2 252 2 2 252 2 2 252 2 2 252 2 2 252 2 2 252 2 2 252 2 2 252 2 2 252 2 2 252 2 2 252 2 2 252 2 2 252 2 2 252 2 2 252 2 2 252 2 2 252 3 2 251 3 2 251 3 2 251 3 2 251 3 2 251 3 3 251 3 3 251 3 3 251 3 3 251 3 3 251 3 3 251 3 3 251 3 2 251 3 2 251 3 2 251 3 2 251 3 2 251 3 2 251 2 2 252 2 2 252 2 2 252 2 2 252 2 2 252 3 2 251 3 2 251 3 2 251 3 2 251 3 2 251 3 2 251 3 2 251 3 2 251 2 2 252 2 2 252 2 2 252 2 2 252 2 2 252 2 2 252 2 2 252 2 2 252 2 2 252 2 2 252 3 2 251 3 3 251 3 3 251 3 3 251 3 3 251 3 3 251 3 3 251 3 3 251 3 3 251 3 3 251 3 3 251 3 3 251 3 3 251 3 2 251 3 2 251 3 2 251 3 2 251 3 2 251 3 2 251 3 3 251 3 3 251 3 3 251 3 3 251 3 3 251 3 3 251 3 3 251 3 3 251 3 3 251 3 2 251 2 2 252 2 2 252 2 2 252 2 2 252 2 2 252 2 2 252 2 2 252 3 2 251 3 3 251 3 3 251 3 3 251 3 3 251 3 3 251 3 3 251 3 3 251 3 3 251 3 3 251 3 2 251 3 2 251 3 2 251 3 2 251 3 2 251 3 2 251 3 3 251 3 3 251 3 3 251 3 3 251 3 3 251 3 3 251 3 3 251 3 3 251 3 3 251 3 3 251 3 3 251 3 3 251 3 2 251 2 2 252 2 2 252 2 2 252 2 2 252 2 2 252 2 2 252 2 2 252 2 2 252 2 2 252 2 2 252 3 2 251 3 2 251 3 2 251 3 2 251 3 2 251 3 2 251 3 2 251 3 2 251 2 2 252 2 2 252 2 2 252 2 2 252 2 2 252 3 2 251 3 2 251 3 2 251 3 2 251 3 2 251 3 2 251 3 3 251 3 3 251 3 3 251 3 3 251 3 3 251 3 3 251 3 3 251 3 2 251 3 2 251 3 2 251 3 2 251 3 2 251 2 2 252 2 2 252 2 2 252 2 2 252 2 2 252 2 2 252 2 2 252 2 2 252 2 2 252 2 2 252 2 2 252 2 2 252 2 2 252 2 2 252 2 2 252 2 2 252 2 2 252 
2 2 252 2 2 252 2 2 252 2 2 252 2 2 252 2 2 252 2 2 252 2 2 252 2 2 252 2 2 252 2 2 252 2 2 252 2 2 252 2 2 252 2 2 252 2 2 252 2 2 252 2 2 252 3 2 251 3 2 251 3 2 251 3 2 251 3 2 251 3 3 251 3 3 251 3 3 251 3 3 251 3 3 251 3 3 251 3 3 251 3 3 251 3 3 251 3 3 251 3 2 251 3 2 251 3 2 251 3 2 251 3 2 251 3 2 251 3 2 251 3 2 251 3 2 251 3 2 251 3 2 251 3 2 251 3 2 251 3 2 251 3 2 251 2 2 252 2 2 252 2 2 252 2 2 252 2 2 252 2 2 252 2 2 252 2 2 252 2 2 252 2 2 252 3 2 251 3 3 251 3 3 251 3 3 251 3 3 251 3 3 251 3 3 251 3 3 251 3 3 251 3 3 251 3 3 251 3 3 251 3 3 251 3 2 251 3 2 251 3 2 251 2 2 252 2 2 252 3 2 251 3 2 251 3 2 251 3 3 251 3 3 251 3 3 251 3 3 251 3 3 251 3 3 251 3 2 251 3 2 251 2 2 252 2 2 252 2 2 252 2 2 252 2 2 252 2 2 252 2 2 252 3 2 251 3 2 251 3 3 251 3 3 251 3 3 251 3 3 251 3 3 251 3 3 251 3 2 251 3 2 251 3 2 251 2 2 252 2 2 252 3 2 251 3 2 251 3 2 251 3 3 251 3 3 251 3 3 251 3 3 251 3 3 251 3 3 251 3 3 251 3 3 251 3 3 251 3 3 251 3 3 251 3 3 251 3 2 251 2 2 252 2 2 252 2 2 252 2 2 252 2 2 252 2 2 252 2 2 252 2 2 252 2 2 252 2 2 252 3 2 251 3 2 251 3 2 251 3 2 251 3 2 251 3 2 251 3 2 251 3 2 251 3 2 251 3 2 251 3 2 251 3 2 251 3 2 251 3 2 251 3 2 251 3 3 251 3 3 251 3 3 251 3 3 251 3 3 251 3 3 251 3 3 251 3 3 251 3 3 251 3 3 251 3 2 251 3 2 251 3 2 251 3 2 251 3 2 251 2 2 252 2 2 252 2 2 252 2 2 252 2 2 252 2 2 252 2 2 252 2 2 252 2 2 252 2 2 252 2 2 252 2 2 252 2 2 252 2 2 252 2 2 252 2 2 252 2 2 252 2 2 252 
2 2 252 2 2 252 2 2 252 2 2 252 2 2 252 2 2 252 2 2 252 2 2 252 2 2 252 2 2 252 2 2 252 2 2 252 2 2 252 2 2 252 2 2 252 2 2 252 2 2 252 2 2 252 2 2 252 2 2 252 3 2 251 3 2 251 3 2 251 3 3 251 3 3 251 3 3 251 3 3 251 3 3 251 3 3 251 3 3 251 3 3 251 3 3 251 3 3 251 3 3 251 3 3 251 3 3 251 3 2 251 3 2 251 3 2 251 3 2 251 3 2 251 3 2 251 3 2 251 3 2 251 3 2 251 3 2 251 3 2 251 3 2 251 2 2 252 2 2 252 2 2 252 2 2 252 2 2 252 2 2 252 2 2 252 2 2 252 2 2 252 3 2 251 3 2 251 3 3 251 3 3 251 3 3 251 3 3 251 3 3 251 3 3 251 3 3 251 3 3 251 3 3 251 3 3 251 3 3 251 3 3 251 3 2 251 3 2 251 2 2 252 2 2 252 2 2 252 2 2 252 2 2 252 3 2 251 3 2 251 3 2 251 3 3 251 3 3 251 3 3 251 3 2 251 3 2 251 3 2 251 2 2 252 2 2 252 2 2 252 2 2 252 2 2 252 2 2 252 2 2 252 3 2 251 3 2 251 3 2 251 3 3 251 3 3 251 3 3 251 3 2 251 3 2 251 3 2 251 2 2 252 2 2 252 2 2 252 2 2 252 2 2 252 3 2 251 3 2 251 3 3 251 3 3 251 3 3 251 3 3 251 3 3 251 3 3 251 3 3 251 3 3 251 3 3 251 3 3 251 3 3 251 3 3 251 3 2 251 3 2 251 2 2 252 2 2 252 2 2 252 2 2 252 2 2 252 2 2 252 2 2 252 2 2 252 2 2 252 3 2 251 3 2 251 3 2 251 3 2 251 3 2 251 3 2 251 3 2 251 3 2 251 3 2 251 3 2 251 3 2 251 3 2 251 3 3 251 3 3 251 3 3 251 3 3 251 3 3 251 3 3 251 3 3 251 3 3 251 3 3 251 3 3 251 3 3 251 3 3 251 3 3 251 3 2 251 3 2 251 3 2 251 2 2 252 2 2 252 2 2 252 2 2 252 2 2 252 2 2 252 2 2 252 2 2 252 2 2 252 2 2 252 2 2 252 2 2 252 2 2 252 2 2 252 2 2 252 2 2 252 2 2 252 2 2 252 2 2 252 2 2 252 
2 2 252 2 2 252 2 2 252 2 2 252 2 2 252 2 2 252 2 2 252 2 2 252 2 2 252 2 2 252 2 2 252 2 2 252 2 2 252 2 2 252 2 2 252 2 2 252 2 2 252 2 2 252 2 2 252 2 2 252 2 2 252 3 2 251 3 2 251 3 2 251 3 3 251 3 3 251 3 3 251 3 3 251 3 3 251 3 3 251 3 3 251 3 3 251 3 3 251 3 3 251 3 3 251 3 3 251 3 3 251 3 3 251 3 3 251 3 2 251 3 2 251 3 2 251 3 2 251 3 2 251 3 2 251 3 2 251 3 2 251 3 2 251 3 2 251 2 2 252 2 2 252 2 2 252 2 2 252 2 2 252 2 2 252 2 2 252 3 2 251 3 2 251 3 3 251 3 3 251 3 3 251 3 3 251 3 3 251 3 3 251 3 3 251 3 3 251 3 3 251 3 3 251 3 3 251 3 3 251 3 3 251 3 2 251 3 2 251 2 2 252 2 2 252 2 2 252 2 2 252 2 2 252 2 2 252 3 2 251 3 2 251 3 2 251 3 2 251 3 2 251 3 2 251 3 2 251 2 2 252 2 2 252 2 2 252 2 2 252 2 2 252 2 2 252 2 2 252 2 2 252 2 2 252 3 2 251 3 2 251 3 2 251 3 2 251 3 2 251 3 2 251 3 2 251 2 2 252 2 2 252 2 2 252 2 2 252 2 2 252 2 2 252 3 2 251 3 2 251 3 3 251 3 3 251 3 3 251 3 3 251 3 3 251 3 3 251 3 3 251 3 3 251 3 3 251 3 3 251 3 3 251 3 3 251 3 3 251 3 2 251 3 2 251 2 2 252 2 2 252 2 2 252 2 2 252 2 2 252 2 2 252 2 2 252 3 2 251 3 2 251 3 2 251 3 2 251 3 2 251 3 2 251 3 2 251 3 2 251 3 2 251 3 2 251 3 3 251 3 3 251 3 3 251 3 3 251 3 3 251 3 3 251 3 3 251 3 3 251 3 3 251 3 3 251 3 3 251 3 3 251 3 3 251 3 3 251 3 3 251 3 2 251 3 2 251 3 2 251 2 2 252 2 2 252 2 2 252 2 2 252 2 2 252 2 2 252 2 2 252 2 2 252 2 2 252 2 2 252 2 2 252 2 2 252 2 2 252 2 2 252 2 2 252 2 2 252 2 2 252 2 2 252 2 2 252 2 2 252 2 2 252 
2 2 252 2 2 252 2 2 252 2 2 252 2 2 252 2 2 252 2 2 252 2 2 252 2 2 252 2 2 252 2 2 252 2 2 252 2 2 252 2 2 252 2 2 252 2 2 252 2 2 252 2 2 252 2 2 252 2 2 252 2 2 252 2 2 252 3 2 251 3 2 251 3 2 251 3 3 251 3 3 251 3 3 251 3 3 251 3 3 251 3 3 251 3 3 251 3 3 251 3 3 251 3 3 251 3 3 251 3 3 251 3 3 251 3 3 251 3 3 251 3 2 251 3 2 251 3 2 251 3 2 251 3 2 251 3 2 251 3 2 251 3 2 251 3 2 251 3 2 251 3 2 251 3 2 251 3 2 251 3 2 251 3 2 251 3 2 251 3 3 251 3 3 251 3 3 251 3 3 251 3 3 251 3 3 251 3 3 251 3 3 251 3 3 251 3 3 251 3 3 251 3 3 251 3 3 251 3 3 251 3 3 251 3 2 251 2 2 252 2 2 252 2 2 252 2 2 252 2 2 252 2 2 252 2 2 252 3 2 251 3 2 251 3 2 251 3 2 251 3 2 251 3 2 251 3 2 251 2 2 252 2 2 252 2 2 252 2 2 252 2 2 252 2 2 252 2 2 252 2 2 252 2 2 252 3 2 251 3 2 251 3 2 251 3 2 251 3 2 251 3 2 251 3 2 251 2 2 252 2 2 252 2 2 252 2 2 252 2 2 252 2 2 252 2 2 252 3 2 251 3 3 251 3 3 251 3 3 251 3 3 251 3 3 251 3 3 251 3 3 251 3 3 251 3 3 251 3 3 251 3 3 251 3 3 251 3 3 251 3 3 251 3 3 251 3 2 251 3 2 251 3 2 251 3 2 251 3 2 251 3 2 251 3 2 251 3 2 251 3 2 251 3 2 251 3 2 251 3 2 251 3 2 251 3 2 251 3 2 251 3 2 251 3 3 251 3 3 251 3 3 251 3 3 251 3 3 251 3 3 251 3 3 251 3 3 251 3 3 251 3 3 251 3 3 251 3 3 251 3 3 251 3 3 251 3 3 251 3 2 251 3 2 251 3 2 251 2 2 252 2 2 252 2 2 252 2 2 252 2 2 252 2 2 252 2 2 252 2 2 252 2 2 252 2 2 252 2 2 252 2 2 252 2 2 252 2 2 252 2 2 252 2 2 252 2 2 252 2 2 252 2 2 252 2 2 252 2 2 252 2 2 252 
2 2 252 2 2 252 2 2 252 2 2 252 3 2 251 3 2 251 3 2 251 2 2 252 2 2 252 2 2 252 2 2 252 2 2 252 2 2 252 2 2 252 2 2 252 2 2 252 2 2 252 2 2 252 2 2 252 2 2 252 2 2 252 2 2 252 2 2 252 3 2 251 3 2 251 3 2 251 3 3 251 3 3 251 3 3 251 3 3 251 3 3 251 3 3 251 3 3 251 3 3 251 3 3 251 3 3 251 3 3 251 3 3 251 3 3 251 3 3 251 3 3 251 3 3 251 3 2 251 3 2 251 3 2 251 3 2 251 3 2 251 3 2 251 3 2 251 3 2 251 3 2 251 3 2 251 3 3 251 3 3 251 3 3 251 3 3 251 3 3 251 3 3 251 3 3 251 3 3 251 3 3 251 3 3 251 3 3 251 3 3 251 3 3 251 3 3 251 3 3 251 3 3 251 3 3 251 3 3 251 3 2 251 3 2 251 2 2 252 2 2 252 2 2 252 2 2 252 2 2 252 2 2 252 2 2 252 3 2 251 3 2 251 3 2 251 3 3 251 3 2 251 3 2 251 3 2 251 2 2 252 2 2 252 2 2 252 2 2 252 2 2 252 2 2 252 2 2 252 2 2 252 2 2 252 3 2 251 3 2 251 3 2 251 3 3 251 3 2 251 3 2 251 3 2 251 2 2 252 2 2 252 2 2 252 2 2 252 2 2 252 2 2 252 2 2 252 3 2 251 3 2 251 3 3 251 3 3 251 3 3 251 3 3 251 3 3 251 3 3 251 3 3 251 3 3 251 3 3 251 3 3 251 3 3 251 3 3 251 3 3 251 3 3 251 3 3 251 3 3 251 3 3 251 3 3 251 3 2 251 3 2 251 3 2 251 3 2 251 3 2 251 3 2 251 3 2 251 3 2 251 3 2 251 3 2 251 3 3 251 3 3 251 3 3 251 3 3 251 3 3 251 3 3 251 3 3 251 3 3 251 3 3 251 3 3 251 3 3 251 3 3 251 3 3 251 3 3 251 3 3 251 3 3 251 3 2 251 3 2 251 3 2 251 2 2 252 2 2 252 2 2 252 2 2 252 2 2 252 2 2 252 2 2 252 2 2 252 2 2 252 2 2 252 2 2 252 2 2 252 2 2 252 2 2 252 2 2 252 2 2 252 3 2 251 3 2 251 3 2 251 2 2 252 2 2 252 2 2 252 2 2 252 
2 2 252 2 2 252 2 2 252 3 2 251 3 2 251 3 2 251 3 2 251 3 2 251 3 2 251 3 2 251 2 2 252 2 2 252 2 2 252 2 2 252 2 2 252 2 2 252 2 2 252 2 2 252 2 2 252 2 2 252 2 2 252 2 2 252 2 2 252 2 2 252 3 2 251 3 2 251 3 3 251 3 3 251 3 3 251 3 3 251 3 3 251 3 3 251 3 3 251 3 3 251 3 3 251 3 3 251 3 3 251 3 3 251 3 3 251 3 3 251 3 3 251 3 3 251 3 3 251 3 2 251 3 2 251 3 2 251 3 2 251 3 2 251 3 2 251 3 3 251 3 3 251 3 3 251 3 3 251 3 3 251 3 3 251 3 3 251 3 3 251 3 3 251 3 3 251 3 3 251 3 3 251 4 3 250 4 3 250 4 3 250 4 3 250 3 3 251 3 3 251 3 3 251 3 3 251 3 3 251 3 2 251 2 2 252 2 2 252 2 2 252 2 2 252 2 2 252 2 2 252 2 2 252 3 2 251 3 2 251 3 3 251 3 3 251 3 3 251 3 3 251 3 2 251 3 2 251 3 2 251 2 2 252 2 2 252 2 2 252 2 2 252 2 2 252 2 2 252 2 2 252 3 2 251 3 2 251 3 2 251 3 3 251 3 3 251 3 3 251 3 3 251 3 2 251 3 2 251 2 2 252 2 2 252 2 2 252 2 2 252 2 2 252 2 2 252 2 2 252 3 2 251 3 3 251 3 3 251 3 3 251 3 3 251 3 3 251 4 3 250 4 3 250 4 3 250 4 3 250 3 3 251 3 3 251 3 3 251 3 3 251 3 3 251 3 3 251 3 3 251 3 3 251 3 3 251 3 3 251 3 3 251 3 3 251 3 2 251 3 2 251 3 2 251 3 2 251 3 2 251 3 2 251 3 3 251 3 3 251 3 3 251 3 3 251 3 3 251 3 3 251 3 3 251 3 3 251 3 3 251 3 3 251 3 3 251 3 3 251 3 3 251 3 3 251 3 3 251 3 3 251 3 3 251 3 2 251 3 2 251 2 2 252 2 2 252 2 2 252 2 2 252 2 2 252 2 2 252 2 2 252 2 2 252 2 2 252 2 2 252 2 2 252 2 2 252 2 2 252 2 2 252 3 2 251 3 2 251 3 2 251 3 2 251 3 2 251 3 2 251 3 2 251 2 2 252 2 2 252 2 2 252 
2 2 252 2 2 252 2 2 252 3 2 251 3 2 251 3 2 251 3 2 251 3 2 251 3 2 251 3 2 251 3 2 251 3 2 251 2 2 252 2 2 252 2 2 252 2 2 252 2 2 252 2 2 252 2 2 252 2 2 252 2 2 252 2 2 252 2 2 252 2 2 252 2 2 252 3 2 251 3 2 251 3 3 251 3 3 251 3 3 251 3 3 251 3 3 251 3 3 251 3 3 251 3 3 251 3 3 251 3 3 251 3 3 251 3 3 251 3 3 251 3 3 251 3 3 251 3 3 251 3 2 251 3 2 251 3 2 251 3 2 251 3 2 251 3 3 251 3 3 251 3 3 251 3 3 251 3 3 251 3 3 251 3 3 251 3 3 251 3 3 251 3 3 251 3 3 251 4 3 250 4 3 250 4 3 250 4 3 250 4 3 250 4 3 250 3 3 251 3 3 251 3 3 251 3 3 251 3 3 251 3 2 251 2 2 252 2 2 252 2 2 252 2 2 252 2 2 252 2 2 252 3 2 251 3 2 251 3 3 251 3 3 251 3 3 251 3 3 251 3 3 251 3 3 251 3 2 251 3 2 251 2 2 252 2 2 252 2 2 252 2 2 252 2 2 252 2 2 252 2 2 252 3 2 251 3 2 251 3 3 251 3 3 251 3 3 251 3 3 251 3 3 251 3 3 251 3 2 251 3 2 251 2 2 252 2 2 252 2 2 252 2 2 252 2 2 252 2 2 252 3 2 251 3 3 251 3 3 251 3 3 251 3 3 251 3 3 251 4 3 250 4 3 250 4 3 250 4 3 250 4 3 250 4 3 250 3 3 251 3 3 251 3 3 251 3 3 251 3 3 251 3 3 251 3 3 251 3 3 251 3 3 251 3 3 251 3 3 251 3 2 251 3 2 251 3 2 251 3 2 251 3 2 251 3 3 251 3 3 251 3 3 251 3 3 251 3 3 251 3 3 251 3 3 251 3 3 251 3 3 251 3 3 251 3 3 251 3 3 251 3 3 251 3 3 251 3 3 251 3 3 251 3 2 251 3 2 251 2 2 252 2 2 252 2 2 252 2 2 252 2 2 252 2 2 252 2 2 252 2 2 252 2 2 252 2 2 252 2 2 252 2 2 252 2 2 252 3 2 251 3 2 251 3 2 251 3 2 251 3 2 251 3 2 251 3 2 251 3 2 251 3 2 251 2 2 252 2 2 252 2 2 252 
2 2 252 2 2 252 2 2 252 2 2 252 3 2 251 3 2 251 3 2 251 3 2 251 3 2 251 3 2 251 3 2 251 3 2 251 3 2 251 2 2 252 2 2 252 2 2 252 2 2 252 2 2 252 2 2 252 2 2 252 2 2 252 2 2 252 2 2 252 2 2 252 2 2 252 2 2 252 3 2 251 3 2 251 3 3 251 3 3 251 3 3 251 3 3 251 3 3 251 3 3 251 3 3 251 3 3 251 3 3 251 3 3 251 3 3 251 3 3 251 3 3 251 3 3 251 3 3 251 3 2 251 3 2 251 3 2 251 3 2 251 3 2 251 3 3 251 3 3 251 3 3 251 3 3 251 3 3 251 3 3 251 3 3 251 3 3 251 3 3 251 3 3 251 4 3 250 4 3 250 4 3 250 4 3 250 4 3 250 4 3 250 4 3 250 3 3 251 3 3 251 3 3 251 3 3 251 3 2 251 3 2 251 2 2 252 2 2 252 2 2 252 2 2 252 2 2 252 2 2 252 3 2 251 3 3 251 3 3 251 3 3 251 3 3 251 3 3 251 3 3 251 3 3 251 3 3 251 3 2 251 2 2 252 2 2 252 2 2 252 2 2 252 2 2 252 2 2 252 2 2 252 3 2 251 3 3 251 3 3 251 3 3 251 3 3 251 3 3 251 3 3 251 3 3 251 3 3 251 3 2 251 2 2 252 2 2 252 2 2 252 2 2 252 2 2 252 2 2 252 3 2 251 3 2 251 3 3 251 3 3 251 3 3 251 3 3 251 4 3 250 4 3 250 4 3 250 4 3 250 4 3 250 4 3 250 4 3 250 3 3 251 3 3 251 3 3 251 3 3 251 3 3 251 3 3 251 3 3 251 3 3 251 3 3 251 3 3 251 3 2 251 3 2 251 3 2 251 3 2 251 3 2 251 3 3 251 3 3 251 3 3 251 3 3 251 3 3 251 3 3 251 3 3 251 3 3 251 3 3 251 3 3 251 3 3 251 3 3 251 3 3 251 3 3 251 3 3 251 3 2 251 3 2 251 2 2 252 2 2 252 2 2 252 2 2 252 2 2 252 2 2 252 2 2 252 2 2 252 2 2 252 2 2 252 2 2 252 2 2 252 2 2 252 3 2 251 3 2 251 3 2 251 3 2 251 3 2 251 3 2 251 3 2 251 3 2 251 3 2 251 2 2 252 2 2 252 2 2 252 2 2 252 
2 2 252 2 2 252 2 2 252 2 2 252 3 2 251 3 2 251 3 2 251 3 2 251 3 2 251 3 2 251 3 2 251 3 2 251 3 2 251 3 2 251 2 2 252 2 2 252 2 2 252 2 2 252 2 2 252 2 2 252 2 2 252 2 2 252 2 2 252 2 2 252 2 2 252 2 2 252 2 2 252 3 2 251 3 2 251 3 2 251 3 3 251 3 3 251 3 3 251 3 3 251 3 3 251 3 3 251 3 3 251 3 3 251 3 3 251 3 3 251 3 3 251 3 3 251 3 3 251 3 2 251 3 2 251 3 2 251 3 2 251 3 2 251 3 3 251 3 3 251 3 3 251 3 3 251 3 3 251 3 3 251 3 3 251 3 3 251 3 3 251 4 3 250 4 3 250 4 3 250 4 4 250 4 4 250 4 4 250 4 3 250 4 3 250 3 3 251 3 3 251 3 3 251 3 3 251 3 2 251 2 2 252 2 2 252 2 2 252 2 2 252 2 2 252 2 2 252 3 2 251 3 3 251 3 3 251 3 3 251 3 3 251 3 3 251 3 3 251 3 3 251 3 3 251 3 3 251 3 2 251 2 2 252 2 2 252 2 2 252 2 2 252 2 2 252 2 2 252 2 2 252 3 2 251 3 3 251 3 3 251 3 3 251 3 3 251 3 3 251 3 3 251 3 3 251 3 3 251 3 3 251 3 2 251 2 2 252 2 2 252 2 2 252 2 2 252 2 2 252 2 2 252 3 2 251 3 3 251 3 3 251 3 3 251 3 3 251 4 3 250 4 3 250 4 4 250 4 4 250 4 4 250 4 3 250 4 3 250 4 3 250 3 3 251 3 3 251 3 3 251 3 3 251 3 3 251 3 3 251 3 3 251 3 3 251 3 3 251 3 2 251 3 2 251 3 2 251 3 2 251 3 2 251 3 3 251 3 3 251 3 3 251 3 3 251 3 3 251 3 3 251 3 3 251 3 3 251 3 3 251 3 3 251 3 3 251 3 3 251 3 3 251 3 2 251 3 2 251 3 2 251 2 2 252 2 2 252 2 2 252 2 2 252 2 2 252 2 2 252 2 2 252 2 2 252 2 2 252 2 2 252 2 2 252 2 2 252 2 2 252 3 2 251 3 2 251 3 2 251 3 2 251 3 2 251 3 2 251 3 2 251 3 2 251 3 2 251 3 2 251 2 2 252 2 2 252 2 2 252 2 2 252 
2 2 252 2 2 252 2 2 252 2 2 252 2 2 252 3 2 251 3 2 251 3 2 251 3 2 251 3 2 251 3 2 251 3 2 251 3 2 251 3 2 251 3 2 251 2 2 252 2 2 252 2 2 252 2 2 252 2 2 252 2 2 252 2 2 252 2 2 252 2 2 252 2 2 252 2 2 252 2 2 252 2 2 252 3 2 251 3 2 251 3 2 251 3 2 251 3 3 251 3 3 251 3 3 251 3 3 251 3 3 251 3 3 251 3 3 251 3 3 251 3 3 251 3 3 251 3 2 251 3 2 251 3 2 251 3 2 251 3 2 251 3 2 251 3 2 251 3 3 251 3 3 251 3 3 251 3 3 251 3 3 251 3 3 251 3 3 251 3 3 251 4 3 250 4 3 250 4 3 250 4 4 250 4 4 250 4 3 250 4 3 250 4 3 250 3 3 251 3 3 251 3 3 251 3 3 251 3 2 251 2 2 252 2 2 252 2 2 252 2 2 252 2 2 252 2 2 252 3 2 251 3 3 251 3 3 251 3 3 251 3 3 251 3 3 251 3 3 251 3 3 251 3 3 251 3 3 251 3 2 251 3 2 251 2 2 252 2 2 252 2 2 252 2 2 252 2 2 252 3 2 251 3 2 251 3 3 251 3 3 251 3 3 251 3 3 251 3 3 251 3 3 251 3 3 251 3 3 251 3 3 251 3 2 251 2 2 252 2 2 252 2 2 252 2 2 252 2 2 252 2 2 252 3 2 251 3 3 251 3 3 251 3 3 251 3 3 251 4 3 250 4 3 250 4 3 250 4 4 250 4 4 250 4 3 250 4 3 250 4 3 250 3 3 251 3 3 251 3 3 251 3 3 251 3 3 251 3 3 251 3 3 251 3 3 251 3 2 251 3 2 251 3 2 251 3 2 251 3 2 251 3 2 251 3 2 251 3 3 251 3 3 251 3 3 251 3 3 251 3 3 251 3 3 251 3 3 251 3 3 251 3 3 251 3 3 251 3 2 251 3 2 251 3 2 251 3 2 251 2 2 252 2 2 252 2 2 252 2 2 252 2 2 252 2 2 252 2 2 252 2 2 252 2 2 252 2 2 252 2 2 252 2 2 252 2 2 252 3 2 251 3 2 251 3 2 251 3 2 251 3 2 251 3 2 251 3 2 251 3 2 251 3 2 251 3 2 251 2 2 252 2 2 252 2 2 252 2 2 252 2 2 252 
2 2 252 2 2 252 2 2 252 2 2 252 2 2 252 2 2 252 3 2 251 3 2 251 3 2 251 3 2 251 3 2 251 3 2 251 3 2 251 3 2 251 3 2 251 3 2 251 3 2 251 2 2 252 2 2 252 2 2 252 2 2 252 2 2 252 2 2 252 2 2 252 2 2 252 2 2 252 2 2 252 2 2 252 2 2 252 2 2 252 3 2 251 3 2 251 3 2 251 3 2 251 3 2 251 3 3 251 3 3 251 3 3 251 3 3 251 3 3 251 3 2 251 3 2 251 3 2 251 3 2 251 3 2 251 3 2 251 3 2 251 3 2 251 3 2 251 3 2 251 3 3 251 3 3 251 3 3 251 3 3 251 3 3 251 3 3 251 3 3 251 3 3 251 4 3 250 4 3 250 4 3 250 4 3 250 4 3 250 4 3 250 3 3 251 3 3 251 3 3 251 3 3 251 3 3 251 3 2 251 2 2 252 2 2 252 2 2 252 2 2 252 2 2 252 3 2 251 3 3 251 3 3 251 3 3 251 3 3 251 3 3 251 3 3 251 3 3 251 3 3 251 3 3 251 3 3 251 3 2 251 3 2 251 2 2 252 2 2 252 2 2 252 2 2 252 2 2 252 3 2 251 3 2 251 3 3 251 3 3 251 3 3 251 3 3 251 3 3 251 3 3 251 3 3 251 3 3 251 3 3 251 3 3 251 3 2 251 2 2 252 2 2 252 2 2 252 2 2 252 2 2 252 3 2 251 3 3 251 3 3 251 3 3 251 3 3 251 3 3 251 4 3 250 4 3 250 4 3 250 4 3 250 4 3 250 4 3 250 3 3 251 3 3 251 3 3 251 3 3 251 3 3 251 3 3 251 3 3 251 3 3 251 3 2 251 3 2 251 3 2 251 3 2 251 3 2 251 3 2 251 3 2 251 3 2 251 3 2 251 3 2 251 3 3 251 3 3 251 3 3 251 3 3 251 3 3 251 3 2 251 3 2 251 3 2 251 3 2 251 3 2 251 2 2 252 2 2 252 2 2 252 2 2 252 2 2 252 2 2 252 2 2 252 2 2 252 2 2 252 2 2 252 2 2 252 2 2 252 2 2 252 3 2 251 3 2 251 3 2 251 3 2 251 3 2 251 3 2 251 3 2 251 3 2 251 3 2 251 3 2 251 3 2 251 2 2 252 2 2 252 2 2 252 2 2 252 2 2 252 2 2 252 
2 2 252 2 2 252 2 2 252 2 2 252 2 2 252 2 2 252 2 2 252 3 2 251 3 2 251 3 2 251 3 2 251 3 2 251 3 2 251 3 2 251 3 2 251 3 2 251 3 2 251 3 2 251 2 2 252 2 2 252 2 2 252 2 2 252 2 2 252 2 2 252 2 2 252 2 2 252 2 2 252 2 2 252 2 2 252 2 2 252 2 2 252 2 2 252 3 2 251 3 2 251 3 2 251 3 2 251 3 2 251 3 2 251 3 2 251 3 2 251 3 2 251 3 2 251 3 2 251 3 2 251 3 2 251 3 2 251 3 2 251 3 2 251 3 2 251 3 2 251 3 2 251 3 3 251 3 3 251 3 3 251 3 3 251 3 3 251 3 3 251 3 3 251 3 3 251 4 3 250 4 3 250 4 3 250 4 3 250 4 3 250 3 3 251 3 3 251 3 3 251 3 3 251 3 3 251 3 2 251 2 2 252 2 2 252 2 2 252 2 2 252 2 2 252 3 2 251 3 3 251 3 3 251 3 3 251 3 3 251 3 3 251 3 3 251 3 3 251 3 3 251 3 3 251 3 3 251 3 3 251 3 2 251 2 2 252 2 2 252 2 2 252 2 2 252 2 2 252 3 2 251 3 3 251 3 3 251 3 3 251 3 3 251 3 3 251 3 3 251 3 3 251 3 3 251 3 3 251 3 3 251 3 3 251 3 2 251 2 2 252 2 2 252 2 2 252 2 2 252 2 2 252 3 2 251 3 3 251 3 3 251 3 3 251 3 3 251 3 3 251 4 3 250 4 3 250 4 3 250 4 3 250 4 3 250 3 3 251 3 3 251 3 3 251 3 3 251 3 3 251 3 3 251 3 3 251 3 3 251 3 2 251 3 2 251 3 2 251 3 2 251 3 2 251 3 2 251 3 2 251 3 2 251 3 2 251 3 2 251 3 2 251 3 2 251 3 2 251 3 2 251 3 2 251 3 2 251 3 2 251 3 2 251 3 2 251 2 2 252 2 2 252 2 2 252 2 2 252 2 2 252 2 2 252 2 2 252 2 2 252 2 2 252 2 2 252 2 2 252 2 2 252 2 2 252 2 2 252 3 2 251 3 2 251 3 2 251 3 2 251 3 2 251 3 2 251 3 2 251 3 2 251 3 2 251 3 2 251 3 2 251 2 2 252 2 2 252 2 2 252 2 2 252 2 2 252 2 2 252 2 2 252 
2 2 252 2 2 252 2 2 252 2 2 252 2 2 252 2 2 252 2 2 252 2 2 252 3 2 251 3 2 251 3 2 251 3 2 251 3 2 251 3 2 251 3 2 251 3 2 251 3 2 251 3 2 251 3 2 251 3 2 251 2 2 252 2 2 252 2 2 252 2 2 252 2 2 252 2 2 252 2 2 252 2 2 252 2 2 252 2 2 252 2 2 252 2 2 252 2 2 252 2 2 252 3 2 251 3 2 251 3 2 251 3 2 251 3 2 251 3 2 251 3 2 251 3 2 251 3 2 251 3 2 251 3 2 251 3 2 251 3 2 251 3 2 251 3 2 251 3 2 251 3 2 251 3 2 251 3 2 251 3 3 251 3 3 251 3 3 251 3 3 251 3 3 251 3 3 251 3 3 251 3 3 251 4 3 250 4 3 250 3 3 251 3 3 251 3 3 251 3 3 251 3 3 251 3 3 251 3 2 251 2 2 252 2 2 252 2 2 252 2 2 252 3 2 251 3 2 251 3 3 251 3 3 251 3 3 251 3 3 251 3 3 251 3 3 251 3 3 251 3 3 251 3 3 251 3 3 251 3 3 251 3 2 251 2 2 252 2 2 252 2 2 252 2 2 252 2 2 252 3 2 251 3 3 251 3 3 251 3 3 251 3 3 251 3 3 251 3 3 251 3 3 251 3 3 251 3 3 251 3 3 251 3 3 251 3 2 251 3 2 251 2 2 252 2 2 252 2 2 252 2 2 252 3 2 251 3 3 251 3 3 251 3 3 251 3 3 251 3 3 251 3 3 251 4 3 250 4 3 250 3 3 251 3 3 251 3 3 251 3 3 251 3 3 251 3 3 251 3 3 251 3 3 251 3 2 251 3 2 251 3 2 251 3 2 251 3 2 251 3 2 251 3 2 251 3 2 251 3 2 251 3 2 251 3 2 251 3 2 251 3 2 251 3 2 251 3 2 251 3 2 251 3 2 251 3 2 251 3 2 251 2 2 252 2 2 252 2 2 252 2 2 252 2 2 252 2 2 252 2 2 252 2 2 252 2 2 252 2 2 252 2 2 252 2 2 252 2 2 252 2 2 252 3 2 251 3 2 251 3 2 251 3 2 251 3 2 251 3 2 251 3 2 251 3 2 251 3 2 251 3 2 251 3 2 251 3 2 251 2 2 252 2 2 252 2 2 252 2 2 252 2 2 252 2 2 252 2 2 252 2 2 252 
2 2 252 2 2 252 2 2 252 2 2 252 2 2 252 2 2 252 2 2 252 2 2 252 2 2 252 2 2 252 3 2 251 3 2 251 3 2 251 3 2 251 3 2 251 3 2 251 3 2 251 3 2 251 3 2 251 3 2 251 3 2 251 2 2 252 2 2 252 2 2 252 2 2 252 2 2 252 2 2 252 2 2 252 2 2 252 2 2 252 2 2 252 2 2 252 2 2 252 2 2 252 2 2 252 2 2 252 2 2 252 2 2 252 3 2 251 3 2 251 3 2 251 3 2 251 3 2 251 3 2 251 3 2 251 2 2 252 2 2 252 2 2 252 2 2 252 2 2 252 2 2 252 3 2 251 3 2 251 3 2 251 3 3 251 3 3 251 3 3 251 3 3 251 3 3 251 3 3 251 3 3 251 3 3 251 3 3 251 3 3 251 3 3 251 3 3 251 3 3 251 3 3 251 3 3 251 3 2 251 3 2 251 2 2 252 2 2 252 2 2 252 3 2 251 3 2 251 3 3 251 3 3 251 3 3 251 3 3 251 3 3 251 3 3 251 3 3 251 3 3 251 3 3 251 3 3 251 3 3 251 3 2 251 2 2 252 2 2 252 2 2 252 2 2 252 2 2 252 3 2 251 3 3 251 3 3 251 3 3 251 3 3 251 3 3 251 3 3 251 3 3 251 3 3 251 3 3 251 3 3 251 3 3 251 3 2 251 3 2 251 2 2 252 2 2 252 2 2 252 3 2 251 3 2 251 3 3 251 3 3 251 3 3 251 3 3 251 3 3 251 3 3 251 3 3 251 3 3 251 3 3 251 3 3 251 3 3 251 3 3 251 3 3 251 3 3 251 3 3 251 3 2 251 3 2 251 3 2 251 2 2 252 2 2 252 2 2 252 2 2 252 2 2 252 2 2 252 3 2 251 3 2 251 3 2 251 3 2 251 3 2 251 3 2 251 3 2 251 2 2 252 2 2 252 2 2 252 2 2 252 2 2 252 2 2 252 2 2 252 2 2 252 2 2 252 2 2 252 2 2 252 2 2 252 2 2 252 2 2 252 2 2 252 2 2 252 2 2 252 3 2 251 3 2 251 3 2 251 3 2 251 3 2 251 3 2 251 3 2 251 3 2 251 3 2 251 3 2 251 3 2 251 2 2 252 2 2 252 2 2 252 2 2 252 2 2 252 2 2 252 2 2 252 2 2 252 2 2 252 2 2 252 
2 2 252 2 2 252 2 2 252 2 2 252 2 2 252 2 2 252 2 2 252 2 2 252 2 2 252 2 2 252 2 2 252 3 2 251 3 2 251 3 2 251 3 2 251 3 2 251 3 2 251 3 2 251 3 2 251 3 2 251 3 2 251 3 2 251 3 2 251 2 2 252 2 2 252 2 2 252 2 2 252 2 2 252 2 2 252 2 2 252 2 2 252 2 2 252 2 2 252 2 2 252 2 2 252 2 2 252 2 2 252 2 2 252 2 2 252 2 2 252 2 2 252 2 2 252 2 2 252 2 2 252 2 2 252 2 2 252 2 2 252 2 2 252 2 2 252 2 2 252 2 2 252 2 2 252 2 2 252 3 2 251 3 2 251 3 3 251 3 3 251 3 3 251 3 3 251 3 3 251 3 3 251 3 3 251 3 3 251 3 3 251 3 3 251 3 3 251 3 3 251 3 3 251 3 3 251 3 2 251 3 2 251 3 2 251 2 2 252 3 2 251 3 2 251 3 3 251 3 3 251 3 3 251 3 3 251 3 3 251 3 3 251 3 3 251 3 3 251 3 3 251 3 3 251 3 3 251 3 2 251 3 2 251 2 2 252 2 2 252 2 2 252 2 2 252 2 2 252 3 2 251 3 2 251 3 3 251 3 3 251 3 3 251 3 3 251 3 3 251 3 3 251 3 3 251 3 3 251 3 3 251 3 3 251 3 3 251 3 2 251 3 2 251 2 2 252 3 2 251 3 2 251 3 2 251 3 3 251 3 3 251 3 3 251 3 3 251 3 3 251 3 3 251 3 3 251 3 3 251 3 3 251 3 3 251 3 3 251 3 3 251 3 3 251 3 3 251 3 2 251 3 2 251 2 2 252 2 2 252 2 2 252 2 2 252 2 2 252 2 2 252 2 2 252 2 2 252 2 2 252 2 2 252 2 2 252 2 2 252 2 2 252 2 2 252 2 2 252 2 2 252 2 2 252 2 2 252 2 2 252 2 2 252 2 2 252 2 2 252 2 2 252 2 2 252 2 2 252 2 2 252 2 2 252 2 2 252 2 2 252 2 2 252 3 2 251 3 2 251 3 2 251 3 2 251 3 2 251 3 2 251 3 2 251 3 2 251 3 2 251 3 2 251 3 2 251 3 2 251 2 2 252 2 2 252 2 2 252 2 2 252 2 2 252 2 2 252 2 2 252 2 2 252 2 2 252 2 2 252 2 2 252 
2 2 252 2 2 252 2 2 252 2 2 252 2 2 252 2 2 252 2 2 252 2 2 252 2 2 252 2 2 252 2 2 252 2 2 252 3 2 251 3 2 251 3 2 251 3 2 251 3 2 251 3 2 251 3 2 251 3 2 251 3 2 251 3 2 251 3 2 251 3 2 251 3 2 251 2 2 252 2 2 252 2 2 252 2 2 252 2 2 252 2 2 252 2 2 252 2 2 252 2 2 252 2 2 252 2 2 252 2 2 252 2 2 252 2 2 252 2 2 252 2 2 252 2 2 252 2 2 252 2 2 252 2 2 252 2 2 252 2 2 252 2 2 252 2 2 252 2 2 252 2 2 252 2 2 252 2 2 252 2 2 252 2 2 252 3 2 251 3 3 251 3 3 251 3 3 251 3 3 251 3 3 251 3 3 251 3 3 251 3 3 251 3 3 251 3 3 251 3 3 251 3 3 251 3 3 251 3 3 251 3 2 251 3 2 251 3 2 251 3 2 251 3 2 251 3 2 251 3 3 251 3 3 251 3 3 251 3 3 251 3 3 251 3 3 251 3 3 251 3 3 251 3 3 251 3 3 251 3 2 251 3 2 251 2 2 252 2 2 252 2 2 252 2 2 252 2 2 252 3 2 251 3 2 251 3 3 251 3 3 251 3 3 251 3 3 251 3 3 251 3 3 251 3 3 251 3 3 251 3 3 251 3 3 251 3 2 251 3 2 251 3 2 251 3 2 251 3 2 251 3 2 251 3 3 251 3 3 251 3 3 251 3 3 251 3 3 251 3 3 251 3 3 251 3 3 251 3 3 251 3 3 251 3 3 251 3 3 251 3 3 251 3 3 251 3 2 251 2 2 252 2 2 252 2 2 252 2 2 252 2 2 252 2 2 252 2 2 252 2 2 252 2 2 252 2 2 252 2 2 252 2 2 252 2 2 252 2 2 252 2 2 252 2 2 252 2 2 252 2 2 252 2 2 252 2 2 252 2 2 252 2 2 252 2 2 252 2 2 252 2 2 252 2 2 252 2 2 252 2 2 252 2 2 252 2 2 252 3 2 251 3 2 251 3 2 251 3 2 251 3 2 251 3 2 251 3 2 251 3 2 251 3 2 251 3 2 251 3 2 251 3 2 251 3 2 251 2 2 252 2 2 252 2 2 252 2 2 252 2 2 252 2 2 252 2 2 252 2 2 252 2 2 252 2 2 252 2 2 252 2 2 252 
2 2 252 2 2 252 2 2 252 2 2 252 2 2 252 2 2 252 2 2 252 2 2 252 2 2 252 2 2 252 2 2 252 2 2 252 2 2 252 3 2 251 3 2 251 3 2 251 3 2 251 3 2 251 3 2 251 3 2 251 3 2 251 3 2 251 3 2 251 3 2 251 3 2 251 3 2 251 3 2 251 2 2 252 2 2 252 2 2 252 2 2 252 2 2 252 2 2 252 2 2 252 2 2 252 2 2 252 2 2 252 2 2 252 2 2 252 2 2 252 2 2 252 2 2 252 2 2 252 2 2 252 2 2 252 2 2 252 2 2 252 2 2 252 2 2 252 2 2 252 2 2 252 2 2 252 2 2 252 2 2 252 2 2 252 3 2 251 3 2 251 3 3 251 3 3 251 3 3 251 3 3 251 3 3 251 3 3 251 3 3 251 3 3 251 3 3 251 3 3 251 3 3 251 3 3 251 3 3 251 3 2 251 3 2 251 3 2 251 3 2 251 3 2 251 3 2 251 3 3 251 3 3 251 3 3 251 3 3 251 3 3 251 3 3 251 3 3 251 3 3 251 3 3 251 3 3 251 3 2 251 2 2 252 2 2 252 2 2 252 2 2 252 2 2 252 2 2 252 2 2 252 3 2 251 3 3 251 3 3 251 3 3 251 3 3 251 3 3 251 3 3 251 3 3 251 3 3 251 3 3 251 3 3 251 3 2 251 3 2 251 3 2 251 3 2 251 3 2 251 3 2 251 3 3 251 3 3 251 3 3 251 3 3 251 3 3 251 3 3 251 3 3 251 3 3 251 3 3 251 3 3 251 3 3 251 3 3 251 3 3 251 3 2 251 3 2 251 2 2 252 2 2 252 2 2 252 2 2 252 2 2 252 2 2 252 2 2 252 2 2 252 2 2 252 2 2 252 2 2 252 2 2 252 2 2 252 2 2 252 2 2 252 2 2 252 2 2 252 2 2 252 2 2 252 2 2 252 2 2 252 2 2 252 2 2 252 2 2 252 2 2 252 2 2 252 2 2 252 2 2 252 3 2 251 3 2 251 3 2 251 3 2 251 3 2 251 3 2 251 3 2 251 3 2 251 3 2 251 3 2 251 3 2 251 3 2 251 3 2 251 3 2 251 2 2 252 2 2 252 2 2 252 2 2 252 2 2 252 2 2 252 2 2 252 2 2 252 2 2 252 2 2 252 2 2 252 2 2 252 2 2 252 
2 2 252 2 2 252 2 2 252 2 2 252 2 2 252 2 2 252 2 2 252 2 2 252 2 2 252 2 2 252 2 2 252 2 2 252 2 2 252 2 2 252 2 2 252 3 2 251 3 2 251 3 2 251 3 2 251 3 2 251 3 2 251 3 2 251 3 2 251 3 2 251 3 2 251 3 2 251 3 2 251 3 2 251 3 2 251 3 2 251 2 2 252 2 2 252 2 2 252 2 2 252 2 2 252 2 2 252 2 2 252 2 2 252 2 2 252 2 2 252 2 2 252 2 2 252 2 2 252 2 2 252 2 2 252 2 2 252 2 2 252 2 2 252 2 2 252 2 2 252 2 2 252 2 2 252 2 2 252 2 2 252 2 2 252 2 2 252 3 2 251 3 2 251 3 3 251 3 3 251 3 3 251 3 3 251 3 3 251 3 3 251 3 3 251 3 3 251 3 3 251 3 3 251 3 3 251 3 3 251 3 3 251 3 2 251 3 2 251 3 2 251 3 2 251 3 2 251 3 3 251 3 3 251 3 3 251 3 3 251 3 3 251 3 3 251 3 3 251 3 3 251 3 3 251 3 3 251 3 2 251 2 2 252 2 2 252 2 2 252 2 2 252 2 2 252 2 2 252 2 2 252 3 2 251 3 3 251 3 3 251 3 3 251 3 3 251 3 3 251 3 3 251 3 3 251 3 3 251 3 3 251 3 3 251 3 2 251 3 2 251 3 2 251 3 2 251 3 2 251 3 3 251 3 3 251 3 3 251 3 3 251 3 3 251 3 3 251 3 3 251 3 3 251 3 3 251 3 3 251 3 3 251 3 3 251 3 3 251 3 2 251 3 2 251 2 2 252 2 2 252 2 2 252 2 2 252 2 2 252 2 2 252 2 2 252 2 2 252 2 2 252 2 2 252 2 2 252 2 2 252 2 2 252 2 2 252 2 2 252 2 2 252 2 2 252 2 2 252 2 2 252 2 2 252 2 2 252 2 2 252 2 2 252 2 2 252 2 2 252 2 2 252 3 2 251 3 2 251 3 2 251 3 2 251 3 2 251 3 2 251 3 2 251 3 2 251 3 2 251 3 2 251 3 2 251 3 2 251 3 2 251 3 2 251 3 2 251 2 2 252 2 2 252 2 2 252 2 2 252 2 2 252 2 2 252 2 2 252 2 2 252 2 2 252 2 2 252 2 2 252 2 2 252 2 2 252 2 2 252 2 2 252 
2 2 252 2 2 252 2 2 252 2 2 252 2 2 252 2 2 252 2 2 252 2 2 252 2 2 252 2 2 252 2 2 252 2 2 252 2 2 252 2 2 252 2 2 252 2 2 252 3 2 251 3 2 251 3 2 251 3 2 251 3 2 251 3 2 251 3 2 251 3 2 251 3 2 251 3 2 251 3 2 251 3 2 251 3 2 251 3 2 251 3 2 251 3 2 251 3 2 251 2 2 252 2 2 252 2 2 252 2 2 252 2 2 252 2 2 252 2 2 252 2 2 252 2 2 252 2 2 252 2 2 252 2 2 252 2 2 252 2 2 252 2 2 252 2 2 252 2 2 252 2 2 252 2 2 252 2 2 252 2 2 252 2 2 252 2 2 252 3 2 251 3 2 251 3 3 251 3 3 251 3 3 251 3 3 251 3 3 251 3 3 251 3 3 251 3 3 251 3 3 251 3 3 251 3 3 251 3 3 251 3 3 251 3 2 251 3 2 251 3 2 251 3 2 251 3 2 251 3 2 251 3 3 251 3 3 251 3 3 251 3 3 251 3 3 251 3 3 251 3 3 251 3 3 251 3 2 251 3 2 251 2 2 252 2 2 252 2 2 252 2 2 252 2 2 252 2 2 252 2 2 252 3 2 251 3 2 251 3 3 251 3 3 251 3 3 251 3 3 251 3 3 251 3 3 251 3 3 251 3 3 251 3 2 251 3 2 251 3 2 251 3 2 251 3 2 251 3 2 251 3 3 251 3 3 251 3 3 251 3 3 251 3 3 251 3 3 251 3 3 251 3 3 251 3 3 251 3 3 251 3 3 251 3 3 251 3 3 251 3 2 251 3 2 251 2 2 252 2 2 252 2 2 252 2 2 252 2 2 252 2 2 252 2 2 252 2 2 252 2 2 252 2 2 252 2 2 252 2 2 252 2 2 252 2 2 252 2 2 252 2 2 252 2 2 252 2 2 252 2 2 252 2 2 252 2 2 252 2 2 252 2 2 252 3 2 251 3 2 251 3 2 251 3 2 251 3 2 251 3 2 251 3 2 251 3 2 251 3 2 251 3 2 251 3 2 251 3 2 251 3 2 251 3 2 251 3 2 251 3 2 251 3 2 251 2 2 252 2 2 252 2 2 252 2 2 252 2 2 252 2 2 252 2 2 252 2 2 252 2 2 252 2 2 252 2 2 252 2 2 252 2 2 252 2 2 252 2 2 252 2 2 252 
2 2 252 2 2 252 2 2 252 2 2 252 2 2 252 2 2 252 2 2 252 2 2 252 2 2 252 2 2 252 2 2 252 2 2 252 2 2 252 2 2 252 2 2 252 2 2 252 2 2 252 3 2 251 3 2 251 3 2 251 3 2 251 3 2 251 3 2 251 3 2 251 3 2 251 3 2 251 3 2 251 3 2 251 3 2 251 3 2 251 3 2 251 3 2 251 3 2 251 3 2 251 3 2 251 3 2 251 3 2 251 2 2 252 2 2 252 2 2 252 2 2 252 2 2 252 2 2 252 2 2 252 2 2 252 2 2 252 2 2 252 2 2 252 2 2 252 2 2 252 2 2 252 2 2 252 2 2 252 2 2 252 2 2 252 2 2 252 3 2 251 3 3 251 3 3 251 3 3 251 3 3 251 3 3 251 3 3 251 3 3 251 3 3 251 3 3 251 3 3 251 3 3 251 3 3 251 3 3 251 3 3 251 3 2 251 3 2 251 3 2 251 3 2 251 3 2 251 3 2 251 3 2 251 3 3 251 3 3 251 3 3 251 3 3 251 3 3 251 3 3 251 3 3 251 3 2 251 3 2 251 2 2 252 2 2 252 2 2 252 2 2 252 2 2 252 2 2 252 2 2 252 3 2 251 3 2 251 3 3 251 3 3 251 3 3 251 3 3 251 3 3 251 3 3 251 3 3 251 3 2 251 3 2 251 3 2 251 3 2 251 3 2 251 3 2 251 3 2 251 3 3 251 3 3 251 3 3 251 3 3 251 3 3 251 3 3 251 3 3 251 3 3 251 3 3 251 3 3 251 3 3 251 3 3 251 3 3 251 3 3 251 3 2 251 2 2 252 2 2 252 2 2 252 2 2 252 2 2 252 2 2 252 2 2 252 2 2 252 2 2 252 2 2 252 2 2 252 2 2 252 2 2 252 2 2 252 2 2 252 2 2 252 2 2 252 2 2 252 2 2 252 3 2 251 3 2 251 3 2 251 3 2 251 3 2 251 3 2 251 3 2 251 3 2 251 3 2 251 3 2 251 3 2 251 3 2 251 3 2 251 3 2 251 3 2 251 3 2 251 3 2 251 3 2 251 3 2 251 3 2 251 2 2 252 2 2 252 2 2 252 2 2 252 2 2 252 2 2 252 2 2 252 2 2 252 2 2 252 2 2 252 2 2 252 2 2 252 2 2 252 2 2 252 2 2 252 2 2 252 2 2 252 
2 2 252 2 2 252 2 2 252 2 2 252 2 2 252 2 2 252 2 2 252 2 2 252 2 2 252 2 2 252 2 2 252 2 2 252 2 2 252 2 2 252 2 2 252 2 2 252 2 2 252 2 2 252 3 2 251 3 2 251 3 2 251 3 2 251 3 2 251 3 2 251 3 2 251 3 2 251 3 2 251 3 3 251 3 3 251 3 2 251 3 2 251 3 2 251 3 2 251 3 2 251 3 2 251 3 2 251 3 2 251 3 2 251 3 2 251 3 2 251 2 2 252 2 2 252 2 2 252 2 2 252 2 2 252 2 2 252 2 2 252 2 2 252 2 2 252 2 2 252 2 2 252 2 2 252 2 2 252 2 2 252 2 2 252 3 2 251 3 2 251 3 3 251 3 3 251 3 3 251 3 3 251 3 3 251 3 3 251 3 3 251 3 3 251 3 3 251 3 3 251 3 3 251 3 3 251 3 3 251 3 3 251 3 2 251 3 2 251 2 2 252 2 2 252 2 2 252 2 2 252 3 2 251 3 2 251 3 2 251 3 3 251 3 3 251 3 3 251 3 3 251 3 2 251 3 2 251 3 2 251 2 2 252 2 2 252 2 2 252 2 2 252 2 2 252 2 2 252 2 2 252 3 2 251 3 2 251 3 2 251 3 3 251 3 3 251 3 3 251 3 3 251 3 2 251 3 2 251 3 2 251 2 2 252 2 2 252 2 2 252 2 2 252 3 2 251 3 2 251 3 3 251 3 3 251 3 3 251 3 3 251 3 3 251 3 3 251 3 3 251 3 3 251 3 3 251 3 3 251 3 3 251 3 3 251 3 3 251 3 3 251 3 2 251 3 2 251 2 2 252 2 2 252 2 2 252 2 2 252 2 2 252 2 2 252 2 2 252 2 2 252 2 2 252 2 2 252 2 2 252 2 2 252 2 2 252 2 2 252 2 2 252 3 2 251 3 2 251 3 2 251 3 2 251 3 2 251 3 2 251 3 2 251 3 2 251 3 2 251 3 2 251 3 2 251 3 3 251 3 3 251 3 2 251 3 2 251 3 2 251 3 2 251 3 2 251 3 2 251 3 2 251 3 2 251 3 2 251 2 2 252 2 2 252 2 2 252 2 2 252 2 2 252 2 2 252 2 2 252 2 2 252 2 2 252 2 2 252 2 2 252 2 2 252 2 2 252 2 2 252 2 2 252 2 2 252 2 2 252 2 2 252 
2 2 252 2 2 252 2 2 252 2 2 252 2 2 252 2 2 252 2 2 252 2 2 252 2 2 252 2 2 252 2 2 252 2 2 252 2 2 252 2 2 252 2 2 252 2 2 252 2 2 252 2 2 252 2 2 252 2 2 252 3 2 251 3 2 251 3 2 251 3 2 251 3 2 251 3 2 251 3 3 251 3 3 251 3 3 251 3 3 251 3 3 251 3 3 251 3 3 251 3 2 251 3 2 251 3 2 251 3 2 251 3 2 251 3 2 251 3 2 251 3 2 251 3 2 251 3 2 251 2 2 252 2 2 252 2 2 252 2 2 252 2 2 252 2 2 252 2 2 252 2 2 252 2 2 252 2 2 252 3 2 251 3 2 251 3 2 251 3 3 251 3 3 251 3 3 251 3 3 251 3 3 251 3 3 251 3 3 251 3 3 251 3 3 251 3 3 251 3 3 251 3 3 251 3 3 251 3 3 251 3 3 251 3 2 251 3 2 251 2 2 252 2 2 252 2 2 252 2 2 252 3 2 251 3 2 251 3 2 251 3 2 251 3 3 251 3 3 251 3 2 251 3 2 251 3 2 251 2 2 252 2 2 252 2 2 252 2 2 252 2 2 252 2 2 252 2 2 252 2 2 252 2 2 252 3 2 251 3 2 251 3 2 251 3 3 251 3 3 251 3 2 251 3 2 251 3 2 251 3 2 251 2 2 252 2 2 252 2 2 252 2 2 252 3 2 251 3 2 251 3 3 251 3 3 251 3 3 251 3 3 251 3 3 251 3 3 251 3 3 251 3 3 251 3 3 251 3 3 251 3 3 251 3 3 251 3 3 251 3 3 251 3 3 251 3 2 251 3 2 251 3 2 251 2 2 252 2 2 252 2 2 252 2 2 252 2 2 252 2 2 252 2 2 252 2 2 252 2 2 252 2 2 252 3 2 251 3 2 251 3 2 251 3 2 251 3 2 251 3 2 251 3 2 251 3 2 251 3 2 251 3 2 251 3 3 251 3 3 251 3 3 251 3 3 251 3 3 251 3 3 251 3 3 251 3 2 251 3 2 251 3 2 251 3 2 251 3 2 251 3 2 251 2 2 252 2 2 252 2 2 252 2 2 252 2 2 252 2 2 252 2 2 252 2 2 252 2 2 252 2 2 252 2 2 252 2 2 252 2 2 252 2 2 252 2 2 252 2 2 252 2 2 252 2 2 252 2 2 252 2 2 252 
2 2 252 2 2 252 2 2 252 2 2 252 2 2 252 2 2 252 2 2 252 2 2 252 2 2 252 2 2 252 2 2 252 2 2 252 2 2 252 2 2 252 2 2 252 2 2 252 2 2 252 2 2 252 2 2 252 2 2 252 2 2 252 3 2 251 3 2 251 3 2 251 3 2 251 3 2 251 3 3 251 3 3 251 3 3 251 3 3 251 3 3 251 3 3 251 3 3 251 3 3 251 3 3 251 3 2 251 3 2 251 3 2 251 3 2 251 3 2 251 3 2 251 3 2 251 3 2 251 3 2 251 3 2 251 3 2 251 3 2 251 2 2 252 2 2 252 2 2 252 3 2 251 3 2 251 3 2 251 3 2 251 3 2 251 3 3 251 3 3 251 3 3 251 3 3 251 3 3 251 3 3 251 3 3 251 3 3 251 3 3 251 3 3 251 3 3 251 3 3 251 3 3 251 3 3 251 3 3 251 3 3 251 3 2 251 2 2 252 2 2 252 2 2 252 2 2 252 2 2 252 2 2 252 3 2 251 3 2 251 3 2 251 3 2 251 3 3 251 3 2 251 3 2 251 3 2 251 2 2 252 2 2 252 2 2 252 2 2 252 2 2 252 2 2 252 2 2 252 2 2 252 2 2 252 3 2 251 3 2 251 3 2 251 3 3 251 3 2 251 3 2 251 3 2 251 3 2 251 2 2 252 2 2 252 2 2 252 2 2 252 2 2 252 2 2 252 3 2 251 3 3 251 3 3 251 3 3 251 3 3 251 3 3 251 3 3 251 3 3 251 3 3 251 3 3 251 3 3 251 3 3 251 3 3 251 3 3 251 3 3 251 3 3 251 3 3 251 3 2 251 3 2 251 3 2 251 3 2 251 3 2 251 2 2 252 2 2 252 2 2 252 3 2 251 3 2 251 3 2 251 3 2 251 3 2 251 3 2 251 3 2 251 3 2 251 3 2 251 3 2 251 3 2 251 3 2 251 3 3 251 3 3 251 3 3 251 3 3 251 3 3 251 3 3 251 3 3 251 3 3 251 3 3 251 3 2 251 3 2 251 3 2 251 3 2 251 3 2 251 2 2 252 2 2 252 2 2 252 2 2 252 2 2 252 2 2 252 2 2 252 2 2 252 2 2 252 2 2 252 2 2 252 2 2 252 2 2 252 2 2 252 2 2 252 2 2 252 2 2 252 2 2 252 2 2 252 2 2 252 2 2 252 
2 2 252 2 2 252 2 2 252 2 2 252 2 2 252 2 2 252 2 2 252 2 2 252 2 2 252 2 2 252 2 2 252 2 2 252 2 2 252 2 2 252 2 2 252 2 2 252 2 2 252 2 2 252 2 2 252 2 2 252 2 2 252 2 2 252 3 2 251 3 2 251 3 2 251 3 2 251 3 2 251 3 3 251 3 3 251 3 3 251 3 3 251 3 3 251 3 3 251 3 3 251 3 3 251 3 3 251 3 2 251 3 2 251 3 2 251 3 2 251 3 2 251 3 2 251 3 2 251 3 2 251 3 2 251 3 2 251 3 2 251 3 2 251 3 2 251 3 2 251 3 2 251 3 2 251 3 2 251 3 2 251 3 3 251 3 3 251 3 3 251 3 3 251 3 3 251 3 3 251 3 3 251 3 3 251 3 3 251 3 3 251 3 3 251 3 3 251 3 3 251 3 3 251 3 3 251 3 3 251 3 2 251 3 2 251 2 2 252 2 2 252 2 2 252 2 2 252 2 2 252 2 2 252 3 2 251 3 2 251 3 2 251 3 3 251 3 3 251 3 2 251 3 2 251 3 2 251 2 2 252 2 2 252 2 2 252 2 2 252 2 2 252 2 2 252 2 2 252 2 2 252 2 2 252 3 2 251 3 2 251 3 2 251 3 3 251 3 3 251 3 2 251 3 2 251 3 2 251 2 2 252 2 2 252 2 2 252 2 2 252 2 2 252 2 2 252 3 2 251 3 2 251 3 3 251 3 3 251 3 3 251 3 3 251 3 3 251 3 3 251 3 3 251 3 3 251 3 3 251 3 3 251 3 3 251 3 3 251 3 3 251 3 3 251 3 3 251 3 3 251 3 2 251 3 2 251 3 2 251 3 2 251 3 2 251 3 2 251 3 2 251 3 2 251 3 2 251 3 2 251 3 2 251 3 2 251 3 2 251 3 2 251 3 2 251 3 2 251 3 2 251 3 2 251 3 3 251 3 3 251 3 3 251 3 3 251 3 3 251 3 3 251 3 3 251 3 3 251 3 3 251 3 2 251 3 2 251 3 2 251 3 2 251 3 2 251 2 2 252 2 2 252 2 2 252 2 2 252 2 2 252 2 2 252 2 2 252 2 2 252 2 2 252 2 2 252 2 2 252 2 2 252 2 2 252 2 2 252 2 2 252 2 2 252 2 2 252 2 2 252 2 2 252 2 2 252 2 2 252 2 2 252 
2 2 252 2 2 252 2 2 252 2 2 252 2 2 252 2 2 252 2 2 252 2 2 252 2 2 252 2 2 252 2 2 252 2 2 252 2 2 252 2 2 252 2 2 252 2 2 252 2 2 252 2 2 252 2 2 252 2 2 252 2 2 252 2 2 252 2 2 252 3 2 251 3 2 251 3 2 251 3 2 251 3 2 251 3 3 251 3 3 251 3 3 251 3 3 251 3 3 251 3 3 251 3 3 251 3 3 251 3 3 251 3 2 251 3 2 251 3 2 251 3 2 251 3 2 251 3 2 251 3 2 251 3 2 251 3 2 251 3 2 251 3 2 251 3 2 251 3 2 251 3 2 251 3 2 251 3 3 251 3 3 251 3 3 251 3 3 251 3 3 251 3 3 251 3 3 251 3 3 251 3 3 251 3 3 251 3 3 251 3 3 251 3 3 251 3 3 251 3 3 251 3 3 251 3 3 251 3 3 251 3 2 251 2 2 252 2 2 252 2 2 252 2 2 252 2 2 252 2 2 252 2 2 252 3 2 251 3 2 251 3 3 251 3 3 251 3 3 251 3 3 251 3 2 251 3 2 251 3 2 251 2 2 252 2 2 252 2 2 252 2 2 252 2 2 252 2 2 252 2 2 252 3 2 251 3 2 251 3 2 251 3 3 251 3 3 251 3 3 251 3 3 251 3 2 251 3 2 251 2 2 252 2 2 252 2 2 252 2 2 252 2 2 252 2 2 252 2 2 252 3 2 251 3 3 251 3 3 251 3 3 251 3 3 251 3 3 251 3 3 251 3 3 251 3 3 251 3 3 251 3 3 251 3 3 251 3 3 251 3 3 251 3 3 251 3 3 251 3 3 251 3 3 251 3 3 251 3 2 251 3 2 251 3 2 251 3 2 251 3 2 251 3 2 251 3 2 251 3 2 251 3 2 251 3 2 251 3 2 251 3 2 251 3 2 251 3 2 251 3 2 251 3 3 251 3 3 251 3 3 251 3 3 251 3 3 251 3 3 251 3 3 251 3 3 251 3 3 251 3 2 251 3 2 251 3 2 251 3 2 251 3 2 251 2 2 252 2 2 252 2 2 252 2 2 252 2 2 252 2 2 252 2 2 252 2 2 252 2 2 252 2 2 252 2 2 252 2 2 252 2 2 252 2 2 252 2 2 252 2 2 252 2 2 252 2 2 252 2 2 252 2 2 252 2 2 252 2 2 252 2 2 252 
2 2 252 2 2 252 2 2 252 2 2 252 2 2 252 2 2 252 2 2 252 2 2 252 2 2 252 2 2 252 2 2 252 2 2 252 2 2 252 2 2 252 2 2 252 2 2 252 2 2 252 2 2 252 2 2 252 2 2 252 2 2 252 2 2 252 2 2 252 2 2 252 3 2 251 3 2 251 3 2 251 3 2 251 3 2 251 3 3 251 3 3 251 3 3 251 3 3 251 3 3 251 3 3 251 3 3 251 3 3 251 3 2 251 3 2 251 3 2 251 3 2 251 3 2 251 3 2 251 3 2 251 3 2 251 3 2 251 3 2 251 3 2 251 3 2 251 3 2 251 3 2 251 3 2 251 3 3 251 3 3 251 3 3 251 3 3 251 3 3 251 3 3 251 3 3 251 3 3 251 3 3 251 3 3 251 3 3 251 3 3 251 3 3 251 3 3 251 3 3 251 3 3 251 3 3 251 3 3 251 3 2 251 2 2 252 2 2 252 2 2 252 2 2 252 2 2 252 2 2 252 3 2 251 3 2 251 3 3 251 3 3 251 3 3 251 3 3 251 3 3 251 3 3 251 3 2 251 3 2 251 2 2 252 2 2 252 2 2 252 2 2 252 2 2 252 2 2 252 2 2 252 3 2 251 3 2 251 3 3 251 3 3 251 3 3 251 3 3 251 3 3 251 3 3 251 3 2 251 3 2 251 2 2 252 2 2 252 2 2 252 2 2 252 2 2 252 2 2 252 3 2 251 3 3 251 3 3 251 3 3 251 3 3 251 3 3 251 3 3 251 3 3 251 3 3 251 3 3 251 3 3 251 3 3 251 3 3 251 3 3 251 3 3 251 3 3 251 3 3 251 3 3 251 3 3 251 3 2 251 3 2 251 3 2 251 3 2 251 3 2 251 3 2 251 3 2 251 3 2 251 3 2 251 3 2 251 3 2 251 3 2 251 3 2 251 3 2 251 3 2 251 3 3 251 3 3 251 3 3 251 3 3 251 3 3 251 3 3 251 3 3 251 3 3 251 3 2 251 3 2 251 3 2 251 3 2 251 3 2 251 2 2 252 2 2 252 2 2 252 2 2 252 2 2 252 2 2 252 2 2 252 2 2 252 2 2 252 2 2 252 2 2 252 2 2 252 2 2 252 2 2 252 2 2 252 2 2 252 2 2 252 2 2 252 2 2 252 2 2 252 2 2 252 2 2 252 2 2 252 2 2 252 
2 2 252 2 2 252 2 2 252 2 2 252 2 2 252 2 2 252 2 2 252 2 2 252 2 2 252 2 2 252 2 2 252 2 2 252 2 2 252 2 2 252 2 2 252 2 2 252 2 2 252 2 2 252 2 2 252 2 2 252 2 2 252 2 2 252 2 2 252 2 2 252 2 2 252 3 2 251 3 2 251 3 2 251 3 2 251 3 2 251 3 3 251 3 3 251 3 3 251 3 3 251 3 3 251 3 3 251 3 2 251 3 2 251 3 2 251 3 2 251 3 2 251 3 2 251 3 2 251 3 2 251 3 2 251 3 2 251 3 2 251 3 2 251 3 2 251 3 2 251 3 2 251 3 3 251 3 3 251 3 3 251 3 3 251 3 3 251 3 3 251 3 3 251 3 3 251 3 3 251 3 3 251 3 3 251 3 3 251 3 3 251 3 3 251 3 3 251 3 3 251 3 3 251 3 3 251 3 2 251 3 2 251 2 2 252 2 2 252 2 2 252 2 2 252 2 2 252 2 2 252 3 2 251 3 2 251 3 3 251 3 3 251 3 3 251 3 3 251 3 3 251 3 3 251 3 2 251 3 2 251 2 2 252 2 2 252 2 2 252 2 2 252 2 2 252 2 2 252 2 2 252 3 2 251 3 2 251 3 3 251 3 3 251 3 3 251 3 3 251 3 3 251 3 3 251 3 2 251 3 2 251 2 2 252 2 2 252 2 2 252 2 2 252 2 2 252 2 2 252 3 2 251 3 2 251 3 3 251 3 3 251 3 3 251 3 3 251 3 3 251 3 3 251 3 3 251 3 3 251 3 3 251 3 3 251 3 3 251 3 3 251 3 3 251 3 3 251 3 3 251 3 3 251 3 3 251 3 3 251 3 2 251 3 2 251 3 2 251 3 2 251 3 2 251 3 2 251 3 2 251 3 2 251 3 2 251 3 2 251 3 2 251 3 2 251 3 2 251 3 2 251 3 2 251 3 3 251 3 3 251 3 3 251 3 3 251 3 3 251 3 3 251 3 2 251 3 2 251 3 2 251 3 2 251 3 2 251 2 2 252 2 2 252 2 2 252 2 2 252 2 2 252 2 2 252 2 2 252 2 2 252 2 2 252 2 2 252 2 2 252 2 2 252 2 2 252 2 2 252 2 2 252 2 2 252 2 2 252 2 2 252 2 2 252 2 2 252 2 2 252 2 2 252 2 2 252 2 2 252 2 2 252 
