P3
181 181
255
118 111 136 118 111 136 118 111 136 118 111 136 118 111 136 118 111 136 118 111 136 118 111 136 118 111 136 118 111 136 119 112 135 119 112 135 119 112 135 119 112 135 119 112 135 119 112 135 119 112 135 119 112 135 119 112 135 118 111 136 118 111 136 118 111 136 118 111 136 118 111 136 118 111 136 118 111 136 118 111 136 118 111 136 118 111 136 118 111 136 118 111 136 118 111 136 118 111 136 118 111 136 118 111 136 118 111 136 118 111 136 118 111 136 118 111 136 118 111 136 118 111 136 118 111 136 118 111 136 118 111 136 118 111 136 118 111 136 118 111 136 118 111 136 118 111 136 118 111 136 118 111 136 118 111 136 118 111 136 118 111 136 118 111 136 118 111 136 118 111 136 118 111 136 118 111 136 118 111 136 118 111 136 118 111 136 118 111 136 118 111 136 119 112 135 119 112 135 119 112 135 119 112 135 119 112 135 119 112 135 119 112 135 119 112 135 119 112 135 119 112 135 118 111 136 118 111 136 118 111 136 118 111 136 118 111 136 118 111 136 118 111 136 118 111 136 118 111 136 118 111 136 118 111 136 118 111 136 118 111 136 118 111 136 118 111 136 118 111 136 118 111 136 118 111 136 118 111 136 119 112 135 119 112 135 119 112 135 120 112 134 120 113 134 120 113 134 121 113 133 121 114 133 121 114 133 121 114 133 121 114 133 121 114 133 121 114 133 121 114 133 121 113 133 120 113 134 120 113 134 120 113 134 120 112 134 119 112 135 119 112 135 119 112 135 119 112 135 119 112 135 119 112 135 118 111 136 118 111 136 118 111 136 118 111 136 118 111 136 118 111 136 118 111 136 118 111 136 118 111 136 118 111 136 118 111 136 118 111 136 118 111 136 118 111 136 118 111 136 118 111 136 118 111 136 118 111 136 118 111 136 118 111 136 118 111 136 118 111 136 118 111 136 118 111 136 118 111 136 118 111 136 118 111 136 118 111 136 118 111 136 118 111 136 118 111 136 118 111 136 118 111 136 118 111 136 118 111 136 118 111 136 118 111 136 119 112 135 119 112 135 119 112 135 119 112 135 119 112 135 119 112 135 119 112 135 119 112 135 119 112 135 119 112 135 119 112 135 119 112 135 119 112 135 119 112 135 118 111 136 118 111 136 118 111 136 118 111 136 118 111 136 118 111 136 118 111 136 118 111 136 118 111 136 118 111 136 118 111 136 118 111 136 
118 111 136 118 111 136 118 111 136 118 111 136 118 111 136 118 111 136 118 111 136 118 111 136 118 111 136 118 111 136 119 112 135 119 112 135 119 112 135 119 112 135 119 112 135 119 112 135 119 112 135 119 112 135 119 112 135 118 111 136 118 111 136 118 111 136 118 111 136 118 111 136 118 111 136 118 111 136 118 111 136 118 111 136 118 111 136 118 111 136 118 111 136 118 111 136 118 111 136 118 111 136 118 111 136 118 111 136 118 111 136 118 111 136 118 111 136 118 111 136 118 111 136 118 111 136 118 111 136 118 111 136 118 111 136 118 111 136 118 111 136 118 111 136 118 111 136 118 111 136 118 111 136 118 111 136 118 111 136 118 111 136 118 111 136 118 111 136 118 111 136 118 111 136 118 111 136 118 111 136 118 111 136 118 111 136 118 111 136 119 112 135 119 112 135 119 112 135 119 112 135 119 112 135 119 112 135 119 112 135 119 112 135 119 112 135 119 112 135 119 112 135 118 111 136 118 111 136 118 111 136 118 111 136 118 111 136 118 111 136 118 111 136 118 111 136 118 111 136 118 111 136 118 111 136 118 111 136 118 111 136 118 111 136 118 111 136 118 111 136 118 111 136 118 111 136 119 112 135 119 112 135 119 112 135 119 112 135 120 113 134 120 113 134 120 113 134 121 114 133 121 114 133 121 114 133 121 114 133 121 114 133 121 114 133 121 114 133 121 114 133 121 114 133 120 113 134 120 113 134 120 113 134 120 113 134 119 112 135 119 112 135 119 112 135 119 112 135 119 112 135 119 112 135 119 112 135 119 112 135 118 111 136 118 111 136 118 111 136 118 111 136 118 111 136 118 111 136 118 111 136 118 111 136 118 111 136 118 111 136 118 111 136 118 111 136 118 111 136 118 111 136 118 111 136 118 111 136 118 111 136 118 111 136 118 111 136 118 111 136 118 111 136 118 111 136 118 111 136 118 111 136 118 111 136 118 111 136 118 111 136 118 111 136 118 111 136 118 111 136 118 111 136 118 111 136 118 111 136 118 111 136 118 111 136 119 112 135 119 112 135 119 112 135 119 112 135 119 112 135 119 112 135 119 112 135 119 112 135 119 112 135 119 112 135 119 112 135 119 112 135 119 112 135 119 112 135 119 112 135 118 111 136 118 111 136 118 111 136 118 111 136 118 111 136 118 111 136 118 111 136 118 111 136 118 111 136 118 111 136 118 111 136 
118 111 136 118 111 136 118 111 136 118 111 136 118 111 136 118 111 136 118 111 136 118 111 136 118 111 136 118 111 136 119 112 135 119 112 135 119 112 135 119 112 135 119 112 135 119 112 135 119 112 135 119 112 135 118 111 136 118 111 136 118 111 136 118 111 136 118 111 136 118 111 136 118 111 136 118 111 136 118 111 136 118 111 136 118 111 136 118 111 136 118 111 136 118 111 136 118 111 136 118 111 136 118 111 136 118 111 136 118 111 136 118 111 136 118 111 136 118 111 136 118 111 136 118 111 136 118 111 136 118 111 136 118 111 136 118 111 136 118 111 136 118 111 136 119 112 135 119 112 135 119 112 135 119 112 135 118 111 136 118 111 136 118 111 136 118 111 136 118 111 136 118 111 136 118 111 136 118 111 136 118 111 136 118 111 136 118 111 136 119 112 135 119 112 135 119 112 135 119 112 135 119 112 135 119 112 135 119 112 135 119 112 135 119 112 135 119 112 135 119 112 135 119 112 135 118 111 136 118 111 136 118 111 136 118 111 136 118 111 136 118 111 136 118 111 136 118 111 136 118 111 136 118 111 136 118 111 136 118 111 136 118 111 136 118 111 136 118 111 136 118 111 136 119 112 135 119 112 135 119 112 135 119 112 135 120 113 134 120 113 134 120 113 134 121 113 133 121 114 133 121 114 133 121 114 133 121 114 133 121 114 133 121 114 133 121 114 133 121 114 133 121 114 133 120 113 134 120 113 134 120 113 134 120 113 134 119 112 135 119 112 135 119 112 135 119 112 135 119 112 135 119 112 135 119 112 135 119 112 135 119 112 135 118 111 136 118 111 136 118 111 136 118 111 136 118 111 136 118 111 136 118 111 136 118 111 136 118 111 136 118 111 136 118 111 136 118 111 136 118 111 136 118 111 136 118 111 136 118 111 136 118 111 136 118 111 136 118 111 136 118 111 136 118 111 136 118 111 136 118 111 136 118 111 136 118 111 136 118 111 136 118 111 136 118 111 136 118 111 136 118 111 136 118 111 136 118 111 136 118 111 136 118 111 136 118 111 136 119 112 135 119 112 135 119 112 135 119 112 135 119 112 135 119 112 135 119 112 135 119 112 135 119 112 135 119 112 135 119 112 135 119 112 135 119 112 135 119 112 135 119 112 135 118 111 136 118 111 136 118 111 136 118 111 136 118 111 136 118 111 136 118 111 136 118 111 136 118 111 136 118 111 136 
118 111 136 118 111 136 118 111 136 118 111 136 118 111 136 118 111 136 118 111 136 118 111 136 118 111 136 118 111 136 119 112 135 119 112 135 119 112 135 119 112 135 119 112 135 119 112 135 119 112 135 118 111 136 118 111 136 118 111 136 118 111 136 118 111 136 118 111 136 118 111 136 118 111 136 118 111 136 118 111 136 118 111 136 118 111 136 118 111 136 118 111 136 118 111 136 118 111 136 118 111 136 118 111 136 118 111 136 118 111 136 118 111 136 118 111 136 118 111 136 118 111 136 118 111 136 118 111 136 118 111 136 118 111 136 118 111 136 118 111 136 119 112 135 119 112 135 119 112 135 119 112 135 119 112 135 119 112 135 118 111 136 118 111 136 118 111 136 118 111 136 118 111 136 118 111 136 118 111 136 118 111 136 118 111 136 119 112 135 119 112 135 119 112 135 119 112 135 119 112 135 120 113 134 120 113 134 120 113 134 120 112 134 119 112 135 119 112 135 119 112 135 119 112 135 118 111 136 118 111 136 118 111 136 118 111 136 118 111 136 118 111 136 118 111 136 118 111 136 118 111 136 118 111 136 118 111 136 118 111 136 118 111 136 118 111 136 118 111 136 119 112 135 119 112 135 119 112 135 119 112 135 120 112 134 120 113 134 120 113 134 120 113 134 121 114 133 121 114 133 121 114 133 121 114 133 121 114 133 121 114 133 121 114 133 121 114 133 121 114 133 121 113 133 120 113 134 120 113 134 120 113 134 120 113 134 119 112 135 119 112 135 119 112 135 119 112 135 119 112 135 119 112 135 119 112 135 119 112 135 119 112 135 119 112 135 118 111 136 118 111 136 118 111 136 118 111 136 118 111 136 118 111 136 118 111 136 118 111 136 118 111 136 118 111 136 118 111 136 118 111 136 118 111 136 118 111 136 118 111 136 118 111 136 118 111 136 118 111 136 118 111 136 118 111 136 118 111 136 118 111 136 118 111 136 118 111 136 118 111 136 118 111 136 118 111 136 118 111 136 118 111 136 118 111 136 118 111 136 118 111 136 118 111 136 118 111 136 118 111 136 119 112 135 119 112 135 119 112 135 119 112 135 119 112 135 119 112 135 119 112 135 119 112 135 119 112 135 119 112 135 119 112 135 119 112 135 119 112 135 119 112 135 118 111 136 118 111 136 118 111 136 118 111 136 118 111 136 118 111 136 118 111 136 118 111 136 118 111 136 118 111 136 
118 111 136 118 111 136 118 111 136 118 111 136 118 111 136 118 111 136 118 111 136 118 111 136 118 111 136 118 111 136 119 112 135 119 112 135 119 112 135 119 112 135 119 112 135 119 112 135 118 111 136 118 111 136 118 111 136 118 111 136 118 111 136 118 111 136 118 111 136 118 111 136 118 111 136 118 111 136 118 111 136 118 111 136 118 111 136 118 111 136 118 111 136 118 111 136 118 111 136 118 111 136 118 111 136 118 111 136 118 111 136 118 111 136 118 111 136 118 111 136 118 111 136 118 111 136 118 111 136 118 111 136 118 111 136 118 111 136 119 112 135 119 112 135 119 112 135 119 112 135 119 112 135 119 112 135 119 112 135 119 112 135 118 111 136 118 111 136 118 111 136 118 111 136 118 111 136 118 111 136 118 111 136 118 111 136 119 112 135 119 112 135 119 112 135 119 112 135 120 113 134 120 113 134 120 113 134 120 113 134 120 113 134 120 112 134 119 112 135 119 112 135 119 112 135 119 112 135 118 111 136 118 111 136 118 111 136 118 111 136 118 111 136 118 111 136 118 111 136 118 111 136 118 111 136 118 111 136 118 111 136 118 111 136 118 111 136 118 111 136 119 112 135 119 112 135 119 112 135 119 112 135 120 113 134 120 113 134 120 113 134 121 113 133 121 114 133 121 114 133 121 114 133 121 114 133 121 114 133 121 114 133 121 114 133 121 114 133 121 114 133 120 113 134 120 113 134 120 113 134 120 113 134 120 112 134 119 112 135 119 112 135 119 112 135 119 112 135 119 112 135 119 112 135 119 112 135 119 112 135 119 112 135 119 112 135 118 111 136 118 111 136 118 111 136 118 111 136 118 111 136 118 111 136 118 111 136 118 111 136 118 111 136 118 111 136 118 111 136 118 111 136 118 111 136 118 111 136 118 111 136 118 111 136 118 111 136 118 111 136 118 111 136 118 111 136 118 111 136 118 111 136 118 111 136 118 111 136 118 111 136 118 111 136 118 111 136 118 111 136 118 111 136 118 111 136 118 111 136 118 111 136 118 111 136 118 111 136 118 111 136 118 111 136 119 112 135 119 112 135 119 112 135 119 112 135 119 112 135 119 112 135 119 112 135 119 112 135 119 112 135 119 112 135 119 112 135 119 112 135 119 112 135 119 112 135 118 111 136 118 111 136 118 111 136 118 111 136 118 111 136 118 111 136 118 111 136 118 111 136 118 111 136 
118 111 136 118 111 136 118 111 136 118 111 136 118 111 136 118 111 136 118 111 136 118 111 136 118 111 136 118 111 136 119 112 135 119 112 135 119 112 135 119 112 135 119 112 135 118 111 136 118 111 136 118 111 136 118 111 136 118 111 136 118 111 136 118 111 136 118 111 136 118 111 136 118 111 136 118 111 136 118 111 136 118 111 136 118 111 136 118 111 136 118 111 136 118 111 136 118 111 136 118 111 136 118 111 136 118 111 136 118 111 136 118 111 136 118 111 136 118 111 136 118 111 136 118 111 136 118 111 136 118 111 136 118 111 136 118 111 136 119 112 135 119 112 135 119 112 135 119 112 135 119 112 135 119 112 135 119 112 135 119 112 135 118 111 136 118 111 136 118 111 136 118 111 136 118 111 136 118 111 136 118 111 136 118 111 136 119 112 135 119 112 135 119 112 135 120 112 134 120 113 134 120 113 134 120 113 134 120 113 134 120 113 134 120 113 134 120 112 134 119 112 135 119 112 135 119 112 135 118 111 136 118 111 136 118 111 136 118 111 136 118 111 136 118 111 136 118 111 136 118 111 136 118 111 136 118 111 136 118 111 136 118 111 136 118 111 136 118 111 136 119 112 135 119 112 135 119 112 135 119 112 135 120 113 134 120 113 134 120 113 134 121 114 133 121 114 133 121 114 133 121 114 133 121 114 133 121 114 133 121 114 133 121 114 133 121 114 133 121 113 133 120 113 134 120 113 134 120 113 134 120 113 134 119 112 135 119 112 135 119 112 135 119 112 135 119 112 135 119 112 135 119 112 135 119 112 135 119 112 135 119 112 135 119 112 135 119 112 135 118 111 136 118 111 136 118 111 136 118 111 136 118 111 136 118 111 136 118 111 136 118 111 136 118 111 136 118 111 136 118 111 136 118 111 136 118 111 136 118 111 136 118 111 136 118 111 136 118 111 136 118 111 136 118 111 136 118 111 136 118 111 136 118 111 136 118 111 136 118 111 136 118 111 136 118 111 136 118 111 136 118 111 136 118 111 136 118 111 136 118 111 136 118 111 136 118 111 136 118 111 136 118 111 136 118 111 136 119 112 135 119 112 135 119 112 135 119 112 135 119 112 135 119 112 135 119 112 135 119 112 135 119 112 135 119 112 135 119 112 135 119 112 135 119 112 135 119 112 135 118 111 136 118 111 136 118 111 136 118 111 136 118 111 136 118 111 136 118 111 136 118 111 136 
118 111 136 118 111 136 118 111 136 118 111 136 118 111 136 118 111 136 118 111 136 118 111 136 118 111 136 118 111 136 119 112 135 119 112 135 119 112 135 119 112 135 119 112 135 118 111 136 118 111 136 118 111 136 118 111 136 118 111 136 118 111 136 118 111 136 118 111 136 118 111 136 118 111 136 118 111 136 118 111 136 118 111 136 118 111 136 118 111 136 119 112 135 119 112 135 119 112 135 118 111 136 118 111 136 118 111 136 118 111 136 118 111 136 118 111 136 118 111 136 118 111 136 118 111 136 118 111 136 118 111 136 118 111 136 119 112 135 119 112 135 119 112 135 119 112 135 119 112 135 119 112 135 119 112 135 119 112 135 119 112 135 119 112 135 118 111 136 118 111 136 118 111 136 118 111 136 118 111 136 118 111 136 118 111 136 119 112 135 119 112 135 119 112 135 120 113 134 120 113 134 120 113 134 120 113 134 120 113 134 120 113 134 120 113 134 120 113 134 119 112 135 119 112 135 119 112 135 119 112 135 118 111 136 118 111 136 118 111 136 118 111 136 118 111 136 118 111 136 118 111 136 118 111 136 118 111 136 118 111 136 118 111 136 118 111 136 118 111 136 119 112 135 119 112 135 119 112 135 119 112 135 120 113 134 120 113 134 120 113 134 121 114 133 121 114 133 121 114 133 121 114 133 121 114 133 121 114 133 121 114 133 121 114 133 121 113 133 120 113 134 120 113 134 120 113 134 120 113 134 119 112 135 119 112 135 119 112 135 119 112 135 119 112 135 119 112 135 119 112 135 119 112 135 119 112 135 119 112 135 119 112 135 119 112 135 119 112 135 118 111 136 118 111 136 118 111 136 118 111 136 118 111 136 118 111 136 118 111 136 118 111 136 118 111 136 118 111 136 118 111 136 118 111 136 118 111 136 118 111 136 118 111 136 118 111 136 118 111 136 118 111 136 118 111 136 118 111 136 118 111 136 118 111 136 118 111 136 118 111 136 118 111 136 118 111 136 118 111 136 118 111 136 118 111 136 118 111 136 118 111 136 118 111 136 118 111 136 118 111 136 118 111 136 118 111 136 118 111 136 119 112 135 119 112 135 119 112 135 119 112 135 119 112 135 119 112 135 119 112 135 119 112 135 119 112 135 119 112 135 119 112 135 119 112 135 119 112 135 119 112 135 118 111 136 118 111 136 118 111 136 118 111 136 118 111 136 118 111 136 118 111 136 
118 111 136 118 111 136 118 111 136 118 111 136 118 111 136 118 111 136 118 111 136 118 111 136 118 111 136 118 111 136 119 112 135 119 112 135 119 112 135 119 112 135 118 111 136 118 111 136 118 111 136 118 111 136 118 111 136 118 111 136 118 111 136 118 111 136 118 111 136 118 111 136 118 111 136 118 111 136 118 111 136 118 111 136 118 111 136 119 112 135 119 112 135 119 112 135 119 112 135 119 112 135 118 111 136 118 111 136 118 111 136 118 111 136 118 111 136 118 111 136 118 111 136 118 111 136 118 111 136 118 111 136 118 111 136 119 112 135 119 112 135 119 112 135 119 112 135 119 112 135 119 112 135 119 112 135 119 112 135 119 112 135 119 112 135 118 111 136 118 111 136 118 111 136 118 111 136 118 111 136 118 111 136 119 112 135 119 112 135 119 112 135 119 112 135 120 113 134 120 113 134 120 113 134 120 113 134 120 113 134 120 113 134 120 113 134 120 113 134 120 113 134 119 112 135 119 112 135 119 112 135 119 112 135 118 111 136 118 111 136 118 111 136 118 111 136 118 111 136 118 111 136 118 111 136 118 111 136 118 111 136 118 111 136 118 111 136 118 111 136 119 112 135 119 112 135 119 112 135 119 112 135 120 113 134 120 113 134 120 113 134 121 113 133 121 114 133 121 114 133 121 114 133 121 114 133 121 114 133 121 114 133 121 113 133 120 113 134 120 113 134 120 113 134 120 113 134 119 112 135 119 112 135 119 112 135 119 112 135 119 112 135 119 112 135 119 112 135 119 112 135 119 112 135 119 112 135 119 112 135 119 112 135 119 112 135 119 112 135 119 112 135 118 111 136 118 111 136 118 111 136 118 111 136 118 111 136 118 111 136 118 111 136 118 111 136 118 111 136 118 111 136 118 111 136 118 111 136 118 111 136 118 111 136 118 111 136 118 111 136 118 111 136 118 111 136 118 111 136 118 111 136 118 111 136 118 111 136 118 111 136 118 111 136 118 111 136 118 111 136 118 111 136 118 111 136 118 111 136 118 111 136 118 111 136 118 111 136 118 111 136 118 111 136 118 111 136 118 111 136 119 112 135 119 112 135 119 112 135 119 112 135 119 112 135 119 112 135 119 112 135 119 112 135 119 112 135 119 112 135 119 112 135 119 112 135 119 112 135 119 112 135 119 112 135 118 111 136 118 111 136 118 111 136 118 111 136 118 111 136 118 111 136 
118 111 136 118 111 136 118 111 136 118 111 136 118 111 136 118 111 136 118 111 136 118 111 136 118 111 136 118 111 136 119 112 135 119 112 135 119 112 135 118 111 136 118 111 136 118 111 136 118 111 136 118 111 136 118 111 136 118 111 136 118 111 136 118 111 136 118 111 136 118 111 136 118 111 136 118 111 136 118 111 136 118 111 136 119 112 135 119 112 135 119 112 135 119 112 135 119 112 135 119 112 135 118 111 136 118 111 136 118 111 136 118 111 136 118 111 136 118 111 136 118 111 136 118 111 136 118 111 136 118 111 136 118 111 136 119 112 135 119 112 135 119 112 135 119 112 135 119 112 135 119 112 135 119 112 135 119 112 135 119 112 135 119 112 135 118 111 136 118 111 136 118 111 136 118 111 136 118 111 136 118 111 136 119 112 135 119 112 135 119 112 135 119 112 135 120 113 134 120 113 134 120 113 134 120 113 134 120 113 134 120 113 134 120 113 134 120 113 134 120 113 134 120 113 134 119 112 135 119 112 135 119 112 135 119 112 135 118 111 136 118 111 136 118 111 136 118 111 136 118 111 136 118 111 136 118 111 136 118 111 136 118 111 136 118 111 136 118 111 136 119 112 135 119 112 135 119 112 135 119 112 135 120 113 134 120 113 134 120 113 134 120 113 134 121 113 133 121 114 133 121 114 133 121 114 133 121 114 133 121 113 133 120 113 134 120 113 134 120 113 134 120 113 134 119 112 135 119 112 135 119 112 135 119 112 135 119 112 135 119 112 135 119 112 135 119 112 135 119 112 135 119 112 135 119 112 135 119 112 135 119 112 135 119 112 135 119 112 135 119 112 135 118 111 136 118 111 136 118 111 136 118 111 136 118 111 136 118 111 136 118 111 136 118 111 136 118 111 136 118 111 136 118 111 136 118 111 136 118 111 136 118 111 136 118 111 136 118 111 136 118 111 136 118 111 136 118 111 136 118 111 136 118 111 136 118 111 136 118 111 136 118 111 136 118 111 136 118 111 136 118 111 136 118 111 136 118 111 136 118 111 136 118 111 136 118 111 136 118 111 136 118 111 136 118 111 136 118 111 136 118 111 136 119 112 135 119 112 135 119 112 135 119 112 135 119 112 135 119 112 135 119 112 135 119 112 135 119 112 135 119 112 135 119 112 135 119 112 135 119 112 135 119 112 135 118 111 136 118 111 136 118 111 136 118 111 136 118 111 136 118 111 136 
118 111 136 118 111 136 118 111 136 118 111 136 118 111 136 118 111 136 118 111 136 118 111 136 118 111 136 118 111 136 118 111 136 119 112 135 119 112 135 118 111 136 118 111 136 118 111 136 118 111 136 118 111 136 118 111 136 118 111 136 118 111 136 118 111 136 118 111 136 118 111 136 118 111 136 118 111 136 118 111 136 118 111 136 119 112 135 119 112 135 119 112 135 119 112 135 119 112 135 119 112 135 118 111 136 118 111 136 118 111 136 118 111 136 118 111 136 118 111 136 118 111 136 118 111 136 118 111 136 118 111 136 118 111 136 119 112 135 119 112 135 119 112 135 119 112 135 119 112 135 119 112 135 119 112 135 119 112 135 119 112 135 119 112 135 118 111 136 118 111 136 118 111 136 118 111 136 118 111 136 118 111 136 119 112 135 119 112 135 119 112 135 119 112 135 120 113 134 120 113 134 120 113 134 120 113 134 120 113 134 120 113 134 120 113 134 120 113 134 120 113 134 120 113 134 119 112 135 119 112 135 119 112 135 119 112 135 119 112 135 118 111 136 118 111 136 118 111 136 118 111 136 118 111 136 118 111 136 118 111 136 118 111 136 118 111 136 118 111 136 118 111 136 119 112 135 119 112 135 119 112 135 119 112 135 120 113 134 120 113 134 120 113 134 120 113 134 120 113 134 121 113 133 120 113 134 120 113 134 120 113 134 120 113 134 120 113 134 120 113 134 119 112 135 119 112 135 119 112 135 119 112 135 119 112 135 119 112 135 119 112 135 119 112 135 119 112 135 119 112 135 119 112 135 119 112 135 119 112 135 119 112 135 119 112 135 119 112 135 119 112 135 118 111 136 118 111 136 118 111 136 118 111 136 118 111 136 118 111 136 118 111 136 118 111 136 118 111 136 118 111 136 118 111 136 118 111 136 118 111 136 118 111 136 118 111 136 118 111 136 118 111 136 118 111 136 118 111 136 118 111 136 118 111 136 118 111 136 118 111 136 118 111 136 118 111 136 118 111 136 118 111 136 118 111 136 118 111 136 118 111 136 118 111 136 118 111 136 118 111 136 118 111 136 118 111 136 118 111 136 118 111 136 118 111 136 119 112 135 119 112 135 119 112 135 119 112 135 119 112 135 119 112 135 119 112 135 119 112 135 119 112 135 119 112 135 119 112 135 119 112 135 119 112 135 119 112 135 118 111 136 118 111 136 118 111 136 118 111 136 118 111 136 
118 111 136 118 111 136 118 111 136 118 111 136 118 111 136 118 111 136 118 111 136 118 111 136 118 111 136 118 111 136 118 111 136 118 111 136 118 111 136 118 111 136 118 111 136 118 111 136 118 111 136 118 111 136 118 111 136 118 111 136 118 111 136 118 111 136 118 111 136 118 111 136 118 111 136 118 111 136 118 111 136 118 111 136 119 112 135 119 112 135 119 112 135 119 112 135 119 112 135 119 112 135 118 111 136 118 111 136 118 111 136 118 111 136 118 111 136 118 111 136 118 111 136 118 111 136 118 111 136 118 111 136 118 111 136 119 112 135 119 112 135 119 112 135 119 112 135 119 112 135 119 112 135 119 112 135 119 112 135 119 112 135 119 112 135 118 111 136 118 111 136 118 111 136 118 111 136 118 111 136 118 111 136 119 112 135 119 112 135 119 112 135 119 112 135 120 113 134 120 113 134 120 113 134 120 113 134 121 113 133 121 113 133 120 113 134 120 113 134 120 113 134 120 113 134 120 112 134 119 112 135 119 112 135 119 112 135 119 112 135 118 111 136 118 111 136 118 111 136 118 111 136 118 111 136 118 111 136 118 111 136 118 111 136 118 111 136 118 111 136 118 111 136 119 112 135 119 112 135 119 112 135 119 112 135 119 112 135 120 113 134 120 113 134 120 113 134 120 113 134 120 113 134 120 113 134 120 113 134 120 113 134 120 113 134 120 113 134 119 112 135 119 112 135 119 112 135 119 112 135 119 112 135 119 112 135 119 112 135 119 112 135 119 112 135 119 112 135 119 112 135 119 112 135 119 112 135 119 112 135 119 112 135 119 112 135 119 112 135 119 112 135 119 112 135 118 111 136 118 111 136 118 111 136 118 111 136 118 111 136 118 111 136 118 111 136 118 111 136 118 111 136 118 111 136 118 111 136 118 111 136 118 111 136 118 111 136 118 111 136 118 111 136 118 111 136 118 111 136 118 111 136 118 111 136 118 111 136 118 111 136 118 111 136 118 111 136 118 111 136 118 111 136 118 111 136 118 111 136 118 111 136 118 111 136 118 111 136 118 111 136 118 111 136 118 111 136 118 111 136 118 111 136 118 111 136 118 111 136 119 112 135 119 112 135 119 112 135 119 112 135 119 112 135 119 112 135 119 112 135 119 112 135 119 112 135 119 112 135 119 112 135 119 112 135 119 112 135 119 112 135 118 111 136 118 111 136 118 111 136 118 111 136 
118 111 136 118 111 136 118 111 136 118 111 136 118 111 136 118 111 136 118 111 136 118 111 136 118 111 136 118 111 136 118 111 136 118 111 136 118 111 136 118 111 136 118 111 136 118 111 136 118 111 136 118 111 136 118 111 136 118 111 136 118 111 136 118 111 136 118 111 136 118 111 136 118 111 136 118 111 136 118 111 136 118 111 136 118 111 136 119 112 135 119 112 135 119 112 135 119 112 135 118 111 136 118 111 136 118 111 136 118 111 136 118 111 136 118 111 136 118 111 136 118 111 136 118 111 136 118 111 136 118 111 136 118 111 136 119 112 135 119 112 135 119 112 135 119 112 135 119 112 135 119 112 135 119 112 135 119 112 135 119 112 135 119 112 135 118 111 136 118 111 136 118 111 136 118 111 136 118 111 136 118 111 136 119 112 135 119 112 135 119 112 135 119 112 135 120 113 134 120 113 134 120 113 134 120 113 134 121 113 133 121 113 133 120 113 134 120 113 134 120 113 134 120 113 134 120 113 134 119 112 135 119 112 135 119 112 135 119 112 135 119 112 135 118 111 136 118 111 136 118 111 136 118 111 136 118 111 136 118 111 136 118 111 136 118 111 136 118 111 136 118 111 136 118 111 136 119 112 135 119 112 135 119 112 135 119 112 135 119 112 135 120 113 134 120 113 134 120 113 134 120 113 134 120 113 134 120 113 134 120 113 134 120 113 134 119 112 135 119 112 135 119 112 135 119 112 135 119 112 135 119 112 135 119 112 135 118 111 136 118 111 136 118 111 136 119 112 135 119 112 135 119 112 135 119 112 135 119 112 135 119 112 135 119 112 135 119 112 135 119 112 135 119 112 135 119 112 135 118 111 136 118 111 136 118 111 136 118 111 136 118 111 136 118 111 136 118 111 136 118 111 136 118 111 136 118 111 136 118 111 136 118 111 136 118 111 136 118 111 136 118 111 136 118 111 136 118 111 136 118 111 136 118 111 136 118 111 136 118 111 136 118 111 136 118 111 136 118 111 136 118 111 136 118 111 136 118 111 136 118 111 136 118 111 136 118 111 136 118 111 136 118 111 136 118 111 136 118 111 136 118 111 136 118 111 136 118 111 136 118 111 136 118 111 136 118 111 136 119 112 135 119 112 135 119 112 135 119 112 135 119 112 135 119 112 135 119 112 135 119 112 135 119 112 135 119 112 135 119 112 135 118 111 136 118 111 136 118 111 136 118 111 136 
118 111 136 118 111 136 118 111 136 118 111 136 118 111 136 118 111 136 118 111 136 118 111 136 118 111 136 118 111 136 118 111 136 118 111 136 118 111 136 118 111 136 118 111 136 118 111 136 118 111 136 118 111 136 118 111 136 118 111 136 118 111 136 118 111 136 118 111 136 118 111 136 118 111 136 118 111 136 118 111 136 118 111 136 118 111 136 118 111 136 118 111 136 118 111 136 118 111 136 118 111 136 118 111 136 118 111 136 118 111 136 118 111 136 118 111 136 118 111 136 118 111 136 118 111 136 118 111 136 118 111 136 118 111 136 119 112 135 119 112 135 119 112 135 119 112 135 119 112 135 119 112 135 119 112 135 119 112 135 119 112 135 118 111 136 118 111 136 118 111 136 118 111 136 118 111 136 118 111 136 118 111 136 119 112 135 119 112 135 119 112 135 120 112 134 120 113 134 120 113 134 120 113 134 120 113 134 121 113 133 121 113 133 120 113 134 120 113 134 120 113 134 120 113 134 120 112 134 119 112 135 119 112 135 119 112 135 119 112 135 119 112 135 118 111 136 118 111 136 118 111 136 118 111 136 118 111 136 118 111 136 118 111 136 118 111 136 118 111 136 118 111 136 118 111 136 118 111 136 119 112 135 119 112 135 119 112 135 119 112 135 119 112 135 120 112 134 120 113 134 120 113 134 120 113 134 120 113 134 120 112 134 119 112 135 119 112 135 119 112 135 119 112 135 119 112 135 119 112 135 118 111 136 118 111 136 118 111 136 118 111 136 118 111 136 118 111 136 118 111 136 118 111 136 119 112 135 119 112 135 119 112 135 119 112 135 119 112 135 119 112 135 119 112 135 119 112 135 119 112 135 118 111 136 118 111 136 118 111 136 118 111 136 118 111 136 118 111 136 118 111 136 118 111 136 118 111 136 118 111 136 118 111 136 118 111 136 118 111 136 118 111 136 118 111 136 118 111 136 118 111 136 118 111 136 118 111 136 118 111 136 118 111 136 118 111 136 118 111 136 118 111 136 118 111 136 118 111 136 118 111 136 118 111 136 118 111 136 118 111 136 118 111 136 118 111 136 118 111 136 118 111 136 118 111 136 118 111 136 118 111 136 118 111 136 118 111 136 118 111 136 118 111 136 118 111 136 118 111 136 118 111 136 118 111 136 118 111 136 118 111 136 118 111 136 118 111 136 118 111 136 118 111 136 118 111 136 118 111 136 118 111 136 
118 111 136 118 111 136 118 111 136 118 111 136 118 111 136 118 111 136 118 111 136 118 111 136 118 111 136 118 111 136 118 111 136 118 111 136 118 111 136 118 111 136 118 111 136 118 111 136 118 111 136 118 111 136 118 111 136 118 111 136 118 111 136 118 111 136 118 111 136 118 111 136 118 111 136 118 111 136 118 111 136 118 111 136 118 111 136 118 111 136 118 111 136 118 111 136 118 111 136 118 111 136 118 111 136 118 111 136 118 111 136 118 111 136 118 111 136 118 111 136 118 111 136 118 111 136 118 111 136 118 111 136 118 111 136 119 112 135 119 112 135 119 112 135 119 112 135 119 112 135 119 112 135 119 112 135 119 112 135 119 112 135 118 111 136 118 111 136 118 111 136 118 111 136 118 111 136 118 111 136 118 111 136 119 112 135 119 112 135 119 112 135 120 113 134 120 113 134 120 113 134 120 113 134 121 113 133 121 113 133 120 113 134 120 113 134 120 113 134 120 113 134 120 113 134 119 112 135 119 112 135 119 112 135 119 112 135 119 112 135 119 112 135 118 111 136 118 111 136 118 111 136 118 111 136 118 111 136 118 111 136 118 111 136 118 111 136 118 111 136 118 111 136 118 111 136 118 111 136 118 111 136 119 112 135 119 112 135 119 112 135 119 112 135 119 112 135 119 112 135 120 112 134 120 112 134 119 112 135 119 112 135 119 112 135 119 112 135 119 112 135 119 112 135 119 112 135 119 112 135 118 111 136 118 111 136 118 111 136 118 111 136 118 111 136 118 111 136 118 111 136 118 111 136 118 111 136 119 112 135 119 112 135 119 112 135 119 112 135 119 112 135 119 112 135 119 112 135 119 112 135 119 112 135 119 112 135 119 112 135 118 111 136 118 111 136 118 111 136 118 111 136 118 111 136 118 111 136 118 111 136 118 111 136 118 111 136 118 111 136 118 111 136 118 111 136 118 111 136 118 111 136 118 111 136 118 111 136 118 111 136 118 111 136 118 111 136 118 111 136 118 111 136 118 111 136 118 111 136 118 111 136 118 111 136 118 111 136 118 111 136 118 111 136 118 111 136 118 111 136 118 111 136 118 111 136 118 111 136 118 111 136 118 111 136 118 111 136 118 111 136 118 111 136 118 111 136 118 111 136 118 111 136 118 111 136 118 111 136 118 111 136 118 111 136 118 111 136 118 111 136 118 111 136 118 111 136 118 111 136 118 111 136 
118 111 136 118 111 136 118 111 136 118 111 136 118 111 136 118 111 136 118 111 136 118 111 136 118 111 136 118 111 136 118 111 136 118 111 136 118 111 136 118 111 136 118 111 136 118 111 136 118 111 136 118 111 136 118 111 136 118 111 136 118 111 136 118 111 136 118 111 136 118 111 136 118 111 136 118 111 136 118 111 136 118 111 136 118 111 136 118 111 136 118 111 136 118 111 136 118 111 136 118 111 136 118 111 136 118 111 136 118 111 136 118 111 136 118 111 136 118 111 136 118 111 136 118 111 136 118 111 136 118 111 136 119 112 135 119 112 135 119 112 135 119 112 135 119 112 135 119 112 135 119 112 135 119 112 135 119 112 135 119 112 135 118 111 136 118 111 136 118 111 136 118 111 136 118 111 136 118 111 136 118 111 136 119 112 135 119 112 135 119 112 135 120 113 134 120 113 134 120 113 134 120 113 134 120 113 134 120 113 134 120 113 134 120 113 134 120 113 134 120 113 134 120 112 134 119 112 135 119 112 135 119 112 135 119 112 135 119 112 135 118 111 136 118 111 136 118 111 136 118 111 136 118 111 136 118 111 136 118 111 136 118 111 136 118 111 136 118 111 136 118 111 136 118 111 136 118 111 136 118 111 136 118 111 136 119 112 135 119 112 135 119 112 135 119 112 135 119 112 135 119 112 135 119 112 135 119 112 135 119 112 135 119 112 135 119 112 135 119 112 135 119 112 135 119 112 135 118 111 136 118 111 136 118 111 136 118 111 136 118 111 136 118 111 136 118 111 136 118 111 136 118 111 136 118 111 136 118 111 136 119 112 135 119 112 135 119 112 135 119 112 135 119 112 135 119 112 135 119 112 135 119 112 135 119 112 135 119 112 135 119 112 135 119 112 135 118 111 136 118 111 136 118 111 136 118 111 136 118 111 136 118 111 136 118 111 136 118 111 136 118 111 136 118 111 136 118 111 136 118 111 136 118 111 136 118 111 136 118 111 136 118 111 136 118 111 136 118 111 136 118 111 136 118 111 136 118 111 136 118 111 136 118 111 136 118 111 136 118 111 136 118 111 136 118 111 136 118 111 136 118 111 136 118 111 136 118 111 136 118 111 136 118 111 136 118 111 136 118 111 136 118 111 136 118 111 136 118 111 136 118 111 136 118 111 136 118 111 136 118 111 136 118 111 136 118 111 136 118 111 136 118 111 136 118 111 136 118 111 136 118 111 136 
118 111 136 118 111 136 118 111 136 118 111 136 118 111 136 118 111 136 118 111 136 118 111 136 118 111 136 118 111 136 118 111 136 118 111 136 118 111 136 118 111 136 118 111 136 118 111 136 118 111 136 118 111 136 118 111 136 118 111 136 118 111 136 118 111 136 118 111 136 118 111 136 118 111 136 118 111 136 118 111 136 118 111 136 118 111 136 118 111 136 118 111 136 118 111 136 118 111 136 118 111 136 118 111 136 118 111 136 118 111 136 118 111 136 118 111 136 118 111 136 118 111 136 118 111 136 118 111 136 119 112 135 119 112 135 119 112 135 119 112 135 119 112 135 119 112 135 119 112 135 119 112 135 119 112 135 119 112 135 118 111 136 118 111 136 118 111 136 118 111 136 118 111 136 118 111 136 118 111 136 119 112 135 119 112 135 119 112 135 119 112 135 120 113 134 120 113 134 120 113 134 120 113 134 120 113 134 120 113 134 120 113 134 120 113 134 120 113 134 120 113 134 119 112 135 119 112 135 119 112 135 119 112 135 119 112 135 118 111 136 118 111 136 118 111 136 118 111 136 118 111 136 118 111 136 118 111 136 118 111 136 118 111 136 118 111 136 118 111 136 118 111 136 118 111 136 118 111 136 118 111 136 118 111 136 119 112 135 119 112 135 119 112 135 119 112 135 119 112 135 119 112 135 119 112 135 119 112 135 119 112 135 119 112 135 119 112 135 119 112 135 119 112 135 119 112 135 118 111 136 118 111 136 118 111 136 118 111 136 118 111 136 118 111 136 118 111 136 118 111 136 118 111 136 118 111 136 118 111 136 118 111 136 119 112 135 119 112 135 119 112 135 119 112 135 119 112 135 119 112 135 119 112 135 119 112 135 119 112 135 119 112 135 119 112 135 119 112 135 118 111 136 118 111 136 118 111 136 118 111 136 118 111 136 118 111 136 118 111 136 118 111 136 118 111 136 118 111 136 118 111 136 118 111 136 118 111 136 118 111 136 118 111 136 118 111 136 118 111 136 118 111 136 118 111 136 118 111 136 118 111 136 118 111 136 118 111 136 118 111 136 118 111 136 118 111 136 118 111 136 118 111 136 118 111 136 118 111 136 118 111 136 118 111 136 118 111 136 118 111 136 118 111 136 118 111 136 118 111 136 118 111 136 118 111 136 118 111 136 118 111 136 118 111 136 118 111 136 118 111 136 118 111 136 118 111 136 118 111 136 118 111 136 
118 111 136 118 111 136 118 111 136 118 111 136 118 111 136 118 111 136 118 111 136 118 111 136 118 111 136 118 111 136 118 111 136 118 111 136 118 111 136 118 111 136 118 111 136 118 111 136 118 111 136 118 111 136 118 111 136 118 111 136 118 111 136 118 111 136 118 111 136 118 111 136 118 111 136 118 111 136 118 111 136 118 111 136 118 111 136 118 111 136 118 111 136 118 111 136 118 111 136 118 111 136 118 111 136 118 111 136 118 111 136 118 111 136 118 111 136 118 111 136 118 111 136 118 111 136 118 111 136 119 112 135 119 112 135 119 112 135 119 112 135 119 112 135 119 112 135 119 112 135 119 112 135 119 112 135 119 112 135 118 111 136 118 111 136 118 111 136 118 111 136 118 111 136 118 111 136 118 111 136 119 112 135 119 112 135 119 112 135 120 113 134 120 113 134 120 113 134 120 113 134 120 113 134 120 113 134 120 113 134 120 113 134 120 113 134 120 113 134 119 112 135 119 112 135 119 112 135 119 112 135 118 111 136 118 111 136 118 111 136 118 111 136 118 111 136 118 111 136 118 111 136 118 111 136 118 111 136 118 111 136 118 111 136 118 111 136 118 111 136 118 111 136 118 111 136 118 111 136 118 111 136 118 111 136 119 112 135 119 112 135 119 112 135 119 112 135 119 112 135 119 112 135 119 112 135 119 112 135 119 112 135 119 112 135 119 112 135 119 112 135 119 112 135 119 112 135 119 112 135 118 111 136 118 111 136 118 111 136 118 111 136 118 111 136 118 111 136 118 111 136 118 111 136 118 111 136 118 111 136 118 111 136 119 112 135 119 112 135 119 112 135 119 112 135 119 112 135 119 112 135 119 112 135 119 112 135 119 112 135 119 112 135 119 112 135 119 112 135 119 112 135 118 111 136 118 111 136 118 111 136 118 111 136 118 111 136 118 111 136 118 111 136 118 111 136 118 111 136 118 111 136 118 111 136 118 111 136 118 111 136 118 111 136 118 111 136 118 111 136 118 111 136 118 111 136 118 111 136 118 111 136 118 111 136 118 111 136 118 111 136 118 111 136 118 111 136 118 111 136 118 111 136 118 111 136 118 111 136 118 111 136 118 111 136 118 111 136 118 111 136 118 111 136 118 111 136 118 111 136 118 111 136 118 111 136 118 111 136 118 111 136 118 111 136 118 111 136 118 111 136 118 111 136 118 111 136 118 111 136 118 111 136 
119 112 135 118 111 136 118 111 136 118 111 136 118 111 136 118 111 136 118 111 136 118 111 136 118 111 136 118 111 136 118 111 136 118 111 136 118 111 136 118 111 136 118 111 136 118 111 136 118 111 136 118 111 136 118 111 136 118 111 136 118 111 136 118 111 136 118 111 136 118 111 136 118 111 136 118 111 136 118 111 136 118 111 136 118 111 136 118 111 136 118 111 136 118 111 136 118 111 136 118 111 136 118 111 136 118 111 136 118 111 136 118 111 136 118 111 136 118 111 136 118 111 136 118 111 136 119 112 135 119 112 135 119 112 135 119 112 135 119 112 135 119 112 135 119 112 135 119 112 135 119 112 135 119 112 135 119 112 135 118 111 136 118 111 136 118 111 136 118 111 136 118 111 136 118 111 136 118 111 136 119 112 135 119 112 135 119 112 135 120 113 134 120 113 134 120 113 134 120 113 134 121 113 133 120 113 134 120 113 134 120 113 134 120 113 134 120 113 134 119 112 135 119 112 135 119 112 135 118 111 136 118 111 136 118 111 136 118 111 136 118 111 136 118 111 136 118 111 136 118 111 136 118 111 136 118 111 136 118 111 136 118 111 136 118 111 136 118 111 136 118 111 136 118 111 136 118 111 136 118 111 136 119 112 135 119 112 135 119 112 135 119 112 135 119 112 135 120 112 134 120 113 134 120 113 134 120 113 134 120 113 134 119 112 135 119 112 135 119 112 135 119 112 135 119 112 135 119 112 135 118 111 136 118 111 136 118 111 136 118 111 136 118 111 136 118 111 136 118 111 136 118 111 136 118 111 136 118 111 136 118 111 136 119 112 135 119 112 135 119 112 135 119 112 135 119 112 135 119 112 135 119 112 135 119 112 135 119 112 135 119 112 135 119 112 135 119 112 135 119 112 135 118 111 136 118 111 136 118 111 136 118 111 136 118 111 136 118 111 136 118 111 136 118 111 136 118 111 136 118 111 136 118 111 136 118 111 136 118 111 136 118 111 136 118 111 136 118 111 136 118 111 136 118 111 136 118 111 136 118 111 136 118 111 136 118 111 136 118 111 136 118 111 136 118 111 136 118 111 136 118 111 136 118 111 136 118 111 136 118 111 136 118 111 136 118 111 136 118 111 136 118 111 136 118 111 136 118 111 136 118 111 136 118 111 136 118 111 136 118 111 136 118 111 136 118 111 136 118 111 136 118 111 136 118 111 136 118 111 136 118 111 136 
119 112 135 119 112 135 118 111 136 118 111 136 118 111 136 118 111 136 118 111 136 118 111 136 118 111 136 118 111 136 118 111 136 118 111 136 118 111 136 118 111 136 118 111 136 118 111 136 118 111 136 118 111 136 118 111 136 118 111 136 118 111 136 118 111 136 118 111 136 118 111 136 118 111 136 118 111 136 118 111 136 118 111 136 118 111 136 118 111 136 118 111 136 118 111 136 118 111 136 118 111 136 118 111 136 118 111 136 118 111 136 118 111 136 118 111 136 118 111 136 118 111 136 119 112 135 119 112 135 119 112 135 119 112 135 119 112 135 119 112 135 119 112 135 119 112 135 119 112 135 119 112 135 119 112 135 119 112 135 119 112 135 118 111 136 118 111 136 118 111 136 118 111 136 118 111 136 119 112 135 119 112 135 119 112 135 119 112 135 120 113 134 120 113 134 120 113 134 121 113 133 121 113 133 120 113 134 120 113 134 120 113 134 120 113 134 119 112 135 119 112 135 119 112 135 118 111 136 118 111 136 118 111 136 118 111 136 118 111 136 118 111 136 118 111 136 118 111 136 118 111 136 118 111 136 118 111 136 118 111 136 118 111 136 118 111 136 118 111 136 118 111 136 118 111 136 118 111 136 119 112 135 119 112 135 119 112 135 119 112 135 119 112 135 120 113 134 120 113 134 120 113 134 120 113 134 120 113 134 120 113 134 120 113 134 120 112 134 119 112 135 119 112 135 119 112 135 119 112 135 119 112 135 118 111 136 118 111 136 118 111 136 118 111 136 118 111 136 118 111 136 118 111 136 118 111 136 118 111 136 118 111 136 119 112 135 119 112 135 119 112 135 119 112 135 119 112 135 119 112 135 119 112 135 119 112 135 119 112 135 119 112 135 119 112 135 119 112 135 118 111 136 118 111 136 118 111 136 118 111 136 118 111 136 118 111 136 118 111 136 118 111 136 118 111 136 118 111 136 118 111 136 118 111 136 118 111 136 118 111 136 118 111 136 118 111 136 118 111 136 118 111 136 118 111 136 118 111 136 118 111 136 118 111 136 118 111 136 118 111 136 118 111 136 118 111 136 118 111 136 118 111 136 118 111 136 118 111 136 118 111 136 118 111 136 118 111 136 118 111 136 118 111 136 118 111 136 118 111 136 118 111 136 118 111 136 118 111 136 118 111 136 118 111 136 118 111 136 118 111 136 118 111 136 118 111 136 118 111 136 118 111 136 
119 112 135 119 112 135 119 112 135 118 111 136 118 111 136 118 111 136 118 111 136 118 111 136 118 111 136 118 111 136 118 111 136 118 111 136 118 111 136 118 111 136 118 111 136 118 111 136 118 111 136 118 111 136 118 111 136 118 111 136 118 111 136 118 111 136 118 111 136 118 111 136 118 111 136 118 111 136 118 111 136 118 111 136 118 111 136 118 111 136 118 111 136 118 111 136 118 111 136 118 111 136 118 111 136 118 111 136 118 111 136 118 111 136 118 111 136 118 111 136 119 112 135 119 112 135 119 112 135 119 112 135 119 112 135 119 112 135 119 112 135 119 112 135 119 112 135 119 112 135 119 112 135 119 112 135 119 112 135 119 112 135 118 111 136 118 111 136 118 111 136 118 111 136 118 111 136 119 112 135 119 112 135 119 112 135 120 113 134 120 113 134 120 113 134 120 113 134 121 113 133 121 113 133 120 113 134 120 113 134 120 113 134 120 113 134 119 112 135 119 112 135 119 112 135 118 111 136 118 111 136 118 111 136 118 111 136 118 111 136 118 111 136 118 111 136 118 111 136 118 111 136 118 111 136 118 111 136 118 111 136 118 111 136 118 111 136 118 111 136 118 111 136 119 112 135 119 112 135 119 112 135 119 112 135 119 112 135 120 113 134 120 113 134 120 113 134 120 113 134 120 113 134 120 113 134 120 113 134 120 113 134 120 113 134 120 113 134 119 112 135 119 112 135 119 112 135 119 112 135 119 112 135 118 111 136 118 111 136 118 111 136 118 111 136 118 111 136 118 111 136 118 111 136 118 111 136 118 111 136 118 111 136 119 112 135 119 112 135 119 112 135 119 112 135 119 112 135 119 112 135 119 112 135 119 112 135 119 112 135 119 112 135 119 112 135 118 111 136 118 111 136 118 111 136 118 111 136 118 111 136 118 111 136 118 111 136 118 111 136 118 111 136 118 111 136 118 111 136 118 111 136 118 111 136 118 111 136 118 111 136 118 111 136 118 111 136 118 111 136 118 111 136 118 111 136 118 111 136 118 111 136 118 111 136 118 111 136 118 111 136 118 111 136 118 111 136 118 111 136 118 111 136 118 111 136 118 111 136 118 111 136 118 111 136 118 111 136 118 111 136 118 111 136 118 111 136 118 111 136 118 111 136 118 111 136 118 111 136 118 111 136 118 111 136 118 111 136 118 111 136 118 111 136 118 111 136 118 111 136 118 111 136 
119 112 135 119 112 135 119 112 135 119 112 135 118 111 136 118 111 136 118 111 136 118 111 136 118 111 136 118 111 136 118 111 136 118 111 136 118 111 136 118 111 136 118 111 136 118 111 136 118 111 136 118 111 136 118 111 136 118 111 136 118 111 136 118 111 136 118 111 136 118 111 136 118 111 136 118 111 136 118 111 136 118 111 136 118 111 136 118 111 136 118 111 136 118 111 136 118 111 136 118 111 136 118 111 136 118 111 136 118 111 136 118 111 136 118 111 136 119 112 135 119 112 135 119 112 135 119 112 135 119 112 135 119 112 135 120 112 134 120 113 134 120 113 134 120 112 134 119 112 135 119 112 135 119 112 135 119 112 135 119 112 135 118 111 136 118 111 136 118 111 136 118 111 136 118 111 136 119 112 135 119 112 135 119 112 135 120 113 134 120 113 134 120 113 134 120 113 134 121 113 133 121 113 133 120 113 134 120 113 134 120 113 134 120 113 134 119 112 135 119 112 135 119 112 135 118 111 136 118 111 136 118 111 136 118 111 136 118 111 136 118 111 136 118 111 136 118 111 136 118 111 136 118 111 136 118 111 136 118 111 136 118 111 136 118 111 136 119 112 135 119 112 135 119 112 135 119 112 135 119 112 135 120 113 134 120 113 134 120 113 134 120 113 134 120 113 134 121 113 133 121 114 133 121 114 133 121 113 133 120 113 134 120 113 134 120 113 134 120 113 134 119 112 135 119 112 135 119 112 135 119 112 135 119 112 135 118 111 136 118 111 136 118 111 136 118 111 136 118 111 136 118 111 136 118 111 136 118 111 136 118 111 136 119 112 135 119 112 135 119 112 135 119 112 135 119 112 135 119 112 135 119 112 135 119 112 135 119 112 135 119 112 135 118 111 136 118 111 136 118 111 136 118 111 136 118 111 136 118 111 136 118 111 136 118 111 136 118 111 136 118 111 136 118 111 136 118 111 136 118 111 136 118 111 136 118 111 136 118 111 136 118 111 136 118 111 136 118 111 136 118 111 136 118 111 136 118 111 136 118 111 136 118 111 136 118 111 136 118 111 136 118 111 136 118 111 136 118 111 136 118 111 136 119 112 135 119 112 135 119 112 135 119 112 135 118 111 136 118 111 136 118 111 136 118 111 136 118 111 136 118 111 136 118 111 136 118 111 136 118 111 136 118 111 136 118 111 136 118 111 136 118 111 136 118 111 136 118 111 136 118 111 136 
119 112 135 119 112 135 119 112 135 119 112 135 118 111 136 118 111 136 118 111 136 118 111 136 118 111 136 118 111 136 118 111 136 118 111 136 118 111 136 118 111 136 118 111 136 118 111 136 118 111 136 118 111 136 118 111 136 118 111 136 118 111 136 118 111 136 118 111 136 118 111 136 118 111 136 118 111 136 118 111 136 118 111 136 118 111 136 118 111 136 118 111 136 118 111 136 118 111 136 118 111 136 118 111 136 118 111 136 118 111 136 118 111 136 118 111 136 119 112 135 119 112 135 119 112 135 119 112 135 119 112 135 119 112 135 120 113 134 120 113 134 120 113 134 120 113 134 120 112 134 119 112 135 119 112 135 119 112 135 119 112 135 119 112 135 118 111 136 118 111 136 118 111 136 118 111 136 119 112 135 119 112 135 119 112 135 120 113 134 120 113 134 120 113 134 120 113 134 121 113 133 121 113 133 120 113 134 120 113 134 120 113 134 120 113 134 119 112 135 119 112 135 119 112 135 118 111 136 118 111 136 118 111 136 118 111 136 118 111 136 118 111 136 118 111 136 118 111 136 118 111 136 118 111 136 118 111 136 118 111 136 118 111 136 119 112 135 119 112 135 119 112 135 119 112 135 119 112 135 120 113 134 120 113 134 120 113 134 121 113 133 121 114 133 121 114 133 121 114 133 121 114 133 121 114 133 121 114 133 121 114 133 120 113 134 120 113 134 120 113 134 119 112 135 119 112 135 119 112 135 119 112 135 119 112 135 118 111 136 118 111 136 118 111 136 118 111 136 118 111 136 118 111 136 118 111 136 118 111 136 118 111 136 119 112 135 119 112 135 119 112 135 119 112 135 119 112 135 119 112 135 119 112 135 119 112 135 119 112 135 118 111 136 118 111 136 118 111 136 118 111 136 118 111 136 118 111 136 118 111 136 118 111 136 118 111 136 118 111 136 118 111 136 118 111 136 118 111 136 118 111 136 118 111 136 118 111 136 118 111 136 118 111 136 118 111 136 118 111 136 118 111 136 118 111 136 118 111 136 118 111 136 118 111 136 118 111 136 118 111 136 118 111 136 118 111 136 118 111 136 119 112 135 119 112 135 119 112 135 119 112 135 119 112 135 119 112 135 119 112 135 119 112 135 118 111 136 118 111 136 118 111 136 118 111 136 118 111 136 118 111 136 118 111 136 118 111 136 118 111 136 118 111 136 118 111 136 118 111 136 118 111 136 
119 112 135 119 112 135 119 112 135 119 112 135 119 112 135 118 111 136 118 111 136 118 111 136 118 111 136 118 111 136 118 111 136 118 111 136 118 111 136 118 111 136 118 111 136 118 111 136 118 111 136 118 111 136 118 111 136 118 111 136 118 111 136 118 111 136 118 111 136 118 111 136 118 111 136 118 111 136 119 112 135 119 112 135 119 112 135 119 112 135 119 112 135 119 112 135 118 111 136 118 111 136 118 111 136 118 111 136 118 111 136 119 112 135 119 112 135 119 112 135 119 112 135 119 112 135 119 112 135 119 112 135 120 112 134 120 113 134 120 113 134 120 113 134 120 113 134 120 113 134 119 112 135 119 112 135 119 112 135 119 112 135 119 112 135 118 111 136 118 111 136 118 111 136 118 111 136 119 112 135 119 112 135 119 112 135 120 112 134 120 113 134 120 113 134 120 113 134 120 113 134 121 113 133 120 113 134 120 113 134 120 113 134 120 113 134 119 112 135 119 112 135 119 112 135 118 111 136 118 111 136 118 111 136 118 111 136 118 111 136 118 111 136 118 111 136 118 111 136 118 111 136 118 111 136 118 111 136 118 111 136 118 111 136 119 112 135 119 112 135 119 112 135 119 112 135 120 113 134 120 113 134 120 113 134 121 114 133 121 114 133 121 114 133 121 114 133 121 114 133 121 114 133 121 114 133 121 114 133 121 114 133 121 113 133 120 113 134 120 113 134 120 112 134 119 112 135 119 112 135 119 112 135 119 112 135 118 111 136 118 111 136 118 111 136 118 111 136 118 111 136 118 111 136 118 111 136 118 111 136 119 112 135 119 112 135 119 112 135 119 112 135 119 112 135 119 112 135 119 112 135 119 112 135 118 111 136 118 111 136 118 111 136 118 111 136 118 111 136 118 111 136 118 111 136 118 111 136 118 111 136 118 111 136 118 111 136 118 111 136 118 111 136 118 111 136 118 111 136 118 111 136 118 111 136 118 111 136 118 111 136 118 111 136 118 111 136 118 111 136 118 111 136 118 111 136 118 111 136 118 111 136 118 111 136 118 111 136 118 111 136 118 111 136 118 111 136 118 111 136 119 112 135 119 112 135 119 112 135 119 112 135 119 112 135 119 112 135 119 112 135 119 112 135 119 112 135 118 111 136 118 111 136 118 111 136 118 111 136 118 111 136 118 111 136 118 111 136 118 111 136 118 111 136 118 111 136 118 111 136 118 111 136 
119 112 135 119 112 135 119 112 135 119 112 135 119 112 135 118 111 136 118 111 136 118 111 136 118 111 136 118 111 136 118 111 136 118 111 136 118 111 136 118 111 136 118 111 136 118 111 136 118 111 136 118 111 136 118 111 136 118 111 136 118 111 136 118 111 136 118 111 136 118 111 136 119 112 135 119 112 135 119 112 135 119 112 135 119 112 135 119 112 135 119 112 135 119 112 135 119 112 135 119 112 135 119 112 135 119 112 135 119 112 135 119 112 135 119 112 135 119 112 135 119 112 135 119 112 135 119 112 135 119 112 135 119 112 135 120 113 134 120 113 134 120 113 134 120 113 134 120 113 134 119 112 135 119 112 135 119 112 135 119 112 135 119 112 135 118 111 136 118 111 136 118 111 136 118 111 136 119 112 135 119 112 135 119 112 135 119 112 135 120 113 134 120 113 134 120 113 134 120 113 134 120 113 134 120 113 134 120 113 134 120 113 134 120 113 134 119 112 135 119 112 135 119 112 135 118 111 136 118 111 136 118 111 136 118 111 136 118 111 136 118 111 136 118 111 136 118 111 136 118 111 136 118 111 136 118 111 136 118 111 136 118 111 136 119 112 135 119 112 135 119 112 135 120 113 134 120 113 134 120 113 134 121 114 133 121 114 133 121 114 133 122 114 132 122 115 132 122 115 132 122 115 132 122 114 132 121 114 133 121 114 133 121 114 133 120 113 134 120 113 134 120 112 134 119 112 135 119 112 135 119 112 135 118 111 136 118 111 136 118 111 136 118 111 136 118 111 136 118 111 136 118 111 136 118 111 136 118 111 136 119 112 135 119 112 135 119 112 135 119 112 135 119 112 135 119 112 135 119 112 135 119 112 135 118 111 136 118 111 136 118 111 136 118 111 136 118 111 136 118 111 136 118 111 136 118 111 136 118 111 136 118 111 136 118 111 136 118 111 136 118 111 136 118 111 136 118 111 136 118 111 136 118 111 136 118 111 136 118 111 136 118 111 136 118 111 136 118 111 136 118 111 136 118 111 136 118 111 136 118 111 136 118 111 136 118 111 136 118 111 136 118 111 136 118 111 136 118 111 136 119 112 135 119 112 135 119 112 135 119 112 135 119 112 135 119 112 135 119 112 135 119 112 135 119 112 135 119 112 135 119 112 135 118 111 136 118 111 136 118 111 136 118 111 136 118 111 136 118 111 136 118 111 136 118 111 136 118 111 136 118 111 136 
119 112 135 119 112 135 119 112 135 119 112 135 119 112 135 119 112 135 118 111 136 118 111 136 118 111 136 118 111 136 118 111 136 118 111 136 118 111 136 118 111 136 118 111 136 118 111 136 118 111 136 118 111 136 118 111 136 118 111 136 118 111 136 118 111 136 118 111 136 119 112 135 119 112 135 119 112 135 119 112 135 119 112 135 119 112 135 119 112 135 119 112 135 119 112 135 119 112 135 119 112 135 119 112 135 119 112 135 119 112 135 119 112 135 119 112 135 119 112 135 119 112 135 119 112 135 119 112 135 119 112 135 119 112 135 120 112 134 120 113 134 120 113 134 120 113 134 120 113 134 119 112 135 119 112 135 119 112 135 119 112 135 119 112 135 118 111 136 118 111 136 118 111 136 118 111 136 119 112 135 119 112 135 119 112 135 119 112 135 120 112 134 120 113 134 120 113 134 120 113 134 120 113 134 120 113 134 120 113 134 120 113 134 120 113 134 119 112 135 119 112 135 119 112 135 119 112 135 118 111 136 118 111 136 118 111 136 118 111 136 118 111 136 118 111 136 118 111 136 118 111 136 118 111 136 118 111 136 118 111 136 118 111 136 119 112 135 119 112 135 119 112 135 120 113 134 120 113 134 121 114 133 121 114 133 121 114 133 122 115 132 122 115 132 122 115 132 122 115 132 122 115 132 122 115 132 121 114 133 121 114 133 121 114 133 120 113 134 120 113 134 120 112 134 119 112 135 119 112 135 119 112 135 118 111 136 118 111 136 118 111 136 118 111 136 118 111 136 118 111 136 118 111 136 118 111 136 118 111 136 119 112 135 119 112 135 119 112 135 119 112 135 119 112 135 119 112 135 119 112 135 118 111 136 118 111 136 118 111 136 118 111 136 118 111 136 118 111 136 118 111 136 118 111 136 118 111 136 118 111 136 118 111 136 118 111 136 118 111 136 118 111 136 118 111 136 118 111 136 118 111 136 118 111 136 118 111 136 118 111 136 118 111 136 118 111 136 118 111 136 118 111 136 118 111 136 118 111 136 118 111 136 118 111 136 118 111 136 118 111 136 118 111 136 118 111 136 118 111 136 119 112 135 119 112 135 119 112 135 119 112 135 119 112 135 119 112 135 119 112 135 119 112 135 119 112 135 119 112 135 119 112 135 119 112 135 118 111 136 118 111 136 118 111 136 118 111 136 118 111 136 118 111 136 118 111 136 118 111 136 118 111 136 
119 112 135 119 112 135 119 112 135 119 112 135 119 112 135 119 112 135 118 111 136 118 111 136 118 111 136 118 111 136 118 111 136 118 111 136 118 111 136 118 111 136 118 111 136 118 111 136 118 111 136 118 111 136 118 111 136 118 111 136 118 111 136 118 111 136 118 111 136 119 112 135 119 112 135 119 112 135 119 112 135 119 112 135 119 112 135 119 112 135 119 112 135 119 112 135 119 112 135 119 112 135 119 112 135 119 112 135 119 112 135 119 112 135 119 112 135 119 112 135 119 112 135 119 112 135 119 112 135 119 112 135 119 112 135 119 112 135 119 112 135 120 112 134 120 113 134 120 112 134 119 112 135 119 112 135 119 112 135 119 112 135 119 112 135 118 111 136 118 111 136 118 111 136 118 111 136 118 111 136 119 112 135 119 112 135 119 112 135 119 112 135 120 113 134 120 113 134 120 113 134 120 113 134 120 113 134 120 113 134 120 113 134 120 113 134 120 112 134 119 112 135 119 112 135 119 112 135 118 111 136 118 111 136 118 111 136 118 111 136 118 111 136 118 111 136 118 111 136 118 111 136 118 111 136 118 111 136 118 111 136 118 111 136 119 112 135 119 112 135 119 112 135 120 113 134 120 113 134 121 114 133 121 114 133 122 114 132 122 115 132 122 115 132 122 115 132 122 115 132 122 115 132 122 115 132 122 114 132 121 114 133 121 114 133 120 113 134 120 113 134 119 112 135 119 112 135 119 112 135 118 111 136 118 111 136 118 111 136 118 111 136 118 111 136 118 111 136 118 111 136 118 111 136 118 111 136 118 111 136 118 111 136 119 112 135 119 112 135 119 112 135 119 112 135 119 112 135 119 112 135 118 111 136 118 111 136 118 111 136 118 111 136 118 111 136 118 111 136 118 111 136 118 111 136 118 111 136 118 111 136 118 111 136 118 111 136 118 111 136 118 111 136 118 111 136 118 111 136 118 111 136 118 111 136 118 111 136 118 111 136 118 111 136 118 111 136 118 111 136 118 111 136 118 111 136 118 111 136 118 111 136 118 111 136 118 111 136 118 111 136 118 111 136 118 111 136 118 111 136 118 111 136 119 112 135 119 112 135 119 112 135 119 112 135 119 112 135 119 112 135 119 112 135 119 112 135 119 112 135 119 112 135 119 112 135 119 112 135 118 111 136 118 111 136 118 111 136 118 111 136 118 111 136 118 111 136 118 111 136 118 111 136 
119 112 135 119 112 135 119 112 135 119 112 135 119 112 135 119 112 135 119 112 135 118 111 136 118 111 136 118 111 136 118 111 136 118 111 136 118 111 136 118 111 136 118 111 136 118 111 136 118 111 136 118 111 136 118 111 136 118 111 136 118 111 136 118 111 136 119 112 135 119 112 135 119 112 135 119 112 135 119 112 135 119 112 135 119 112 135 119 112 135 119 112 135 119 112 135 119 112 135 119 112 135 119 112 135 119 112 135 119 112 135 119 112 135 119 112 135 119 112 135 119 112 135 119 112 135 119 112 135 119 112 135 119 112 135 119 112 135 119 112 135 119 112 135 119 112 135 119 112 135 119 112 135 119 112 135 119 112 135 119 112 135 119 112 135 118 111 136 118 111 136 118 111 136 118 111 136 118 111 136 118 111 136 119 112 135 119 112 135 119 112 135 119 112 135 120 113 134 120 113 134 120 113 134 120 113 134 120 113 134 120 113 134 120 113 134 120 112 134 119 112 135 119 112 135 119 112 135 119 112 135 118 111 136 118 111 136 118 111 136 118 111 136 118 111 136 118 111 136 118 111 136 118 111 136 118 111 136 118 111 136 118 111 136 119 112 135 119 112 135 119 112 135 120 113 134 120 113 134 121 114 133 121 114 133 121 114 133 122 115 132 122 115 132 122 115 132 122 115 132 122 115 132 122 115 132 121 114 133 121 114 133 121 114 133 120 113 134 120 113 134 119 112 135 119 112 135 119 112 135 118 111 136 118 111 136 118 111 136 118 111 136 118 111 136 118 111 136 118 111 136 118 111 136 118 111 136 118 111 136 118 111 136 119 112 135 119 112 135 119 112 135 119 112 135 119 112 135 119 112 135 118 111 136 118 111 136 118 111 136 118 111 136 118 111 136 118 111 136 118 111 136 118 111 136 118 111 136 118 111 136 118 111 136 118 111 136 118 111 136 118 111 136 118 111 136 118 111 136 118 111 136 118 111 136 118 111 136 118 111 136 118 111 136 118 111 136 118 111 136 118 111 136 118 111 136 118 111 136 118 111 136 118 111 136 118 111 136 118 111 136 118 111 136 118 111 136 118 111 136 118 111 136 119 112 135 119 112 135 119 112 135 119 112 135 119 112 135 119 112 135 119 112 135 119 112 135 119 112 135 119 112 135 119 112 135 119 112 135 119 112 135 118 111 136 118 111 136 118 111 136 118 111 136 118 111 136 118 111 136 118 111 136 
119 112 135 119 112 135 119 112 135 119 112 135 119 112 135 119 112 135 119 112 135 118 111 136 118 111 136 118 111 136 118 111 136 118 111 136 118 111 136 118 111 136 118 111 136 118 111 136 118 111 136 118 111 136 118 111 136 118 111 136 118 111 136 118 111 136 119 112 135 119 112 135 119 112 135 119 112 135 119 112 135 119 112 135 119 112 135 119 112 135 119 112 135 119 112 135 119 112 135 119 112 135 119 112 135 119 112 135 119 112 135 119 112 135 118 111 136 118 111 136 118 111 136 119 112 135 119 112 135 119 112 135 119 112 135 119 112 135 119 112 135 119 112 135 119 112 135 119 112 135 119 112 135 119 112 135 119 112 135 119 112 135 118 111 136 118 111 136 118 111 136 118 111 136 118 111 136 118 111 136 118 111 136 118 111 136 119 112 135 119 112 135 119 112 135 119 112 135 120 113 134 120 113 134 120 113 134 120 113 134 120 113 134 120 113 134 120 112 134 119 112 135 119 112 135 119 112 135 119 112 135 119 112 135 118 111 136 118 111 136 118 111 136 118 111 136 118 111 136 118 111 136 118 111 136 118 111 136 118 111 136 118 111 136 118 111 136 119 112 135 119 112 135 120 112 134 120 113 134 120 113 134 121 114 133 121 114 133 122 114 132 122 115 132 122 115 132 122 115 132 122 115 132 122 114 132 121 114 133 121 114 133 121 113 133 120 113 134 120 113 134 119 112 135 119 112 135 119 112 135 118 111 136 118 111 136 118 111 136 118 111 136 118 111 136 118 111 136 118 111 136 118 111 136 118 111 136 118 111 136 118 111 136 118 111 136 119 112 135 119 112 135 119 112 135 119 112 135 119 112 135 119 112 135 118 111 136 118 111 136 118 111 136 118 111 136 118 111 136 118 111 136 118 111 136 118 111 136 118 111 136 118 111 136 118 111 136 118 111 136 118 111 136 118 111 136 118 111 136 118 111 136 118 111 136 118 111 136 118 111 136 118 111 136 118 111 136 118 111 136 118 111 136 118 111 136 118 111 136 118 111 136 118 111 136 118 111 136 118 111 136 118 111 136 118 111 136 118 111 136 118 111 136 118 111 136 119 112 135 119 112 135 119 112 135 119 112 135 119 112 135 119 112 135 119 112 135 119 112 135 119 112 135 119 112 135 119 112 135 119 112 135 118 111 136 118 111 136 118 111 136 118 111 136 118 111 136 118 111 136 118 111 136 
119 112 135 119 112 135 119 112 135 119 112 135 119 112 135 119 112 135 119 112 135 119 112 135 118 111 136 118 111 136 118 111 136 118 111 136 118 111 136 118 111 136 118 111 136 118 111 136 118 111 136 118 111 136 118 111 136 118 111 136 118 111 136 118 111 136 119 112 135 119 112 135 119 112 135 119 112 135 119 112 135 119 112 135 119 112 135 119 112 135 119 112 135 119 112 135 119 112 135 119 112 135 119 112 135 119 112 135 119 112 135 118 111 136 118 111 136 118 111 136 118 111 136 118 111 136 118 111 136 119 112 135 119 112 135 119 112 135 119 112 135 119 112 135 119 112 135 119 112 135 119 112 135 119 112 135 119 112 135 119 112 135 118 111 136 118 111 136 118 111 136 118 111 136 118 111 136 118 111 136 118 111 136 118 111 136 119 112 135 119 112 135 119 112 135 119 112 135 120 112 134 120 113 134 120 113 134 120 113 134 120 113 134 120 113 134 119 112 135 119 112 135 119 112 135 119 112 135 119 112 135 119 112 135 118 111 136 118 111 136 118 111 136 118 111 136 118 111 136 118 111 136 118 111 136 118 111 136 118 111 136 118 111 136 118 111 136 119 112 135 119 112 135 119 112 135 120 113 134 120 113 134 120 113 134 121 114 133 121 114 133 121 114 133 122 114 132 122 114 132 122 114 132 121 114 133 121 114 133 121 114 133 120 113 134 120 113 134 120 113 134 119 112 135 119 112 135 119 112 135 118 111 136 118 111 136 118 111 136 118 111 136 118 111 136 118 111 136 118 111 136 118 111 136 118 111 136 118 111 136 118 111 136 118 111 136 118 111 136 119 112 135 119 112 135 119 112 135 119 112 135 119 112 135 119 112 135 119 112 135 118 111 136 118 111 136 118 111 136 118 111 136 118 111 136 118 111 136 118 111 136 118 111 136 118 111 136 118 111 136 118 111 136 118 111 136 118 111 136 118 111 136 118 111 136 118 111 136 119 112 135 119 112 135 118 111 136 118 111 136 118 111 136 118 111 136 118 111 136 118 111 136 118 111 136 118 111 136 118 111 136 118 111 136 118 111 136 118 111 136 118 111 136 118 111 136 119 112 135 119 112 135 119 112 135 119 112 135 119 112 135 119 112 135 119 112 135 119 112 135 119 112 135 119 112 135 119 112 135 119 112 135 119 112 135 118 111 136 118 111 136 118 111 136 118 111 136 118 111 136 118 111 136 
119 112 135 119 112 135 119 112 135 119 112 135 119 112 135 119 112 135 119 112 135 119 112 135 118 111 136 118 111 136 118 111 136 118 111 136 118 111 136 118 111 136 118 111 136 118 111 136 118 111 136 118 111 136 118 111 136 118 111 136 118 111 136 118 111 136 119 112 135 119 112 135 119 112 135 119 112 135 119 112 135 119 112 135 119 112 135 119 112 135 119 112 135 119 112 135 119 112 135 119 112 135 119 112 135 119 112 135 118 111 136 118 111 136 118 111 136 118 111 136 118 111 136 118 111 136 118 111 136 118 111 136 119 112 135 119 112 135 119 112 135 119 112 135 119 112 135 119 112 135 119 112 135 119 112 135 119 112 135 118 111 136 118 111 136 118 111 136 118 111 136 118 111 136 118 111 136 118 111 136 118 111 136 118 111 136 119 112 135 119 112 135 119 112 135 119 112 135 119 112 135 120 113 134 120 113 134 120 113 134 120 113 134 119 112 135 119 112 135 119 112 135 119 112 135 119 112 135 119 112 135 119 112 135 119 112 135 118 111 136 118 111 136 118 111 136 118 111 136 118 111 136 118 111 136 118 111 136 118 111 136 118 111 136 118 111 136 118 111 136 118 111 136 119 112 135 119 112 135 120 112 134 120 113 134 120 113 134 121 114 133 121 114 133 121 114 133 121 114 133 121 114 133 121 114 133 121 114 133 121 114 133 120 113 134 120 113 134 120 112 134 119 112 135 119 112 135 119 112 135 118 111 136 118 111 136 118 111 136 118 111 136 118 111 136 118 111 136 118 111 136 118 111 136 118 111 136 118 111 136 118 111 136 118 111 136 118 111 136 118 111 136 119 112 135 119 112 135 119 112 135 119 112 135 119 112 135 119 112 135 119 112 135 119 112 135 119 112 135 118 111 136 118 111 136 118 111 136 118 111 136 118 111 136 118 111 136 118 111 136 118 111 136 118 111 136 118 111 136 118 111 136 118 111 136 118 111 136 119 112 135 119 112 135 118 111 136 118 111 136 118 111 136 118 111 136 118 111 136 118 111 136 118 111 136 118 111 136 118 111 136 118 111 136 118 111 136 118 111 136 118 111 136 118 111 136 118 111 136 119 112 135 119 112 135 119 112 135 119 112 135 119 112 135 119 112 135 119 112 135 119 112 135 119 112 135 119 112 135 119 112 135 119 112 135 118 111 136 118 111 136 118 111 136 118 111 136 118 111 136 118 111 136 
119 112 135 119 112 135 119 112 135 119 112 135 119 112 135 119 112 135 119 112 135 118 111 136 118 111 136 118 111 136 118 111 136 118 111 136 118 111 136 118 111 136 118 111 136 118 111 136 118 111 136 118 111 136 118 111 136 118 111 136 118 111 136 118 111 136 118 111 136 119 112 135 119 112 135 119 112 135 119 112 135 119 112 135 119 112 135 119 112 135 119 112 135 119 112 135 119 112 135 119 112 135 119 112 135 118 111 136 118 111 136 118 111 136 118 111 136 118 111 136 118 111 136 118 111 136 118 111 136 118 111 136 119 112 135 119 112 135 119 112 135 119 112 135 119 112 135 119 112 135 119 112 135 119 112 135 118 111 136 118 111 136 118 111 136 118 111 136 118 111 136 118 111 136 118 111 136 118 111 136 118 111 136 118 111 136 119 112 135 119 112 135 119 112 135 119 112 135 120 112 134 120 113 134 120 113 134 120 112 134 119 112 135 119 112 135 119 112 135 119 112 135 119 112 135 119 112 135 119 112 135 119 112 135 118 111 136 118 111 136 118 111 136 118 111 136 118 111 136 118 111 136 118 111 136 118 111 136 118 111 136 118 111 136 118 111 136 118 111 136 118 111 136 118 111 136 119 112 135 119 112 135 119 112 135 120 113 134 120 113 134 120 113 134 121 113 133 121 114 133 121 114 133 121 114 133 121 114 133 120 113 134 120 113 134 120 113 134 120 113 134 119 112 135 119 112 135 119 112 135 118 111 136 118 111 136 118 111 136 118 111 136 118 111 136 118 111 136 118 111 136 118 111 136 118 111 136 118 111 136 118 111 136 118 111 136 118 111 136 118 111 136 119 112 135 119 112 135 119 112 135 119 112 135 119 112 135 119 112 135 119 112 135 119 112 135 119 112 135 119 112 135 119 112 135 119 112 135 118 111 136 118 111 136 118 111 136 118 111 136 118 111 136 118 111 136 118 111 136 118 111 136 118 111 136 118 111 136 118 111 136 118 111 136 118 111 136 118 111 136 118 111 136 118 111 136 118 111 136 118 111 136 118 111 136 118 111 136 118 111 136 118 111 136 118 111 136 118 111 136 118 111 136 118 111 136 118 111 136 118 111 136 119 112 135 119 112 135 119 112 135 119 112 135 119 112 135 119 112 135 119 112 135 119 112 135 119 112 135 119 112 135 119 112 135 119 112 135 118 111 136 118 111 136 118 111 136 118 111 136 118 111 136 
118 111 136 118 111 136 118 111 136 119 112 135 119 112 135 118 111 136 118 111 136 118 111 136 118 111 136 118 111 136 118 111 136 118 111 136 118 111 136 118 111 136 118 111 136 118 111 136 118 111 136 118 111 136 118 111 136 118 111 136 118 111 136 118 111 136 118 111 136 119 112 135 119 112 135 119 112 135 119 112 135 119 112 135 119 112 135 119 112 135 119 112 135 119 112 135 119 112 135 119 112 135 118 111 136 118 111 136 118 111 136 118 111 136 118 111 136 118 111 136 118 111 136 118 111 136 118 111 136 118 111 136 119 112 135 119 112 135 119 112 135 119 112 135 119 112 135 119 112 135 119 112 135 119 112 135 118 111 136 118 111 136 118 111 136 118 111 136 118 111 136 118 111 136 118 111 136 118 111 136 118 111 136 119 112 135 119 112 135 119 112 135 119 112 135 120 113 134 120 113 134 120 113 134 120 113 134 120 112 134 119 112 135 119 112 135 119 112 135 119 112 135 119 112 135 119 112 135 118 111 136 118 111 136 118 111 136 118 111 136 118 111 136 118 111 136 118 111 136 118 111 136 118 111 136 118 111 136 118 111 136 118 111 136 118 111 136 118 111 136 118 111 136 118 111 136 118 111 136 118 111 136 119 112 135 119 112 135 119 112 135 120 113 134 120 113 134 120 113 134 120 113 134 121 113 133 121 113 133 120 113 134 120 113 134 120 113 134 120 113 134 119 112 135 119 112 135 119 112 135 119 112 135 118 111 136 118 111 136 118 111 136 118 111 136 118 111 136 118 111 136 118 111 136 118 111 136 118 111 136 118 111 136 118 111 136 118 111 136 118 111 136 119 112 135 119 112 135 119 112 135 119 112 135 119 112 135 119 112 135 119 112 135 119 112 135 119 112 135 119 112 135 119 112 135 119 112 135 119 112 135 119 112 135 118 111 136 118 111 136 118 111 136 118 111 136 118 111 136 118 111 136 118 111 136 118 111 136 118 111 136 118 111 136 118 111 136 118 111 136 118 111 136 118 111 136 118 111 136 118 111 136 118 111 136 118 111 136 118 111 136 118 111 136 118 111 136 118 111 136 118 111 136 118 111 136 118 111 136 118 111 136 118 111 136 118 111 136 119 112 135 119 112 135 119 112 135 119 112 135 119 112 135 119 112 135 119 112 135 119 112 135 119 112 135 119 112 135 118 111 136 118 111 136 118 111 136 118 111 136 118 111 136 
118 111 136 118 111 136 118 111 136 118 111 136 118 111 136 118 111 136 118 111 136 118 111 136 118 111 136 118 111 136 118 111 136 118 111 136 118 111 136 118 111 136 118 111 136 118 111 136 118 111 136 118 111 136 118 111 136 118 111 136 118 111 136 118 111 136 118 111 136 118 111 136 119 112 135 119 112 135 119 112 135 119 112 135 119 112 135 119 112 135 119 112 135 119 112 135 118 111 136 118 111 136 118 111 136 118 111 136 118 111 136 118 111 136 118 111 136 118 111 136 118 111 136 118 111 136 118 111 136 119 112 135 119 112 135 119 112 135 119 112 135 119 112 135 119 112 135 119 112 135 119 112 135 119 112 135 118 111 136 118 111 136 118 111 136 118 111 136 118 111 136 118 111 136 118 111 136 118 111 136 119 112 135 119 112 135 119 112 135 120 113 134 120 113 134 120 113 134 120 113 134 120 113 134 120 113 134 120 113 134 119 112 135 119 112 135 119 112 135 119 112 135 118 111 136 118 111 136 118 111 136 118 111 136 118 111 136 118 111 136 118 111 136 118 111 136 119 112 135 118 111 136 118 111 136 118 111 136 118 111 136 118 111 136 118 111 136 118 111 136 118 111 136 118 111 136 118 111 136 118 111 136 118 111 136 118 111 136 119 112 135 119 112 135 120 113 134 120 113 134 120 113 134 120 113 134 120 113 134 120 113 134 120 113 134 120 113 134 120 113 134 120 113 134 119 112 135 119 112 135 119 112 135 119 112 135 119 112 135 118 111 136 118 111 136 118 111 136 118 111 136 118 111 136 118 111 136 118 111 136 118 111 136 118 111 136 118 111 136 118 111 136 118 111 136 119 112 135 119 112 135 119 112 135 119 112 135 119 112 135 119 112 135 119 112 135 119 112 135 119 112 135 119 112 135 119 112 135 119 112 135 119 112 135 119 112 135 119 112 135 118 111 136 118 111 136 118 111 136 118 111 136 118 111 136 118 111 136 118 111 136 118 111 136 118 111 136 118 111 136 118 111 136 118 111 136 118 111 136 118 111 136 118 111 136 118 111 136 118 111 136 118 111 136 118 111 136 118 111 136 118 111 136 118 111 136 118 111 136 118 111 136 118 111 136 118 111 136 118 111 136 118 111 136 119 112 135 119 112 135 119 112 135 119 112 135 119 112 135 119 112 135 119 112 135 119 112 135 118 111 136 118 111 136 118 111 136 118 111 136 118 111 136 
118 111 136 118 111 136 118 111 136 118 111 136 118 111 136 118 111 136 118 111 136 118 111 136 118 111 136 118 111 136 118 111 136 118 111 136 118 111 136 118 111 136 118 111 136 118 111 136 118 111 136 118 111 136 118 111 136 118 111 136 118 111 136 118 111 136 118 111 136 118 111 136 118 111 136 119 112 135 119 112 135 119 112 135 119 112 135 119 112 135 118 111 136 118 111 136 118 111 136 118 111 136 118 111 136 118 111 136 118 111 136 118 111 136 118 111 136 118 111 136 118 111 136 118 111 136 119 112 135 119 112 135 119 112 135 119 112 135 119 112 135 119 112 135 119 112 135 119 112 135 119 112 135 119 112 135 118 111 136 118 111 136 118 111 136 118 111 136 118 111 136 118 111 136 118 111 136 119 112 135 119 112 135 119 112 135 120 113 134 120 113 134 120 113 134 120 113 134 120 113 134 120 113 134 120 113 134 120 113 134 119 112 135 119 112 135 119 112 135 118 111 136 118 111 136 118 111 136 118 111 136 118 111 136 118 111 136 118 111 136 118 111 136 119 112 135 119 112 135 119 112 135 119 112 135 118 111 136 118 111 136 118 111 136 118 111 136 118 111 136 117 111 137 117 110 137 117 110 137 117 111 137 118 111 136 118 111 136 118 111 136 119 112 135 119 112 135 120 112 134 120 113 134 120 113 134 120 113 134 120 113 134 120 113 134 120 113 134 120 113 134 120 113 134 120 113 134 120 112 134 119 112 135 119 112 135 119 112 135 119 112 135 118 111 136 118 111 136 118 111 136 118 111 136 118 111 136 118 111 136 118 111 136 118 111 136 118 111 136 118 111 136 118 111 136 119 112 135 119 112 135 119 112 135 119 112 135 119 112 135 119 112 135 119 112 135 120 112 134 119 112 135 119 112 135 119 112 135 119 112 135 119 112 135 119 112 135 119 112 135 119 112 135 118 111 136 118 111 136 118 111 136 118 111 136 118 111 136 118 111 136 118 111 136 118 111 136 118 111 136 118 111 136 118 111 136 118 111 136 118 111 136 118 111 136 118 111 136 118 111 136 118 111 136 118 111 136 118 111 136 118 111 136 118 111 136 118 111 136 118 111 136 118 111 136 118 111 136 118 111 136 118 111 136 118 111 136 118 111 136 119 112 135 119 112 135 119 112 135 119 112 135 119 112 135 118 111 136 118 111 136 118 111 136 118 111 136 118 111 136 118 111 136 
118 111 136 118 111 136 118 111 136 118 111 136 118 111 136 118 111 136 118 111 136 118 111 136 118 111 136 118 111 136 118 111 136 118 111 136 118 111 136 118 111 136 118 111 136 118 111 136 118 111 136 118 111 136 118 111 136 118 111 136 118 111 136 118 111 136 118 111 136 118 111 136 118 111 136 118 111 136 118 111 136 118 111 136 118 111 136 118 111 136 118 111 136 118 111 136 118 111 136 118 111 136 118 111 136 118 111 136 118 111 136 118 111 136 118 111 136 118 111 136 118 111 136 119 112 135 119 112 135 119 112 135 119 112 135 119 112 135 119 112 135 119 112 135 119 112 135 119 112 135 119 112 135 119 112 135 118 111 136 118 111 136 118 111 136 118 111 136 118 111 136 118 111 136 119 112 135 119 112 135 120 112 134 120 113 134 120 113 134 121 114 133 121 114 133 121 114 133 121 114 133 121 114 133 121 113 133 120 113 134 120 113 134 119 112 135 119 112 135 118 111 136 118 111 136 118 111 136 118 111 136 118 111 136 118 111 136 118 111 136 118 111 136 119 112 135 119 112 135 119 112 135 119 112 135 119 112 135 119 112 135 118 111 136 118 111 136 118 111 136 117 111 137 117 110 137 117 110 137 117 110 137 117 111 137 118 111 136 118 111 136 118 111 136 119 112 135 119 112 135 120 113 134 120 113 134 120 113 134 121 113 133 121 114 133 121 114 133 121 113 133 120 113 134 120 113 134 120 113 134 120 113 134 119 112 135 119 112 135 119 112 135 119 112 135 118 111 136 118 111 136 118 111 136 118 111 136 118 111 136 118 111 136 118 111 136 118 111 136 118 111 136 118 111 136 119 112 135 119 112 135 119 112 135 119 112 135 119 112 135 120 112 134 120 113 134 120 113 134 120 113 134 120 112 134 119 112 135 119 112 135 119 112 135 119 112 135 119 112 135 119 112 135 118 111 136 118 111 136 118 111 136 118 111 136 118 111 136 118 111 136 118 111 136 118 111 136 118 111 136 118 111 136 118 111 136 118 111 136 118 111 136 118 111 136 118 111 136 118 111 136 118 111 136 118 111 136 118 111 136 118 111 136 118 111 136 118 111 136 118 111 136 118 111 136 118 111 136 118 111 136 118 111 136 118 111 136 118 111 136 118 111 136 118 111 136 118 111 136 118 111 136 118 111 136 118 111 136 118 111 136 118 111 136 118 111 136 118 111 136 118 111 136 
118 111 136 118 111 136 118 111 136 118 111 136 118 111 136 118 111 136 118 111 136 118 111 136 118 111 136 118 111 136 118 111 136 118 111 136 118 111 136 118 111 136 118 111 136 118 111 136 118 111 136 118 111 136 118 111 136 118 111 136 118 111 136 118 111 136 118 111 136 118 111 136 118 111 136 118 111 136 118 111 136 118 111 136 118 111 136 118 111 136 118 111 136 118 111 136 118 111 136 118 111 136 118 111 136 118 111 136 118 111 136 118 111 136 118 111 136 119 112 135 119 112 135 119 112 135 119 112 135 120 112 134 120 113 134 120 113 134 120 113 134 120 113 134 120 112 134 119 112 135 119 112 135 119 112 135 119 112 135 118 111 136 118 111 136 118 111 136 118 111 136 119 112 135 119 112 135 120 112 134 120 113 134 121 113 133 121 114 133 121 114 133 122 114 132 122 115 132 122 115 132 121 114 133 121 114 133 121 113 133 120 113 134 119 112 135 119 112 135 118 111 136 118 111 136 118 111 136 118 111 136 118 111 136 118 111 136 118 111 136 118 111 136 119 112 135 119 112 135 119 112 135 119 112 135 119 112 135 119 112 135 119 112 135 118 111 136 118 111 136 118 111 136 117 111 137 117 110 137 117 110 137 117 110 137 118 111 136 118 111 136 118 111 136 119 112 135 119 112 135 120 113 134 120 113 134 121 113 133 121 114 133 121 114 133 121 114 133 121 114 133 121 114 133 121 113 133 120 113 134 120 113 134 120 113 134 119 112 135 119 112 135 119 112 135 119 112 135 118 111 136 118 111 136 118 111 136 118 111 136 118 111 136 118 111 136 118 111 136 118 111 136 118 111 136 119 112 135 119 112 135 119 112 135 119 112 135 119 112 135 120 112 134 120 113 134 120 113 134 120 113 134 120 113 134 120 112 134 119 112 135 119 112 135 119 112 135 119 112 135 119 112 135 118 111 136 118 111 136 118 111 136 118 111 136 118 111 136 118 111 136 118 111 136 118 111 136 118 111 136 118 111 136 118 111 136 118 111 136 118 111 136 118 111 136 118 111 136 118 111 136 118 111 136 118 111 136 118 111 136 118 111 136 118 111 136 118 111 136 118 111 136 118 111 136 118 111 136 118 111 136 118 111 136 118 111 136 118 111 136 118 111 136 118 111 136 118 111 136 118 111 136 118 111 136 118 111 136 118 111 136 118 111 136 118 111 136 118 111 136 118 111 136 
118 111 136 118 111 136 118 111 136 118 111 136 118 111 136 118 111 136 118 111 136 118 111 136 118 111 136 118 111 136 118 111 136 118 111 136 118 111 136 118 111 136 118 111 136 118 111 136 118 111 136 118 111 136 118 111 136 118 111 136 118 111 136 118 111 136 118 111 136 118 111 136 118 111 136 118 111 136 118 111 136 118 111 136 118 111 136 118 111 136 118 111 136 118 111 136 118 111 136 118 111 136 118 111 136 118 111 136 118 111 136 118 111 136 119 112 135 119 112 135 119 112 135 119 112 135 120 113 134 120 113 134 120 113 134 120 113 134 120 113 134 120 113 134 120 113 134 120 112 134 119 112 135 119 112 135 119 112 135 119 112 135 118 111 136 119 112 135 119 112 135 119 112 135 119 112 135 120 113 134 121 113 133 121 114 133 122 114 132 122 115 132 122 115 132 122 115 132 122 115 132 122 115 132 122 114 132 121 114 133 120 113 134 120 113 134 119 112 135 118 111 136 118 111 136 118 111 136 118 111 136 118 111 136 118 111 136 118 111 136 118 111 136 119 112 135 119 112 135 119 112 135 119 112 135 119 112 135 119 112 135 119 112 135 119 112 135 118 111 136 118 111 136 118 111 136 118 111 136 118 111 136 118 111 136 118 111 136 118 111 136 118 111 136 119 112 135 119 112 135 120 113 134 120 113 134 121 114 133 121 114 133 121 114 133 121 114 133 121 114 133 121 114 133 121 114 133 121 114 133 120 113 134 120 113 134 120 113 134 119 112 135 119 112 135 119 112 135 119 112 135 118 111 136 118 111 136 118 111 136 118 111 136 118 111 136 118 111 136 118 111 136 118 111 136 118 111 136 119 112 135 119 112 135 119 112 135 119 112 135 119 112 135 120 113 134 120 113 134 120 113 134 120 113 134 120 112 134 119 112 135 119 112 135 119 112 135 119 112 135 119 112 135 118 111 136 118 111 136 118 111 136 118 111 136 118 111 136 118 111 136 118 111 136 118 111 136 118 111 136 118 111 136 118 111 136 118 111 136 118 111 136 118 111 136 118 111 136 118 111 136 118 111 136 118 111 136 118 111 136 118 111 136 118 111 136 118 111 136 118 111 136 118 111 136 118 111 136 118 111 136 118 111 136 118 111 136 118 111 136 118 111 136 118 111 136 118 111 136 118 111 136 118 111 136 118 111 136 118 111 136 118 111 136 118 111 136 118 111 136 118 111 136 
118 111 136 118 111 136 118 111 136 118 111 136 118 111 136 118 111 136 118 111 136 118 111 136 118 111 136 118 111 136 118 111 136 118 111 136 118 111 136 118 111 136 118 111 136 118 111 136 118 111 136 118 111 136 118 111 136 118 111 136 118 111 136 118 111 136 118 111 136 118 111 136 118 111 136 118 111 136 118 111 136 118 111 136 118 111 136 118 111 136 118 111 136 118 111 136 118 111 136 118 111 136 118 111 136 118 111 136 118 111 136 119 112 135 119 112 135 119 112 135 120 113 134 120 113 134 120 113 134 120 113 134 120 113 134 121 113 133 120 113 134 120 113 134 120 113 134 120 113 134 120 112 134 119 112 135 119 112 135 119 112 135 119 112 135 119 112 135 119 112 135 119 112 135 120 113 134 120 113 134 121 114 133 122 114 132 122 115 132 123 115 131 123 116 131 123 116 131 123 116 131 123 115 131 122 115 132 122 114 132 121 114 133 120 113 134 119 112 135 119 112 135 118 111 136 118 111 136 118 111 136 118 111 136 118 111 136 118 111 136 118 111 136 119 112 135 119 112 135 119 112 135 120 112 134 120 113 134 120 112 134 119 112 135 119 112 135 119 112 135 118 111 136 118 111 136 118 111 136 118 111 136 118 111 136 118 111 136 118 111 136 119 112 135 119 112 135 120 113 134 120 113 134 121 113 133 121 114 133 121 114 133 121 114 133 122 114 132 122 114 132 121 114 133 121 114 133 121 114 133 121 114 133 120 113 134 120 113 134 120 113 134 119 112 135 119 112 135 119 112 135 118 111 136 118 111 136 118 111 136 118 111 136 118 111 136 118 111 136 118 111 136 118 111 136 118 111 136 118 111 136 119 112 135 119 112 135 119 112 135 119 112 135 119 112 135 120 112 134 120 112 134 120 112 134 119 112 135 119 112 135 119 112 135 119 112 135 119 112 135 119 112 135 118 111 136 118 111 136 118 111 136 118 111 136 118 111 136 118 111 136 118 111 136 118 111 136 118 111 136 118 111 136 118 111 136 118 111 136 118 111 136 118 111 136 118 111 136 118 111 136 118 111 136 118 111 136 118 111 136 118 111 136 118 111 136 118 111 136 118 111 136 118 111 136 118 111 136 118 111 136 118 111 136 118 111 136 118 111 136 118 111 136 118 111 136 118 111 136 118 111 136 118 111 136 118 111 136 118 111 136 118 111 136 118 111 136 118 111 136 118 111 136 
118 111 136 118 111 136 118 111 136 118 111 136 118 111 136 118 111 136 118 111 136 118 111 136 118 111 136 118 111 136 118 111 136 118 111 136 118 111 136 118 111 136 118 111 136 118 111 136 118 111 136 118 111 136 118 111 136 118 111 136 118 111 136 118 111 136 118 111 136 118 111 136 118 111 136 118 111 136 118 111 136 118 111 136 118 111 136 118 111 136 118 111 136 118 111 136 118 111 136 118 111 136 118 111 136 119 112 135 119 112 135 119 112 135 119 112 135 120 113 134 120 113 134 120 113 134 120 113 134 121 114 133 121 114 133 121 114 133 121 114 133 121 113 133 120 113 134 120 113 134 120 113 134 119 112 135 119 112 135 119 112 135 119 112 135 119 112 135 119 112 135 120 113 134 120 113 134 121 114 133 121 114 133 122 115 132 123 115 131 123 116 131 123 116 131 124 116 130 124 116 130 123 116 131 123 116 131 122 115 132 121 114 133 121 114 133 120 113 134 119 112 135 119 112 135 118 111 136 118 111 136 118 111 136 118 111 136 118 111 136 118 111 136 119 112 135 119 112 135 119 112 135 120 113 134 120 113 134 120 113 134 120 113 134 119 112 135 119 112 135 119 112 135 119 112 135 119 112 135 118 111 136 118 111 136 119 112 135 119 112 135 119 112 135 120 112 134 120 113 134 120 113 134 121 114 133 121 114 133 121 114 133 122 114 132 122 115 132 122 115 132 122 114 132 121 114 133 121 114 133 121 114 133 121 113 133 120 113 134 120 113 134 119 112 135 119 112 135 119 112 135 119 112 135 118 111 136 118 111 136 118 111 136 118 111 136 118 111 136 118 111 136 118 111 136 118 111 136 118 111 136 118 111 136 119 112 135 119 112 135 119 112 135 119 112 135 119 112 135 119 112 135 119 112 135 119 112 135 119 112 135 119 112 135 119 112 135 119 112 135 119 112 135 118 111 136 118 111 136 118 111 136 118 111 136 118 111 136 118 111 136 118 111 136 118 111 136 118 111 136 118 111 136 118 111 136 118 111 136 118 111 136 118 111 136 118 111 136 118 111 136 118 111 136 118 111 136 118 111 136 118 111 136 118 111 136 118 111 136 118 111 136 118 111 136 118 111 136 118 111 136 118 111 136 118 111 136 118 111 136 118 111 136 118 111 136 118 111 136 118 111 136 118 111 136 118 111 136 118 111 136 118 111 136 118 111 136 118 111 136 118 111 136 
118 111 136 118 111 136 118 111 136 118 111 136 118 111 136 118 111 136 118 111 136 118 111 136 118 111 136 118 111 136 118 111 136 118 111 136 118 111 136 118 111 136 118 111 136 118 111 136 118 111 136 118 111 136 118 111 136 118 111 136 118 111 136 118 111 136 118 111 136 118 111 136 118 111 136 118 111 136 118 111 136 118 111 136 118 111 136 118 111 136 118 111 136 118 111 136 118 111 136 119 112 135 119 112 135 119 112 135 119 112 135 119 112 135 120 113 134 120 113 134 120 113 134 120 113 134 121 114 133 121 114 133 121 114 133 121 114 133 121 114 133 121 114 133 121 113 133 120 113 134 120 113 134 120 113 134 119 112 135 119 112 135 119 112 135 119 112 135 119 112 135 120 113 134 120 113 134 121 114 133 122 114 132 122 115 132 123 116 131 123 116 131 124 116 130 124 117 130 124 117 130 124 116 130 123 116 131 123 115 131 122 115 132 121 114 133 120 113 134 120 113 134 119 112 135 119 112 135 118 111 136 118 111 136 118 111 136 118 111 136 119 112 135 119 112 135 119 112 135 119 112 135 120 113 134 120 113 134 120 113 134 120 113 134 120 113 134 120 113 134 119 112 135 119 112 135 119 112 135 119 112 135 119 112 135 119 112 135 119 112 135 120 113 134 120 113 134 120 113 134 121 114 133 121 114 133 121 114 133 122 114 132 122 114 132 122 115 132 122 115 132 122 114 132 121 114 133 121 114 133 121 114 133 121 113 133 120 113 134 120 113 134 120 112 134 119 112 135 119 112 135 119 112 135 118 111 136 118 111 136 118 111 136 118 111 136 118 111 136 118 111 136 118 111 136 118 111 136 118 111 136 118 111 136 118 111 136 119 112 135 119 112 135 119 112 135 119 112 135 119 112 135 119 112 135 119 112 135 119 112 135 119 112 135 119 112 135 119 112 135 119 112 135 118 111 136 118 111 136 118 111 136 118 111 136 118 111 136 118 111 136 118 111 136 118 111 136 118 111 136 118 111 136 118 111 136 118 111 136 118 111 136 118 111 136 118 111 136 118 111 136 118 111 136 118 111 136 118 111 136 118 111 136 118 111 136 118 111 136 118 111 136 118 111 136 118 111 136 118 111 136 118 111 136 118 111 136 118 111 136 118 111 136 118 111 136 118 111 136 118 111 136 118 111 136 118 111 136 118 111 136 118 111 136 118 111 136 118 111 136 118 111 136 
118 111 136 118 111 136 118 111 136 118 111 136 118 111 136 118 111 136 118 111 136 118 111 136 118 111 136 118 111 136 118 111 136 118 111 136 118 111 136 118 111 136 118 111 136 118 111 136 118 111 136 118 111 136 118 111 136 118 111 136 118 111 136 118 111 136 118 111 136 118 111 136 118 111 136 118 111 136 118 111 136 118 111 136 118 111 136 118 111 136 119 112 135 119 112 135 119 112 135 119 112 135 119 112 135 119 112 135 119 112 135 120 113 134 120 113 134 120 113 134 120 113 134 121 113 133 121 114 133 121 114 133 121 114 133 121 114 133 121 114 133 121 114 133 121 114 133 120 113 134 120 113 134 120 113 134 120 113 134 119 112 135 119 112 135 119 112 135 120 113 134 120 113 134 120 113 134 121 114 133 121 114 133 122 115 132 123 115 131 123 116 131 124 116 130 124 117 130 124 117 130 124 117 130 124 116 130 123 116 131 122 115 132 122 115 132 121 114 133 120 113 134 120 113 134 119 112 135 119 112 135 118 111 136 118 111 136 118 111 136 119 112 135 119 112 135 119 112 135 119 112 135 120 113 134 120 113 134 120 113 134 120 113 134 120 113 134 120 113 134 120 113 134 120 113 134 120 113 134 120 113 134 120 113 134 120 113 134 120 113 134 120 113 134 120 113 134 121 113 133 121 114 133 121 114 133 121 114 133 122 114 132 122 114 132 122 114 132 122 114 132 121 114 133 121 114 133 121 114 133 121 114 133 120 113 134 120 113 134 120 113 134 120 112 134 119 112 135 119 112 135 119 112 135 118 111 136 118 111 136 118 111 136 118 111 136 118 111 136 118 111 136 118 111 136 118 111 136 118 111 136 118 111 136 118 111 136 118 111 136 118 111 136 119 112 135 119 112 135 119 112 135 119 112 135 119 112 135 119 112 135 119 112 135 119 112 135 119 112 135 118 111 136 118 111 136 118 111 136 118 111 136 118 111 136 118 111 136 118 111 136 118 111 136 118 111 136 118 111 136 118 111 136 118 111 136 118 111 136 118 111 136 118 111 136 118 111 136 118 111 136 118 111 136 118 111 136 118 111 136 118 111 136 118 111 136 118 111 136 118 111 136 118 111 136 118 111 136 118 111 136 118 111 136 118 111 136 118 111 136 118 111 136 118 111 136 118 111 136 118 111 136 118 111 136 118 111 136 118 111 136 118 111 136 118 111 136 118 111 136 118 111 136 
119 112 135 119 112 135 119 112 135 119 112 135 118 111 136 118 111 136 118 111 136 118 111 136 118 111 136 118 111 136 118 111 136 118 111 136 118 111 136 118 111 136 118 111 136 118 111 136 118 111 136 118 111 136 118 111 136 118 111 136 118 111 136 118 111 136 118 111 136 118 111 136 118 111 136 118 111 136 118 111 136 119 112 135 119 112 135 119 112 135 119 112 135 119 112 135 119 112 135 119 112 135 119 112 135 120 112 134 120 113 134 120 113 134 120 113 134 120 113 134 120 113 134 121 113 133 121 114 133 121 114 133 121 114 133 121 114 133 121 114 133 121 114 133 121 114 133 120 113 134 120 113 134 120 113 134 120 113 134 120 112 134 119 112 135 119 112 135 120 113 134 120 113 134 120 113 134 121 114 133 121 114 133 122 115 132 122 115 132 123 116 131 123 116 131 124 116 130 124 117 130 124 117 130 124 116 130 123 116 131 123 116 131 122 115 132 122 114 132 121 114 133 120 113 134 120 113 134 119 112 135 119 112 135 119 112 135 119 112 135 119 112 135 119 112 135 119 112 135 119 112 135 119 112 135 120 113 134 120 113 134 120 113 134 120 113 134 120 113 134 120 113 134 120 113 134 120 113 134 120 113 134 120 113 134 120 113 134 120 113 134 120 113 134 121 113 133 121 114 133 121 114 133 121 114 133 121 114 133 121 114 133 121 114 133 121 114 133 121 114 133 121 114 133 121 114 133 121 114 133 120 113 134 120 113 134 120 113 134 120 113 134 119 112 135 119 112 135 119 112 135 119 112 135 118 111 136 118 111 136 118 111 136 118 111 136 118 111 136 118 111 136 118 111 136 118 111 136 118 111 136 118 111 136 118 111 136 118 111 136 118 111 136 118 111 136 118 111 136 118 111 136 118 111 136 119 112 135 119 112 135 119 112 135 118 111 136 118 111 136 118 111 136 118 111 136 118 111 136 118 111 136 118 111 136 118 111 136 118 111 136 118 111 136 118 111 136 118 111 136 118 111 136 118 111 136 118 111 136 118 111 136 118 111 136 118 111 136 118 111 136 118 111 136 118 111 136 118 111 136 118 111 136 118 111 136 118 111 136 118 111 136 118 111 136 118 111 136 118 111 136 118 111 136 118 111 136 118 111 136 118 111 136 118 111 136 118 111 136 118 111 136 118 111 136 118 111 136 118 111 136 118 111 136 118 111 136 118 111 136 118 111 136 
119 112 135 119 112 135 119 112 135 119 112 135 119 112 135 119 112 135 119 112 135 119 112 135 119 112 135 119 112 135 118 111 136 118 111 136 118 111 136 118 111 136 118 111 136 118 111 136 118 111 136 118 111 136 118 111 136 118 111 136 118 111 136 118 111 136 118 111 136 118 111 136 118 111 136 119 112 135 119 112 135 119 112 135 119 112 135 119 112 135 119 112 135 119 112 135 119 112 135 120 112 134 120 113 134 120 113 134 120 113 134 120 113 134 120 113 134 120 113 134 120 113 134 120 113 134 121 113 133 121 113 133 121 114 133 121 114 133 121 114 133 121 114 133 121 113 133 120 113 134 120 113 134 120 113 134 120 113 134 120 113 134 119 112 135 119 112 135 119 112 135 120 113 134 120 113 134 120 113 134 121 114 133 121 114 133 122 115 132 122 115 132 123 116 131 123 116 131 124 116 130 124 116 130 124 116 130 123 116 131 123 116 131 122 115 132 122 115 132 121 114 133 121 114 133 120 113 134 120 113 134 119 112 135 119 112 135 119 112 135 119 112 135 119 112 135 119 112 135 119 112 135 119 112 135 119 112 135 120 112 134 120 113 134 120 113 134 120 113 134 120 113 134 120 113 134 120 113 134 120 113 134 120 113 134 120 113 134 121 113 133 121 114 133 121 114 133 121 114 133 121 114 133 121 114 133 121 114 133 121 114 133 121 114 133 121 114 133 121 114 133 121 114 133 120 113 134 120 113 134 120 113 134 120 113 134 120 113 134 119 112 135 119 112 135 119 112 135 119 112 135 119 112 135 118 111 136 118 111 136 118 111 136 118 111 136 118 111 136 118 111 136 118 111 136 118 111 136 118 111 136 118 111 136 118 111 136 118 111 136 118 111 136 118 111 136 118 111 136 118 111 136 118 111 136 118 111 136 118 111 136 118 111 136 118 111 136 118 111 136 118 111 136 118 111 136 118 111 136 118 111 136 118 111 136 118 111 136 118 111 136 118 111 136 118 111 136 118 111 136 118 111 136 118 111 136 118 111 136 118 111 136 118 111 136 118 111 136 118 111 136 118 111 136 118 111 136 118 111 136 118 111 136 118 111 136 119 112 135 119 112 135 119 112 135 119 112 135 119 112 135 119 112 135 119 112 135 118 111 136 118 111 136 118 111 136 118 111 136 118 111 136 118 111 136 118 111 136 118 111 136 118 111 136 118 111 136 118 111 136 118 111 136 
119 112 135 119 112 135 119 112 135 119 112 135 119 112 135 119 112 135 119 112 135 119 112 135 119 112 135 119 112 135 119 112 135 119 112 135 119 112 135 118 111 136 118 111 136 118 111 136 118 111 136 118 111 136 118 111 136 118 111 136 118 111 136 118 111 136 118 111 136 118 111 136 119 112 135 119 112 135 119 112 135 119 112 135 119 112 135 119 112 135 120 113 134 120 113 134 120 113 134 120 113 134 120 113 134 120 113 134 120 113 134 120 113 134 120 113 134 120 113 134 120 113 134 120 113 134 120 113 134 120 113 134 120 113 134 120 113 134 120 113 134 120 113 134 120 113 134 120 113 134 120 113 134 120 113 134 120 113 134 120 112 134 119 112 135 119 112 135 119 112 135 119 112 135 120 112 134 120 113 134 120 113 134 121 114 133 121 114 133 122 115 132 122 115 132 123 115 131 123 116 131 123 116 131 123 116 131 123 116 131 123 116 131 123 115 131 122 115 132 122 114 132 121 114 133 120 113 134 120 113 134 119 112 135 119 112 135 119 112 135 119 112 135 119 112 135 119 112 135 119 112 135 119 112 135 119 112 135 119 112 135 119 112 135 119 112 135 120 113 134 120 113 134 120 113 134 120 113 134 120 113 134 120 113 134 121 113 133 121 114 133 121 114 133 121 114 133 121 114 133 121 114 133 121 114 133 121 114 133 121 114 133 121 114 133 121 113 133 120 113 134 120 113 134 120 113 134 120 113 134 120 113 134 119 112 135 119 112 135 119 112 135 119 112 135 119 112 135 119 112 135 119 112 135 118 111 136 118 111 136 118 111 136 118 111 136 118 111 136 118 111 136 118 111 136 118 111 136 118 111 136 118 111 136 118 111 136 118 111 136 118 111 136 118 111 136 118 111 136 118 111 136 118 111 136 118 111 136 118 111 136 118 111 136 118 111 136 118 111 136 118 111 136 118 111 136 118 111 136 118 111 136 118 111 136 118 111 136 118 111 136 118 111 136 118 111 136 118 111 136 118 111 136 118 111 136 118 111 136 118 111 136 118 111 136 118 111 136 118 111 136 118 111 136 118 111 136 118 111 136 118 111 136 118 111 136 119 112 135 119 112 135 119 112 135 119 112 135 119 112 135 119 112 135 119 112 135 119 112 135 119 112 135 118 111 136 118 111 136 118 111 136 118 111 136 118 111 136 118 111 136 118 111 136 118 111 136 118 111 136 118 111 136 
119 112 135 119 112 135 119 112 135 119 112 135 119 112 135 119 112 135 119 112 135 119 112 135 119 112 135 119 112 135 119 112 135 119 112 135 119 112 135 119 112 135 118 111 136 118 111 136 118 111 136 118 111 136 118 111 136 118 111 136 118 111 136 118 111 136 118 111 136 119 112 135 119 112 135 119 112 135 119 112 135 119 112 135 120 113 134 120 113 134 120 113 134 120 113 134 120 113 134 120 113 134 120 113 134 120 113 134 120 113 134 120 113 134 120 112 134 120 112 134 120 112 134 120 113 134 120 113 134 120 113 134 120 113 134 120 113 134 120 113 134 120 113 134 120 113 134 120 113 134 120 113 134 120 113 134 120 113 134 119 112 135 119 112 135 119 112 135 119 112 135 119 112 135 119 112 135 119 112 135 120 112 134 120 113 134 120 113 134 121 114 133 121 114 133 122 115 132 122 115 132 123 115 131 123 115 131 123 116 131 123 115 131 122 115 132 122 115 132 122 114 132 121 114 133 121 114 133 120 113 134 120 113 134 119 112 135 119 112 135 119 112 135 118 111 136 118 111 136 118 111 136 118 111 136 118 111 136 118 111 136 119 112 135 119 112 135 119 112 135 119 112 135 120 112 134 120 113 134 120 113 134 120 113 134 120 113 134 120 113 134 121 113 133 121 114 133 121 114 133 121 114 133 121 113 133 120 113 134 120 113 134 120 113 134 120 113 134 120 113 134 120 113 134 119 112 135 119 112 135 119 112 135 119 112 135 119 112 135 119 112 135 119 112 135 119 112 135 118 111 136 118 111 136 118 111 136 118 111 136 118 111 136 118 111 136 118 111 136 118 111 136 118 111 136 118 111 136 118 111 136 118 111 136 118 111 136 118 111 136 118 111 136 118 111 136 118 111 136 118 111 136 118 111 136 118 111 136 118 111 136 118 111 136 118 111 136 118 111 136 118 111 136 118 111 136 118 111 136 118 111 136 118 111 136 118 111 136 118 111 136 118 111 136 118 111 136 118 111 136 118 111 136 118 111 136 118 111 136 118 111 136 118 111 136 118 111 136 118 111 136 118 111 136 118 111 136 118 111 136 118 111 136 118 111 136 119 112 135 119 112 135 119 112 135 119 112 135 119 112 135 119 112 135 119 112 135 119 112 135 119 112 135 119 112 135 119 112 135 118 111 136 118 111 136 118 111 136 118 111 136 118 111 136 118 111 136 118 111 136 118 111 136 
120 113 134 120 113 134 120 113 134 120 113 134 120 113 134 120 113 134 120 112 134 119 112 135 119 112 135 119 112 135 119 112 135 119 112 135 119 112 135 119 112 135 118 111 136 118 111 136 118 111 136 118 111 136 118 111 136 118 111 136 118 111 136 118 111 136 119 112 135 119 112 135 119 112 135 119 112 135 119 112 135 120 113 134 120 113 134 120 113 134 120 113 134 120 113 134 120 113 134 120 113 134 120 113 134 120 113 134 119 112 135 119 112 135 119 112 135 119 112 135 119 112 135 119 112 135 119 112 135 119 112 135 119 112 135 120 113 134 120 113 134 120 113 134 120 113 134 120 113 134 120 113 134 120 112 134 119 112 135 119 112 135 119 112 135 119 112 135 119 112 135 118 111 136 118 111 136 119 112 135 119 112 135 119 112 135 120 113 134 120 113 134 121 113 133 121 114 133 121 114 133 122 115 132 122 115 132 122 115 132 122 115 132 122 115 132 122 115 132 122 114 132 121 114 133 121 113 133 120 113 134 120 113 134 119 112 135 119 112 135 118 111 136 118 111 136 118 111 136 118 111 136 118 111 136 118 111 136 118 111 136 118 111 136 118 111 136 118 111 136 119 112 135 119 112 135 119 112 135 119 112 135 120 113 134 120 113 134 120 113 134 120 113 134 120 113 134 120 113 134 120 113 134 120 113 134 120 113 134 120 113 134 120 113 134 120 113 134 119 112 135 119 112 135 119 112 135 119 112 135 119 112 135 119 112 135 119 112 135 119 112 135 118 111 136 118 111 136 118 111 136 118 111 136 118 111 136 118 111 136 118 111 136 118 111 136 118 111 136 118 111 136 118 111 136 118 111 136 118 111 136 118 111 136 118 111 136 118 111 136 118 111 136 118 111 136 118 111 136 118 111 136 118 111 136 118 111 136 118 111 136 118 111 136 118 111 136 118 111 136 118 111 136 118 111 136 118 111 136 118 111 136 118 111 136 118 111 136 118 111 136 118 111 136 118 111 136 118 111 136 118 111 136 118 111 136 118 111 136 118 111 136 118 111 136 118 111 136 118 111 136 118 111 136 118 111 136 118 111 136 118 111 136 118 111 136 118 111 136 119 112 135 119 112 135 119 112 135 119 112 135 119 112 135 119 112 135 119 112 135 119 112 135 119 112 135 119 112 135 119 112 135 118 111 136 118 111 136 118 111 136 118 111 136 118 111 136 118 111 136 118 111 136 
120 113 134 120 113 134 120 113 134 120 113 134 120 113 134 120 113 134 120 113 134 120 113 134 120 113 134 119 112 135 119 112 135 119 112 135 119 112 135 119 112 135 118 111 136 118 111 136 118 111 136 118 111 136 118 111 136 118 111 136 118 111 136 118 111 136 119 112 135 119 112 135 119 112 135 119 112 135 120 113 134 120 113 134 120 113 134 120 113 134 120 113 134 120 113 134 120 113 134 120 113 134 120 112 134 119 112 135 119 112 135 119 112 135 119 112 135 119 112 135 119 112 135 119 112 135 119 112 135 119 112 135 119 112 135 119 112 135 119 112 135 119 112 135 120 112 134 120 112 134 119 112 135 119 112 135 119 112 135 119 112 135 119 112 135 118 111 136 118 111 136 118 111 136 118 111 136 118 111 136 118 111 136 119 112 135 119 112 135 119 112 135 120 113 134 120 113 134 121 114 133 121 114 133 121 114 133 122 114 132 122 115 132 122 114 132 121 114 133 121 114 133 121 114 133 120 113 134 120 113 134 119 112 135 119 112 135 118 111 136 118 111 136 118 111 136 117 111 137 117 110 137 117 110 137 117 110 137 117 110 137 117 110 137 117 110 137 118 111 136 118 111 136 118 111 136 118 111 136 119 112 135 119 112 135 119 112 135 120 113 134 120 113 134 120 113 134 120 113 134 120 113 134 120 113 134 120 113 134 120 113 134 119 112 135 119 112 135 119 112 135 119 112 135 119 112 135 119 112 135 119 112 135 119 112 135 118 111 136 118 111 136 118 111 136 118 111 136 118 111 136 118 111 136 118 111 136 118 111 136 118 111 136 118 111 136 118 111 136 118 111 136 118 111 136 118 111 136 118 111 136 118 111 136 118 111 136 118 111 136 118 111 136 118 111 136 118 111 136 118 111 136 118 111 136 118 111 136 118 111 136 118 111 136 118 111 136 118 111 136 118 111 136 118 111 136 118 111 136 118 111 136 118 111 136 118 111 136 118 111 136 118 111 136 118 111 136 118 111 136 118 111 136 118 111 136 118 111 136 118 111 136 118 111 136 118 111 136 118 111 136 118 111 136 118 111 136 118 111 136 118 111 136 118 111 136 118 111 136 118 111 136 119 112 135 119 112 135 119 112 135 119 112 135 119 112 135 119 112 135 119 112 135 119 112 135 119 112 135 119 112 135 118 111 136 118 111 136 118 111 136 118 111 136 118 111 136 118 111 136 118 111 136 
120 113 134 120 113 134 120 113 134 120 113 134 120 113 134 120 113 134 120 113 134 120 113 134 120 113 134 120 113 134 119 112 135 119 112 135 119 112 135 119 112 135 118 111 136 118 111 136 118 111 136 118 111 136 118 111 136 118 111 136 118 111 136 118 111 136 119 112 135 119 112 135 119 112 135 120 113 134 120 113 134 120 113 134 120 113 134 120 113 134 120 113 134 120 113 134 120 113 134 119 112 135 119 112 135 119 112 135 119 112 135 118 111 136 118 111 136 118 111 136 118 111 136 118 111 136 118 111 136 119 112 135 119 112 135 119 112 135 119 112 135 119 112 135 119 112 135 119 112 135 119 112 135 119 112 135 119 112 135 119 112 135 118 111 136 118 111 136 118 111 136 118 111 136 118 111 136 118 111 136 118 111 136 118 111 136 119 112 135 119 112 135 120 112 134 120 113 134 120 113 134 121 114 133 121 114 133 121 114 133 121 114 133 121 114 133 121 114 133 121 113 133 120 113 134 120 113 134 119 112 135 119 112 135 119 112 135 118 111 136 118 111 136 118 111 136 117 110 137 117 110 137 117 110 137 117 110 137 117 110 137 117 110 137 117 110 137 117 110 137 117 110 137 117 111 137 118 111 136 118 111 136 118 111 136 119 112 135 119 112 135 119 112 135 119 112 135 120 112 134 120 113 134 120 113 134 120 113 134 119 112 135 119 112 135 119 112 135 119 112 135 119 112 135 119 112 135 119 112 135 119 112 135 119 112 135 118 111 136 118 111 136 118 111 136 118 111 136 118 111 136 118 111 136 118 111 136 118 111 136 118 111 136 118 111 136 118 111 136 118 111 136 118 111 136 118 111 136 118 111 136 119 112 135 119 112 135 119 112 135 119 112 135 119 112 135 119 112 135 118 111 136 118 111 136 118 111 136 118 111 136 118 111 136 118 111 136 118 111 136 118 111 136 118 111 136 118 111 136 118 111 136 118 111 136 118 111 136 118 111 136 118 111 136 118 111 136 118 111 136 118 111 136 118 111 136 118 111 136 118 111 136 118 111 136 118 111 136 118 111 136 118 111 136 118 111 136 118 111 136 118 111 136 118 111 136 118 111 136 118 111 136 118 111 136 119 112 135 119 112 135 119 112 135 119 112 135 119 112 135 119 112 135 119 112 135 119 112 135 119 112 135 119 112 135 118 111 136 118 111 136 118 111 136 118 111 136 118 111 136 118 111 136 
120 113 134 120 113 134 120 113 134 120 113 134 120 113 134 120 113 134 120 113 134 120 113 134 120 113 134 120 113 134 119 112 135 119 112 135 119 112 135 119 112 135 118 111 136 118 111 136 118 111 136 118 111 136 118 111 136 118 111 136 118 111 136 119 112 135 119 112 135 119 112 135 119 112 135 120 113 134 120 113 134 120 113 134 120 113 134 120 113 134 120 113 134 120 113 134 119 112 135 119 112 135 119 112 135 118 111 136 118 111 136 118 111 136 118 111 136 118 111 136 118 111 136 118 111 136 118 111 136 118 111 136 119 112 135 119 112 135 119 112 135 119 112 135 119 112 135 119 112 135 119 112 135 119 112 135 119 112 135 118 111 136 118 111 136 118 111 136 118 111 136 117 111 137 117 111 137 118 111 136 118 111 136 118 111 136 119 112 135 119 112 135 120 112 134 120 113 134 120 113 134 121 113 133 121 114 133 121 114 133 121 114 133 121 113 133 120 113 134 120 113 134 120 113 134 119 112 135 119 112 135 119 112 135 118 111 136 118 111 136 118 111 136 117 110 137 117 110 137 117 110 137 117 110 137 117 110 137 116 110 138 116 110 138 116 110 138 117 110 137 117 110 137 117 110 137 117 110 137 117 110 137 118 111 136 118 111 136 118 111 136 119 112 135 119 112 135 119 112 135 119 112 135 119 112 135 120 112 134 120 112 134 120 112 134 119 112 135 119 112 135 119 112 135 119 112 135 119 112 135 119 112 135 119 112 135 119 112 135 119 112 135 119 112 135 118 111 136 118 111 136 118 111 136 118 111 136 118 111 136 118 111 136 118 111 136 118 111 136 118 111 136 118 111 136 119 112 135 119 112 135 119 112 135 119 112 135 119 112 135 119 112 135 119 112 135 119 112 135 119 112 135 119 112 135 119 112 135 118 111 136 118 111 136 118 111 136 118 111 136 118 111 136 118 111 136 118 111 136 118 111 136 118 111 136 118 111 136 118 111 136 118 111 136 118 111 136 118 111 136 118 111 136 118 111 136 118 111 136 118 111 136 118 111 136 118 111 136 118 111 136 118 111 136 118 111 136 118 111 136 118 111 136 118 111 136 118 111 136 118 111 136 118 111 136 118 111 136 119 112 135 119 112 135 119 112 135 119 112 135 119 112 135 119 112 135 119 112 135 119 112 135 119 112 135 119 112 135 118 111 136 118 111 136 118 111 136 118 111 136 118 111 136 
120 113 134 120 113 134 120 113 134 121 113 133 121 113 133 120 113 134 120 113 134 120 113 134 120 113 134 120 113 134 119 112 135 119 112 135 119 112 135 118 111 136 118 111 136 118 111 136 118 111 136 118 111 136 118 111 136 118 111 136 118 111 136 119 112 135 119 112 135 119 112 135 119 112 135 120 113 134 120 113 134 120 113 134 120 113 134 120 113 134 120 113 134 119 112 135 119 112 135 119 112 135 118 111 136 118 111 136 118 111 136 118 111 136 118 111 136 118 111 136 118 111 136 118 111 136 118 111 136 119 112 135 119 112 135 119 112 135 119 112 135 119 112 135 119 112 135 119 112 135 119 112 135 119 112 135 118 111 136 118 111 136 118 111 136 118 111 136 117 111 137 117 111 137 118 111 136 118 111 136 118 111 136 119 112 135 119 112 135 120 113 134 120 113 134 120 113 134 121 114 133 121 114 133 121 114 133 121 114 133 120 113 134 120 113 134 120 113 134 119 112 135 119 112 135 119 112 135 118 111 136 118 111 136 118 111 136 118 111 136 117 111 137 117 110 137 117 110 137 117 110 137 117 110 137 117 110 137 117 110 137 117 110 137 116 110 138 116 110 138 116 110 138 116 110 138 117 110 137 117 110 137 117 110 137 117 111 137 118 111 136 118 111 136 119 112 135 119 112 135 119 112 135 119 112 135 120 113 134 120 113 134 120 113 134 120 113 134 120 113 134 120 113 134 120 113 134 120 113 134 120 112 134 119 112 135 119 112 135 119 112 135 119 112 135 119 112 135 119 112 135 119 112 135 118 111 136 118 111 136 118 111 136 118 111 136 118 111 136 118 111 136 118 111 136 119 112 135 119 112 135 119 112 135 119 112 135 119 112 135 119 112 135 119 112 135 119 112 135 119 112 135 119 112 135 119 112 135 119 112 135 119 112 135 118 111 136 118 111 136 118 111 136 118 111 136 118 111 136 118 111 136 118 111 136 118 111 136 118 111 136 118 111 136 118 111 136 118 111 136 118 111 136 118 111 136 118 111 136 118 111 136 118 111 136 118 111 136 118 111 136 118 111 136 118 111 136 118 111 136 118 111 136 118 111 136 118 111 136 118 111 136 118 111 136 118 111 136 118 111 136 119 112 135 119 112 135 119 112 135 119 112 135 119 112 135 119 112 135 119 112 135 119 112 135 119 112 135 119 112 135 118 111 136 118 111 136 118 111 136 118 111 136 
120 113 134 120 113 134 120 113 134 121 113 133 121 113 133 120 113 134 120 113 134 120 113 134 120 113 134 120 112 134 119 112 135 119 112 135 119 112 135 118 111 136 118 111 136 118 111 136 118 111 136 118 111 136 118 111 136 118 111 136 118 111 136 119 112 135 119 112 135 119 112 135 119 112 135 120 113 134 120 113 134 120 113 134 120 113 134 119 112 135 119 112 135 119 112 135 119 112 135 118 111 136 118 111 136 118 111 136 118 111 136 117 111 137 118 111 136 118 111 136 118 111 136 118 111 136 119 112 135 119 112 135 119 112 135 120 113 134 120 113 134 120 113 134 120 113 134 119 112 135 119 112 135 119 112 135 118 111 136 118 111 136 118 111 136 118 111 136 118 111 136 118 111 136 118 111 136 118 111 136 119 112 135 120 113 134 120 113 134 121 114 133 121 114 133 121 114 133 122 114 132 122 114 132 121 114 133 121 114 133 121 113 133 120 113 134 119 112 135 119 112 135 118 111 136 118 111 136 118 111 136 118 111 136 117 111 137 117 110 137 117 111 137 117 111 137 118 111 136 118 111 136 117 111 137 117 110 137 117 110 137 117 110 137 117 110 137 117 110 137 117 110 137 117 110 137 117 110 137 117 110 137 117 110 137 117 110 137 118 111 136 118 111 136 118 111 136 119 112 135 119 112 135 120 113 134 120 113 134 120 113 134 120 113 134 121 113 133 121 114 133 121 114 133 121 113 133 120 113 134 120 113 134 120 113 134 120 113 134 120 113 134 120 112 134 119 112 135 119 112 135 119 112 135 119 112 135 118 111 136 118 111 136 118 111 136 118 111 136 118 111 136 119 112 135 119 112 135 119 112 135 119 112 135 119 112 135 119 112 135 120 113 134 120 113 134 120 113 134 120 113 134 120 113 134 119 112 135 119 112 135 119 112 135 119 112 135 119 112 135 118 111 136 118 111 136 118 111 136 118 111 136 118 111 136 118 111 136 118 111 136 118 111 136 118 111 136 118 111 136 118 111 136 119 112 135 119 112 135 119 112 135 118 111 136 118 111 136 118 111 136 118 111 136 118 111 136 118 111 136 118 111 136 118 111 136 118 111 136 118 111 136 118 111 136 118 111 136 118 111 136 118 111 136 119 112 135 119 112 135 119 112 135 119 112 135 119 112 135 119 112 135 119 112 135 119 112 135 119 112 135 119 112 135 118 111 136 118 111 136 118 111 136 
120 113 134 120 113 134 120 113 134 120 113 134 120 113 134 120 113 134 120 113 134 120 113 134 120 113 134 119 112 135 119 112 135 119 112 135 118 111 136 118 111 136 118 111 136 118 111 136 118 111 136 118 111 136 118 111 136 118 111 136 118 111 136 119 112 135 119 112 135 119 112 135 119 112 135 120 112 134 120 112 134 119 112 135 119 112 135 119 112 135 119 112 135 118 111 136 118 111 136 118 111 136 118 111 136 117 110 137 117 110 137 118 111 136 118 111 136 118 111 136 118 111 136 119 112 135 119 112 135 120 113 134 120 113 134 120 113 134 120 113 134 120 113 134 120 113 134 120 113 134 119 112 135 119 112 135 118 111 136 118 111 136 118 111 136 118 111 136 118 111 136 118 111 136 119 112 135 119 112 135 120 113 134 121 114 133 122 114 132 122 115 132 123 115 131 123 116 131 123 116 131 123 116 131 122 115 132 122 115 132 121 114 133 120 113 134 119 112 135 119 112 135 118 111 136 118 111 136 117 110 137 117 110 137 117 110 137 117 111 137 118 111 136 118 111 136 118 111 136 118 111 136 118 111 136 118 111 136 118 111 136 118 111 136 118 111 136 117 111 137 117 110 137 117 110 137 117 110 137 117 110 137 117 110 137 117 110 137 118 111 136 118 111 136 119 112 135 119 112 135 120 113 134 120 113 134 121 113 133 121 114 133 121 114 133 122 114 132 122 114 132 122 114 132 122 114 132 122 114 132 121 114 133 121 114 133 121 114 133 121 113 133 120 113 134 120 113 134 120 113 134 119 112 135 119 112 135 119 112 135 119 112 135 118 111 136 118 111 136 118 111 136 119 112 135 119 112 135 119 112 135 119 112 135 119 112 135 120 113 134 120 113 134 120 113 134 120 113 134 120 113 134 120 113 134 120 113 134 120 113 134 119 112 135 119 112 135 119 112 135 119 112 135 118 111 136 118 111 136 118 111 136 118 111 136 118 111 136 118 111 136 118 111 136 118 111 136 118 111 136 118 111 136 119 112 135 119 112 135 119 112 135 119 112 135 119 112 135 118 111 136 118 111 136 118 111 136 118 111 136 118 111 136 118 111 136 118 111 136 118 111 136 118 111 136 118 111 136 118 111 136 118 111 136 118 111 136 119 112 135 119 112 135 119 112 135 119 112 135 119 112 135 119 112 135 119 112 135 119 112 135 119 112 135 119 112 135 119 112 135 118 111 136 
120 113 134 120 113 134 120 113 134 120 113 134 120 113 134 120 113 134 120 113 134 120 113 134 119 112 135 119 112 135 119 112 135 118 111 136 118 111 136 118 111 136 118 111 136 118 111 136 118 111 136 118 111 136 118 111 136 118 111 136 118 111 136 119 112 135 119 112 135 119 112 135 119 112 135 119 112 135 119 112 135 119 112 135 119 112 135 119 112 135 118 111 136 118 111 136 118 111 136 117 111 137 117 110 137 117 110 137 118 111 136 118 111 136 118 111 136 119 112 135 119 112 135 120 113 134 120 113 134 121 114 133 121 114 133 121 114 133 121 114 133 121 114 133 121 113 133 120 113 134 120 112 134 119 112 135 119 112 135 118 111 136 118 111 136 118 111 136 118 111 136 119 112 135 120 113 134 121 113 133 122 114 132 123 115 131 123 116 131 124 117 130 125 117 129 125 118 129 125 118 129 125 117 129 124 117 130 123 116 131 122 115 132 121 114 133 120 113 134 119 112 135 118 111 136 118 111 136 117 110 137 117 110 137 117 110 137 118 111 136 118 111 136 119 112 135 119 112 135 119 112 135 120 113 134 120 113 134 120 113 134 119 112 135 119 112 135 119 112 135 118 111 136 118 111 136 118 111 136 118 111 136 118 111 136 118 111 136 118 111 136 118 111 136 119 112 135 119 112 135 120 113 134 121 114 133 121 114 133 122 115 132 122 115 132 122 115 132 123 115 131 123 115 131 123 115 131 123 115 131 122 115 132 122 115 132 122 115 132 121 114 133 121 114 133 121 114 133 120 113 134 120 113 134 119 112 135 119 112 135 119 112 135 119 112 135 118 111 136 118 111 136 118 111 136 119 112 135 119 112 135 119 112 135 119 112 135 120 113 134 120 113 134 120 113 134 120 113 134 120 113 134 120 113 134 120 113 134 120 113 134 120 113 134 119 112 135 119 112 135 119 112 135 119 112 135 118 111 136 118 111 136 118 111 136 118 111 136 118 111 136 118 111 136 118 111 136 118 111 136 118 111 136 119 112 135 119 112 135 119 112 135 119 112 135 119 112 135 119 112 135 118 111 136 118 111 136 118 111 136 118 111 136 118 111 136 118 111 136 118 111 136 118 111 136 118 111 136 118 111 136 118 111 136 118 111 136 118 111 136 119 112 135 119 112 135 119 112 135 119 112 135 119 112 135 119 112 135 119 112 135 119 112 135 119 112 135 119 112 135 119 112 135 
120 113 134 120 113 134 120 113 134 120 113 134 120 113 134 120 113 134 120 112 134 119 112 135 119 112 135 119 112 135 118 111 136 118 111 136 118 111 136 118 111 136 118 111 136 118 111 136 118 111 136 118 111 136 118 111 136 118 111 136 119 112 135 119 112 135 119 112 135 119 112 135 119 112 135 119 112 135 119 112 135 119 112 135 119 112 135 118 111 136 118 111 136 118 111 136 117 111 137 117 110 137 117 110 137 118 111 136 118 111 136 118 111 136 119 112 135 119 112 135 120 113 134 121 114 133 121 114 133 122 115 132 122 115 132 122 115 132 122 115 132 122 114 132 121 114 133 121 113 133 120 113 134 119 112 135 119 112 135 119 112 135 118 111 136 119 112 135 119 112 135 120 113 134 121 114 133 122 115 132 123 116 131 124 117 130 126 118 128 126 119 128 127 119 127 127 119 127 127 119 127 127 119 127 126 118 128 125 117 129 123 116 131 122 115 132 121 114 133 120 113 134 119 112 135 118 111 136 118 111 136 118 111 136 118 111 136 118 111 136 119 112 135 120 112 134 120 113 134 121 114 133 121 114 133 121 114 133 121 114 133 121 114 133 121 114 133 120 113 134 120 113 134 119 112 135 119 112 135 119 112 135 118 111 136 118 111 136 119 112 135 119 112 135 119 112 135 120 113 134 121 113 133 121 114 133 122 115 132 123 115 131 123 116 131 123 116 131 124 116 130 124 116 130 124 116 130 124 116 130 123 116 131 123 116 131 123 116 131 122 115 132 122 115 132 121 114 133 121 114 133 120 113 134 120 113 134 119 112 135 119 112 135 119 112 135 119 112 135 118 111 136 118 111 136 119 112 135 119 112 135 119 112 135 119 112 135 120 112 134 120 113 134 120 113 134 120 113 134 120 113 134 120 113 134 120 113 134 120 113 134 120 113 134 120 113 134 119 112 135 119 112 135 119 112 135 118 111 136 118 111 136 118 111 136 118 111 136 118 111 136 118 111 136 118 111 136 118 111 136 118 111 136 119 112 135 119 112 135 119 112 135 119 112 135 119 112 135 119 112 135 119 112 135 119 112 135 118 111 136 118 111 136 118 111 136 118 111 136 118 111 136 118 111 136 118 111 136 118 111 136 118 111 136 118 111 136 118 111 136 119 112 135 119 112 135 119 112 135 119 112 135 119 112 135 119 112 135 119 112 135 119 112 135 119 112 135 119 112 135 119 112 135 
120 112 134 120 113 134 120 113 134 120 112 134 119 112 135 119 112 135 119 112 135 119 112 135 119 112 135 118 111 136 118 111 136 118 111 136 118 111 136 118 111 136 118 111 136 118 111 136 118 111 136 118 111 136 118 111 136 118 111 136 119 112 135 119 112 135 119 112 135 119 112 135 119 112 135 119 112 135 119 112 135 118 111 136 118 111 136 118 111 136 118 111 136 117 111 137 117 110 137 117 110 137 118 111 136 118 111 136 118 111 136 119 112 135 120 113 134 120 113 134 121 114 133 122 115 132 122 115 132 123 116 131 123 116 131 123 116 131 123 115 131 122 115 132 122 115 132 121 114 133 120 113 134 120 113 134 119 112 135 119 112 135 119 112 135 119 112 135 120 113 134 121 114 133 122 115 132 123 116 131 125 117 129 126 119 128 128 119 126 129 118 125 129 117 125 129 117 125 129 117 125 129 118 125 128 119 126 127 119 127 125 118 129 124 116 130 122 115 132 121 114 133 120 113 134 119 112 135 118 111 136 118 111 136 119 112 135 119 112 135 120 113 134 121 114 133 121 114 133 122 115 132 123 116 131 123 116 131 123 116 131 123 116 131 123 116 131 122 115 132 122 115 132 121 114 133 121 113 133 120 113 134 120 113 134 119 112 135 119 112 135 120 113 134 120 113 134 121 113 133 121 114 133 122 115 132 123 115 131 123 116 131 124 116 130 124 117 130 124 117 130 125 117 129 125 117 129 125 117 129 124 117 130 124 117 130 124 116 130 123 116 131 123 115 131 122 115 132 121 114 133 121 114 133 120 113 134 120 113 134 119 112 135 119 112 135 119 112 135 119 112 135 118 111 136 118 111 136 119 112 135 119 112 135 119 112 135 119 112 135 120 113 134 120 113 134 120 113 134 120 113 134 120 113 134 120 113 134 120 113 134 120 113 134 120 113 134 120 112 134 119 112 135 119 112 135 119 112 135 118 111 136 118 111 136 118 111 136 118 111 136 118 111 136 118 111 136 118 111 136 118 111 136 118 111 136 119 112 135 119 112 135 119 112 135 119 112 135 119 112 135 119 112 135 119 112 135 119 112 135 118 111 136 118 111 136 118 111 136 118 111 136 118 111 136 118 111 136 118 111 136 118 111 136 118 111 136 118 111 136 118 111 136 119 112 135 119 112 135 119 112 135 119 112 135 119 112 135 119 112 135 119 112 135 119 112 135 119 112 135 119 112 135 
119 112 135 119 112 135 119 112 135 119 112 135 119 112 135 119 112 135 119 112 135 118 111 136 118 111 136 118 111 136 118 111 136 118 111 136 118 111 136 118 111 136 118 111 136 118 111 136 118 111 136 118 111 136 118 111 136 118 111 136 119 112 135 119 112 135 119 112 135 119 112 135 119 112 135 118 111 136 118 111 136 118 111 136 118 111 136 118 111 136 117 111 137 117 110 137 117 111 137 118 111 136 118 111 136 118 111 136 119 112 135 120 113 134 121 113 133 121 114 133 122 115 132 123 116 131 123 116 131 124 116 130 124 116 130 124 116 130 123 116 131 123 116 131 122 115 132 122 114 132 121 114 133 120 113 134 120 113 134 119 112 135 120 112 134 120 113 134 121 114 133 122 115 132 123 116 131 125 117 129 126 119 128 128 119 126 129 117 125 130 116 124 131 116 123 131 115 123 131 115 123 131 116 123 130 117 124 128 118 126 127 119 127 125 118 129 124 116 130 122 115 132 121 114 133 120 113 134 119 112 135 119 112 135 120 113 134 120 113 134 121 114 133 122 115 132 123 116 131 124 116 130 124 117 130 125 118 129 125 118 129 125 118 129 125 118 129 124 117 130 124 116 130 123 116 131 122 115 132 122 114 132 121 114 133 121 114 133 121 113 133 121 113 133 121 114 133 121 114 133 122 115 132 122 115 132 123 116 131 124 116 130 124 117 130 125 117 129 125 117 129 125 118 129 125 118 129 125 118 129 125 117 129 125 117 129 124 117 130 124 116 130 123 116 131 123 115 131 122 115 132 121 114 133 121 114 133 120 113 134 120 113 134 119 112 135 119 112 135 119 112 135 118 111 136 118 111 136 118 111 136 119 112 135 119 112 135 119 112 135 119 112 135 120 113 134 120 113 134 120 113 134 120 113 134 120 113 134 120 113 134 120 113 134 120 113 134 120 113 134 119 112 135 119 112 135 119 112 135 118 111 136 118 111 136 118 111 136 118 111 136 118 111 136 118 111 136 118 111 136 118 111 136 118 111 136 119 112 135 119 112 135 119 112 135 119 112 135 119 112 135 119 112 135 119 112 135 119 112 135 119 112 135 119 112 135 118 111 136 118 111 136 118 111 136 118 111 136 118 111 136 118 111 136 118 111 136 118 111 136 118 111 136 119 112 135 119 112 135 119 112 135 119 112 135 119 112 135 119 112 135 119 112 135 119 112 135 119 112 135 119 112 135 
119 112 135 119 112 135 119 112 135 119 112 135 119 112 135 118 111 136 118 111 136 118 111 136 118 111 136 118 111 136 118 111 136 118 111 136 118 111 136 118 111 136 118 111 136 118 111 136 118 111 136 118 111 136 118 111 136 119 112 135 119 112 135 119 112 135 119 112 135 118 111 136 118 111 136 118 111 136 118 111 136 118 111 136 118 111 136 118 111 136 117 111 137 118 111 136 118 111 136 118 111 136 119 112 135 119 112 135 120 113 134 121 113 133 121 114 133 122 115 132 123 116 131 124 116 130 124 117 130 124 117 130 124 117 130 124 117 130 124 117 130 123 116 131 123 115 131 122 115 132 121 114 133 121 113 133 120 113 134 120 113 134 120 113 134 121 114 133 121 114 133 123 115 131 124 117 130 126 118 128 127 119 127 129 118 125 130 116 124 132 115 122 133 114 121 133 114 121 133 114 121 132 114 122 132 115 122 130 116 124 129 118 125 127 119 127 125 118 129 124 117 130 123 115 131 122 114 132 121 114 133 121 114 133 121 114 133 121 114 133 122 115 132 123 116 131 124 117 130 125 118 129 126 118 128 126 119 128 127 119 127 127 119 127 127 119 127 126 119 128 126 118 128 125 117 129 124 117 130 123 116 131 123 115 131 122 115 132 122 114 132 122 114 132 122 114 132 122 115 132 122 115 132 123 115 131 123 116 131 124 116 130 124 117 130 125 117 129 125 118 129 125 118 129 125 118 129 125 118 129 125 118 129 125 117 129 124 117 130 124 117 130 123 116 131 123 116 131 122 115 132 122 114 132 121 114 133 120 113 134 120 113 134 119 112 135 119 112 135 119 112 135 118 111 136 118 111 136 118 111 136 118 111 136 118 111 136 119 112 135 119 112 135 119 112 135 119 112 135 120 113 134 120 113 134 120 113 134 120 113 134 120 113 134 120 113 134 120 113 134 119 112 135 119 112 135 119 112 135 118 111 136 118 111 136 118 111 136 118 111 136 118 111 136 118 111 136 118 111 136 118 111 136 118 111 136 119 112 135 119 112 135 119 112 135 119 112 135 119 112 135 119 112 135 119 112 135 119 112 135 119 112 135 119 112 135 119 112 135 119 112 135 118 111 136 118 111 136 118 111 136 118 111 136 118 111 136 118 111 136 119 112 135 119 112 135 119 112 135 119 112 135 119 112 135 119 112 135 119 112 135 119 112 135 119 112 135 120 112 134 120 112 134 
119 112 135 118 111 136 118 111 136 118 111 136 118 111 136 118 111 136 118 111 136 118 111 136 118 111 136 118 111 136 118 111 136 118 111 136 118 111 136 118 111 136 118 111 136 118 111 136 118 111 136 118 111 136 119 112 135 119 112 135 119 112 135 119 112 135 118 111 136 118 111 136 118 111 136 118 111 136 118 111 136 118 111 136 118 111 136 118 111 136 118 111 136 118 111 136 118 111 136 119 112 135 119 112 135 120 113 134 121 114 133 121 114 133 122 115 132 123 116 131 124 116 130 124 117 130 124 117 130 125 117 129 125 117 129 124 117 130 124 117 130 123 116 131 123 116 131 122 115 132 121 114 133 121 114 133 121 113 133 120 113 134 121 114 133 121 114 133 122 115 132 123 116 131 124 117 130 126 119 128 128 119 126 129 117 125 131 116 123 132 115 122 133 114 121 134 113 120 134 113 120 134 113 120 133 114 121 132 115 122 130 116 124 129 118 125 127 119 127 126 118 128 124 117 130 123 116 131 123 115 131 122 115 132 122 115 132 123 115 131 123 116 131 124 117 130 125 118 129 126 118 128 127 119 127 127 119 127 128 119 126 128 119 126 128 119 126 128 119 126 127 119 127 126 119 128 125 118 129 125 117 129 124 117 130 123 116 131 123 115 131 122 115 132 122 115 132 122 115 132 122 115 132 123 115 131 123 116 131 123 116 131 124 116 130 124 117 130 124 117 130 125 117 129 125 117 129 125 117 129 125 117 129 124 117 130 124 117 130 124 116 130 123 116 131 123 116 131 122 115 132 122 115 132 121 114 133 121 113 133 120 113 134 120 113 134 119 112 135 119 112 135 118 111 136 118 111 136 118 111 136 118 111 136 118 111 136 118 111 136 119 112 135 119 112 135 119 112 135 119 112 135 120 112 134 120 113 134 120 113 134 120 113 134 120 113 134 120 112 134 119 112 135 119 112 135 119 112 135 119 112 135 118 111 136 118 111 136 118 111 136 118 111 136 118 111 136 118 111 136 118 111 136 118 111 136 118 111 136 119 112 135 119 112 135 119 112 135 119 112 135 119 112 135 119 112 135 119 112 135 119 112 135 119 112 135 119 112 135 119 112 135 119 112 135 119 112 135 118 111 136 118 111 136 118 111 136 119 112 135 119 112 135 119 112 135 119 112 135 119 112 135 119 112 135 119 112 135 119 112 135 119 112 135 120 112 134 120 113 134 120 113 134 
118 111 136 118 111 136 118 111 136 118 111 136 118 111 136 118 111 136 118 111 136 118 111 136 118 111 136 118 111 136 118 111 136 118 111 136 118 111 136 118 111 136 118 111 136 119 112 135 119 112 135 119 112 135 119 112 135 119 112 135 119 112 135 118 111 136 118 111 136 118 111 136 118 111 136 118 111 136 118 111 136 118 111 136 118 111 136 118 111 136 118 111 136 118 111 136 119 112 135 119 112 135 120 113 134 121 114 133 121 114 133 122 115 132 123 115 131 123 116 131 124 116 130 124 117 130 124 117 130 124 117 130 124 117 130 124 117 130 124 116 130 123 116 131 123 115 131 122 115 132 122 114 132 121 114 133 121 114 133 121 114 133 121 114 133 121 114 133 122 115 132 123 116 131 124 117 130 126 118 128 127 119 127 129 118 125 130 116 124 132 115 122 133 114 121 133 113 121 134 113 120 134 113 120 133 114 121 133 114 121 132 115 122 130 116 124 129 118 125 128 119 126 126 119 128 125 118 129 124 117 130 124 116 130 124 116 130 124 116 130 124 117 130 125 117 129 125 118 129 126 119 128 127 119 127 128 119 126 128 118 126 128 118 126 128 118 126 128 118 126 128 119 126 127 119 127 126 119 128 126 118 128 125 117 129 124 117 130 123 116 131 123 116 131 122 115 132 122 115 132 122 115 132 122 115 132 122 115 132 123 115 131 123 116 131 123 116 131 124 116 130 124 116 130 124 116 130 124 117 130 124 116 130 124 116 130 123 116 131 123 116 131 123 116 131 122 115 132 122 115 132 122 114 132 121 114 133 121 113 133 120 113 134 120 113 134 119 112 135 119 112 135 119 112 135 118 111 136 118 111 136 118 111 136 118 111 136 118 111 136 118 111 136 118 111 136 119 112 135 119 112 135 119 112 135 119 112 135 119 112 135 119 112 135 119 112 135 119 112 135 119 112 135 119 112 135 119 112 135 119 112 135 118 111 136 118 111 136 118 111 136 118 111 136 118 111 136 118 111 136 118 111 136 118 111 136 118 111 136 118 111 136 119 112 135 119 112 135 119 112 135 119 112 135 119 112 135 119 112 135 119 112 135 119 112 135 119 112 135 119 112 135 119 112 135 119 112 135 119 112 135 119 112 135 119 112 135 119 112 135 119 112 135 119 112 135 119 112 135 119 112 135 119 112 135 119 112 135 119 112 135 119 112 135 120 112 134 120 113 134 120 113 134 
118 111 136 118 111 136 118 111 136 118 111 136 118 111 136 118 111 136 118 111 136 118 111 136 118 111 136 118 111 136 118 111 136 118 111 136 119 112 135 119 112 135 119 112 135 119 112 135 119 112 135 119 112 135 119 112 135 119 112 135 118 111 136 118 111 136 118 111 136 118 111 136 118 111 136 118 111 136 118 111 136 118 111 136 118 111 136 118 111 136 119 112 135 119 112 135 120 113 134 120 113 134 121 114 133 121 114 133 122 115 132 122 115 132 123 116 131 123 116 131 124 116 130 124 116 130 124 117 130 124 116 130 124 116 130 123 116 131 123 116 131 123 116 131 122 115 132 122 115 132 122 114 132 121 114 133 121 114 133 121 114 133 121 114 133 122 114 132 122 115 132 123 116 131 124 117 130 125 118 129 126 119 128 128 119 126 129 118 125 130 117 124 131 116 123 132 115 122 133 114 121 133 114 121 133 114 121 133 114 121 132 115 122 131 116 123 130 117 124 129 118 125 128 119 126 127 119 127 126 118 128 125 118 129 125 117 129 124 117 130 124 117 130 125 117 129 125 118 129 126 118 128 126 119 128 127 119 127 128 119 126 128 119 126 128 119 126 128 119 126 128 119 126 127 119 127 127 119 127 126 119 128 125 118 129 124 117 130 124 116 130 123 116 131 122 115 132 122 115 132 122 115 132 122 114 132 122 114 132 122 115 132 122 115 132 122 115 132 122 115 132 122 115 132 123 115 131 123 115 131 123 115 131 122 115 132 122 115 132 122 115 132 122 115 132 122 114 132 121 114 133 121 114 133 121 114 133 120 113 134 120 113 134 120 113 134 119 112 135 119 112 135 119 112 135 118 111 136 118 111 136 118 111 136 118 111 136 118 111 136 118 111 136 118 111 136 118 111 136 118 111 136 119 112 135 119 112 135 119 112 135 119 112 135 119 112 135 119 112 135 119 112 135 119 112 135 119 112 135 119 112 135 118 111 136 118 111 136 118 111 136 118 111 136 118 111 136 118 111 136 118 111 136 118 111 136 118 111 136 118 111 136 119 112 135 119 112 135 119 112 135 119 112 135 119 112 135 119 112 135 119 112 135 119 112 135 119 112 135 119 112 135 119 112 135 119 112 135 119 112 135 119 112 135 119 112 135 119 112 135 119 112 135 119 112 135 119 112 135 119 112 135 119 112 135 119 112 135 119 112 135 119 112 135 119 112 135 120 112 134 120 113 134 
118 111 136 118 111 136 118 111 136 118 111 136 118 111 136 118 111 136 118 111 136 118 111 136 118 111 136 118 111 136 119 112 135 119 112 135 119 112 135 119 112 135 119 112 135 119 112 135 119 112 135 119 112 135 119 112 135 119 112 135 118 111 136 118 111 136 118 111 136 118 111 136 118 111 136 118 111 136 118 111 136 118 111 136 118 111 136 119 112 135 119 112 135 120 113 134 120 113 134 121 114 133 121 114 133 122 115 132 122 115 132 122 115 132 123 115 131 123 116 131 123 116 131 123 116 131 123 116 131 123 115 131 123 115 131 122 115 132 122 115 132 122 115 132 122 115 132 122 115 132 122 114 132 121 114 133 121 114 133 121 114 133 121 114 133 121 114 133 122 114 132 122 115 132 123 115 131 123 116 131 124 117 130 125 118 129 127 119 127 128 119 126 129 118 125 130 117 124 131 116 123 131 115 123 132 115 122 132 115 122 132 115 122 131 115 123 131 116 123 130 117 124 129 118 125 128 119 126 127 119 127 126 119 128 125 118 129 125 117 129 124 117 130 124 117 130 124 117 130 125 117 129 125 118 129 126 118 128 126 119 128 126 119 128 127 119 127 127 119 127 127 119 127 127 119 127 126 119 128 126 118 128 125 118 129 124 117 130 123 116 131 123 116 131 122 115 132 122 114 132 121 114 133 121 114 133 121 114 133 121 114 133 121 114 133 121 114 133 121 114 133 121 114 133 121 114 133 121 114 133 121 114 133 121 114 133 121 114 133 121 114 133 121 114 133 121 114 133 120 113 134 120 113 134 120 113 134 120 113 134 120 113 134 119 112 135 119 112 135 119 112 135 119 112 135 118 111 136 118 111 136 118 111 136 118 111 136 118 111 136 118 111 136 118 111 136 118 111 136 118 111 136 118 111 136 118 111 136 119 112 135 119 112 135 119 112 135 119 112 135 119 112 135 119 112 135 119 112 135 118 111 136 118 111 136 118 111 136 118 111 136 118 111 136 118 111 136 118 111 136 118 111 136 118 111 136 118 111 136 118 111 136 118 111 136 119 112 135 119 112 135 119 112 135 119 112 135 119 112 135 119 112 135 119 112 135 119 112 135 119 112 135 119 112 135 119 112 135 119 112 135 119 112 135 119 112 135 119 112 135 119 112 135 119 112 135 119 112 135 119 112 135 119 112 135 119 112 135 119 112 135 119 112 135 119 112 135 119 112 135 119 112 135 
118 111 136 118 111 136 118 111 136 118 111 136 118 111 136 118 111 136 118 111 136 119 112 135 119 112 135 119 112 135 119 112 135 120 113 134 120 113 134 120 113 134 120 113 134 120 113 134 120 112 134 119 112 135 119 112 135 119 112 135 118 111 136 118 111 136 118 111 136 118 111 136 118 111 136 118 111 136 118 111 136 119 112 135 119 112 135 120 112 134 120 113 134 121 113 133 121 114 133 121 114 133 122 115 132 122 115 132 122 115 132 122 115 132 122 115 132 122 115 132 122 115 132 122 114 132 121 114 133 121 114 133 121 114 133 121 114 133 121 114 133 121 114 133 121 114 133 121 114 133 121 114 133 121 114 133 121 114 133 121 114 133 121 114 133 121 114 133 121 114 133 121 114 133 121 114 133 121 114 133 122 115 132 123 115 131 124 116 130 125 117 129 126 118 128 127 119 127 128 119 126 129 118 125 130 117 124 130 116 124 131 116 123 131 116 123 131 116 123 130 117 124 129 117 125 128 118 126 127 119 127 126 119 128 125 118 129 125 117 129 124 117 130 123 116 131 123 116 131 123 116 131 123 116 131 123 116 131 124 116 130 124 117 130 124 117 130 125 117 129 125 118 129 125 118 129 125 117 129 125 117 129 124 117 130 124 116 130 123 116 131 122 115 132 122 114 132 121 114 133 120 113 134 120 113 134 120 113 134 120 112 134 119 112 135 119 112 135 119 112 135 119 112 135 120 112 134 120 113 134 120 113 134 120 113 134 120 113 134 120 113 134 120 112 134 119 112 135 119 112 135 119 112 135 119 112 135 119 112 135 119 112 135 119 112 135 119 112 135 119 112 135 119 112 135 119 112 135 119 112 135 118 111 136 118 111 136 118 111 136 118 111 136 118 111 136 118 111 136 118 111 136 118 111 136 118 111 136 118 111 136 118 111 136 118 111 136 118 111 136 118 111 136 118 111 136 118 111 136 118 111 136 118 111 136 118 111 136 118 111 136 118 111 136 118 111 136 118 111 136 118 111 136 118 111 136 118 111 136 118 111 136 118 111 136 118 111 136 119 112 135 119 112 135 119 112 135 119 112 135 119 112 135 119 112 135 119 112 135 119 112 135 119 112 135 119 112 135 119 112 135 119 112 135 119 112 135 119 112 135 119 112 135 119 112 135 119 112 135 119 112 135 119 112 135 119 112 135 119 112 135 119 112 135 119 112 135 119 112 135 119 112 135 
118 111 136 118 111 136 118 111 136 118 111 136 118 111 136 119 112 135 119 112 135 119 112 135 120 113 134 120 113 134 120 113 134 120 113 134 120 113 134 120 113 134 120 113 134 120 113 134 120 113 134 119 112 135 119 112 135 119 112 135 118 111 136 118 111 136 118 111 136 118 111 136 118 111 136 118 111 136 119 112 135 119 112 135 120 113 134 120 113 134 121 114 133 121 114 133 122 114 132 122 115 132 122 115 132 122 115 132 122 115 132 121 114 133 121 114 133 121 114 133 120 113 134 120 113 134 120 113 134 120 113 134 120 113 134 120 113 134 120 113 134 120 113 134 121 114 133 121 114 133 121 114 133 121 114 133 121 114 133 121 114 133 120 113 134 120 113 134 120 113 134 119 112 135 119 112 135 119 112 135 119 112 135 120 112 134 120 113 134 121 114 133 122 115 132 123 116 131 125 117 129 126 119 128 127 119 127 128 118 126 129 118 125 129 117 125 130 117 124 129 117 125 129 118 125 128 118 126 127 119 127 126 119 128 125 118 129 124 116 130 123 115 131 122 115 132 121 114 133 121 113 133 120 113 134 120 113 134 121 114 133 121 114 133 121 114 133 122 115 132 122 115 132 123 115 131 123 116 131 123 116 131 123 115 131 122 115 132 122 115 132 121 114 133 121 114 133 120 113 134 120 113 134 119 112 135 119 112 135 119 112 135 118 111 136 118 111 136 118 111 136 118 111 136 118 111 136 118 111 136 118 111 136 118 111 136 118 111 136 118 111 136 118 111 136 118 111 136 118 111 136 118 111 136 118 111 136 119 112 135 119 112 135 119 112 135 119 112 135 119 112 135 119 112 135 119 112 135 119 112 135 119 112 135 119 112 135 118 111 136 118 111 136 118 111 136 118 111 136 118 111 136 118 111 136 118 111 136 118 111 136 118 111 136 118 111 136 118 111 136 118 111 136 118 111 136 118 111 136 118 111 136 118 111 136 118 111 136 118 111 136 118 111 136 118 111 136 118 111 136 118 111 136 118 111 136 118 111 136 118 111 136 118 111 136 118 111 136 118 111 136 118 111 136 118 111 136 119 112 135 119 112 135 119 112 135 119 112 135 119 112 135 119 112 135 119 112 135 119 112 135 119 112 135 119 112 135 119 112 135 119 112 135 119 112 135 119 112 135 119 112 135 119 112 135 119 112 135 119 112 135 119 112 135 119 112 135 119 112 135 119 112 135 
118 111 136 118 111 136 118 111 136 119 112 135 119 112 135 119 112 135 120 113 134 120 113 134 121 114 133 121 114 133 121 114 133 121 114 133 121 114 133 121 114 133 121 114 133 120 113 134 120 113 134 119 112 135 119 112 135 118 111 136 118 111 136 118 111 136 118 111 136 118 111 136 118 111 136 119 112 135 119 112 135 120 113 134 121 113 133 121 114 133 122 114 132 122 115 132 122 115 132 122 115 132 122 115 132 121 114 133 121 114 133 120 113 134 120 113 134 119 112 135 119 112 135 118 111 136 118 111 136 118 111 136 119 112 135 119 112 135 119 112 135 120 113 134 120 113 134 121 113 133 121 114 133 121 114 133 121 113 133 120 113 134 120 113 134 119 112 135 118 111 136 118 111 136 117 110 137 117 110 137 116 110 138 117 110 137 117 110 137 118 111 136 119 112 135 120 113 134 122 114 132 123 116 131 124 117 130 126 118 128 127 119 127 128 119 126 128 118 126 128 118 126 128 119 126 127 119 127 126 119 128 125 118 129 124 116 130 122 115 132 121 114 133 120 113 134 119 112 135 118 111 136 117 110 137 117 110 137 117 110 137 118 111 136 118 111 136 119 112 135 119 112 135 120 113 134 120 113 134 121 114 133 121 114 133 121 114 133 121 114 133 121 114 133 120 113 134 120 113 134 119 112 135 119 112 135 119 112 135 118 111 136 118 111 136 118 111 136 118 111 136 118 111 136 118 111 136 117 111 137 117 111 137 117 110 137 117 110 137 117 110 137 117 110 137 117 110 137 117 110 137 117 111 137 118 111 136 118 111 136 118 111 136 118 111 136 118 111 136 119 112 135 119 112 135 119 112 135 119 112 135 119 112 135 119 112 135 119 112 135 119 112 135 119 112 135 118 111 136 118 111 136 118 111 136 118 111 136 118 111 136 118 111 136 118 111 136 118 111 136 118 111 136 118 111 136 118 111 136 118 111 136 118 111 136 118 111 136 118 111 136 118 111 136 118 111 136 118 111 136 118 111 136 118 111 136 118 111 136 119 112 135 119 112 135 118 111 136 118 111 136 118 111 136 118 111 136 118 111 136 118 111 136 118 111 136 118 111 136 118 111 136 119 112 135 119 112 135 119 112 135 119 112 135 119 112 135 119 112 135 119 112 135 119 112 135 119 112 135 119 112 135 119 112 135 119 112 135 119 112 135 119 112 135 119 112 135 119 112 135 119 112 135 
118 111 136 119 112 135 119 112 135 119 112 135 120 113 134 121 113 133 121 114 133 122 114 132 122 115 132 122 115 132 122 115 132 122 115 132 122 115 132 122 114 132 121 114 133 121 113 133 120 113 134 119 112 135 119 112 135 118 111 136 118 111 136 118 111 136 118 111 136 118 111 136 119 112 135 119 112 135 120 113 134 121 114 133 121 114 133 122 115 132 122 115 132 122 115 132 122 115 132 122 115 132 121 114 133 121 114 133 120 113 134 119 112 135 118 111 136 118 111 136 117 110 137 117 110 137 117 110 137 117 110 137 118 111 136 118 111 136 119 112 135 120 113 134 120 113 134 120 113 134 121 113 133 120 113 134 120 113 134 120 112 134 119 112 135 118 111 136 117 110 137 116 109 138 115 108 139 115 108 139 114 108 140 114 108 140 115 108 139 115 109 139 116 110 138 118 111 136 119 112 135 121 113 133 122 115 132 123 116 131 125 117 129 125 118 129 126 119 128 126 119 128 126 119 128 126 118 128 125 117 129 124 116 130 122 115 132 121 113 133 119 112 135 118 111 136 116 109 138 115 108 139 114 108 140 114 107 140 114 107 140 114 107 140 115 108 139 115 109 139 116 109 138 117 110 137 118 111 136 119 112 135 119 112 135 120 113 134 120 113 134 120 113 134 120 113 134 120 113 134 119 112 135 119 112 135 119 112 135 118 111 136 118 111 136 118 111 136 118 111 136 118 111 136 117 111 137 117 110 137 117 110 137 117 110 137 117 110 137 117 110 137 117 110 137 117 110 137 117 110 137 117 110 137 117 110 137 117 110 137 117 110 137 118 111 136 118 111 136 118 111 136 119 112 135 119 112 135 119 112 135 119 112 135 119 112 135 119 112 135 119 112 135 119 112 135 119 112 135 119 112 135 119 112 135 118 111 136 118 111 136 118 111 136 118 111 136 118 111 136 118 111 136 118 111 136 118 111 136 118 111 136 118 111 136 118 111 136 118 111 136 118 111 136 118 111 136 118 111 136 119 112 135 119 112 135 119 112 135 119 112 135 119 112 135 119 112 135 119 112 135 119 112 135 118 111 136 118 111 136 118 111 136 118 111 136 118 111 136 118 111 136 118 111 136 118 111 136 119 112 135 119 112 135 119 112 135 119 112 135 119 112 135 119 112 135 119 112 135 119 112 135 119 112 135 119 112 135 119 112 135 119 112 135 119 112 135 119 112 135 119 112 135 
119 112 135 119 112 135 120 113 134 121 113 133 121 114 133 122 115 132 122 115 132 123 116 131 123 116 131 123 116 131 123 116 131 123 116 131 123 115 131 122 115 132 121 114 133 121 113 133 120 113 134 119 112 135 119 112 135 118 111 136 118 111 136 118 111 136 118 111 136 119 112 135 119 112 135 120 113 134 121 114 133 122 114 132 122 115 132 123 115 131 123 115 131 123 115 131 122 115 132 122 114 132 121 114 133 120 113 134 119 112 135 118 111 136 117 110 137 116 110 138 116 109 138 116 109 138 116 110 138 117 110 137 118 111 136 118 111 136 119 112 135 120 113 134 120 113 134 121 114 133 121 114 133 120 113 134 120 113 134 119 112 135 118 111 136 117 110 137 116 109 138 115 108 139 114 107 140 113 107 141 113 106 141 113 107 141 114 107 140 114 108 140 115 109 139 117 110 137 118 111 136 119 112 135 121 113 133 122 115 132 123 115 131 123 116 131 124 117 130 124 117 130 124 117 130 123 116 131 123 115 131 121 114 133 120 113 134 119 112 135 117 110 137 115 109 139 114 107 140 113 106 141 112 105 142 111 105 143 111 105 143 111 105 143 112 105 142 113 106 141 114 107 140 115 108 139 116 109 138 117 110 137 118 111 136 119 112 135 119 112 135 120 113 134 120 113 134 120 113 134 120 113 134 120 113 134 120 113 134 119 112 135 119 112 135 119 112 135 119 112 135 119 112 135 118 111 136 118 111 136 118 111 136 118 111 136 117 110 137 117 110 137 117 110 137 117 110 137 117 110 137 117 110 137 117 110 137 117 110 137 117 110 137 117 110 137 118 111 136 118 111 136 118 111 136 119 112 135 119 112 135 119 112 135 120 113 134 120 113 134 120 113 134 120 113 134 119 112 135 119 112 135 119 112 135 119 112 135 118 111 136 118 111 136 118 111 136 118 111 136 118 111 136 117 111 137 117 111 137 117 111 137 118 111 136 118 111 136 118 111 136 118 111 136 118 111 136 119 112 135 119 112 135 119 112 135 119 112 135 119 112 135 119 112 135 119 112 135 119 112 135 119 112 135 119 112 135 118 111 136 118 111 136 118 111 136 118 111 136 118 111 136 118 111 136 118 111 136 118 111 136 118 111 136 119 112 135 119 112 135 119 112 135 119 112 135 119 112 135 119 112 135 119 112 135 119 112 135 119 112 135 119 112 135 119 112 135 119 112 135 118 111 136 
120 113 134 120 113 134 121 114 133 122 115 132 123 115 131 123 116 131 124 117 130 124 117 130 125 117 129 125 117 129 124 117 130 124 116 130 123 116 131 122 115 132 121 114 133 120 113 134 120 113 134 119 112 135 118 111 136 118 111 136 118 111 136 118 111 136 119 112 135 119 112 135 120 113 134 121 114 133 122 115 132 123 115 131 123 116 131 123 116 131 123 116 131 123 115 131 122 115 132 121 114 133 120 113 134 119 112 135 117 111 137 117 110 137 116 109 138 116 109 138 116 109 138 116 109 138 117 110 137 117 111 137 118 111 136 119 112 135 120 113 134 121 114 133 121 114 133 121 114 133 121 114 133 120 113 134 119 112 135 118 111 136 117 110 137 116 109 138 115 108 139 114 107 140 113 107 141 113 107 141 113 107 141 114 107 140 115 108 139 116 109 138 117 110 137 118 111 136 119 112 135 120 113 134 121 113 133 121 114 133 122 115 132 122 115 132 122 115 132 122 115 132 122 114 132 121 114 133 120 113 134 119 112 135 118 111 136 117 110 137 115 108 139 114 107 140 112 106 142 111 105 143 110 104 144 110 103 144 109 103 145 110 103 144 110 103 144 111 104 143 112 105 142 113 106 141 114 108 140 116 109 138 117 110 137 118 111 136 119 112 135 120 113 134 121 114 133 121 114 133 121 114 133 122 114 132 121 114 133 121 114 133 121 114 133 121 114 133 121 114 133 120 113 134 120 113 134 120 113 134 119 112 135 119 112 135 119 112 135 118 111 136 118 111 136 118 111 136 117 110 137 117 110 137 117 110 137 117 110 137 117 110 137 117 110 137 118 111 136 118 111 136 118 111 136 119 112 135 119 112 135 120 112 134 120 113 134 120 113 134 120 113 134 120 113 134 120 113 134 120 113 134 119 112 135 119 112 135 119 112 135 118 111 136 118 111 136 118 111 136 118 111 136 117 111 137 117 110 137 117 110 137 117 111 137 118 111 136 118 111 136 118 111 136 118 111 136 119 112 135 119 112 135 119 112 135 119 112 135 119 112 135 120 112 134 119 112 135 119 112 135 119 112 135 119 112 135 119 112 135 118 111 136 118 111 136 118 111 136 118 111 136 118 111 136 118 111 136 118 111 136 118 111 136 118 111 136 119 112 135 119 112 135 119 112 135 119 112 135 119 112 135 119 112 135 119 112 135 119 112 135 119 112 135 119 112 135 119 112 135 118 111 136 
121 113 133 122 114 132 122 115 132 123 116 131 124 117 130 125 118 129 126 118 128 126 118 128 126 118 128 126 118 128 125 118 129 124 117 130 123 116 131 122 115 132 121 114 133 120 113 134 119 112 135 119 112 135 118 111 136 118 111 136 118 111 136 119 112 135 119 112 135 120 113 134 121 114 133 122 115 132 123 116 131 123 116 131 124 116 130 123 116 131 123 116 131 122 115 132 121 114 133 120 113 134 119 112 135 117 110 137 116 109 138 116 109 138 115 108 139 115 109 139 116 109 138 117 110 137 118 111 136 119 112 135 120 113 134 121 114 133 122 115 132 123 115 131 123 115 131 122 115 132 121 114 133 120 113 134 119 112 135 117 111 137 116 109 138 115 108 139 114 108 140 114 107 140 114 107 140 115 108 139 116 109 138 117 110 137 118 111 136 119 112 135 120 113 134 121 114 133 122 115 132 122 115 132 122 115 132 122 115 132 122 115 132 122 114 132 121 114 133 120 113 134 119 112 135 119 112 135 118 111 136 117 110 137 116 109 138 115 108 139 114 107 140 113 106 141 112 105 142 111 104 143 110 103 144 109 103 145 109 103 145 109 103 145 110 103 144 110 104 144 111 105 143 113 106 141 114 108 140 116 109 138 117 111 137 119 112 135 120 113 134 121 114 133 122 115 132 123 116 131 124 116 130 124 117 130 124 117 130 124 117 130 124 117 130 124 116 130 123 116 131 123 116 131 123 116 131 122 115 132 122 115 132 121 114 133 121 114 133 120 113 134 120 113 134 119 112 135 119 112 135 118 111 136 118 111 136 118 111 136 118 111 136 118 111 136 118 111 136 118 111 136 118 111 136 119 112 135 119 112 135 120 112 134 120 113 134 120 113 134 120 113 134 120 113 134 120 113 134 120 113 134 120 113 134 120 113 134 119 112 135 119 112 135 119 112 135 118 111 136 118 111 136 118 111 136 117 110 137 117 110 137 117 110 137 117 111 137 118 111 136 118 111 136 118 111 136 119 112 135 119 112 135 119 112 135 120 113 134 120 113 134 120 113 134 120 113 134 120 113 134 120 113 134 120 112 134 119 112 135 119 112 135 119 112 135 118 111 136 118 111 136 118 111 136 118 111 136 118 111 136 118 111 136 118 111 136 118 111 136 118 111 136 119 112 135 119 112 135 119 112 135 119 112 135 119 112 135 119 112 135 119 112 135 119 112 135 119 112 135 119 112 135 
122 115 132 123 116 131 124 117 130 125 118 129 126 118 128 127 119 127 127 119 127 127 119 127 127 119 127 127 119 127 126 118 128 125 117 129 124 116 130 122 115 132 121 114 133 120 113 134 119 112 135 118 111 136 118 111 136 118 111 136 118 111 136 119 112 135 120 113 134 121 114 133 122 115 132 123 116 131 124 116 130 124 117 130 124 117 130 124 116 130 123 116 131 122 114 132 120 113 134 119 112 135 117 110 137 116 109 138 115 109 139 115 108 139 115 108 139 116 109 138 117 110 137 119 112 135 120 113 134 122 115 132 123 116 131 124 117 130 125 118 129 125 118 129 125 117 129 124 116 130 122 115 132 120 113 134 119 112 135 117 110 137 116 109 138 115 108 139 115 108 139 115 108 139 116 109 138 118 111 136 120 113 134 122 115 132 124 116 130 125 118 129 127 119 127 128 119 126 128 119 126 128 119 126 127 119 127 126 118 128 124 117 130 122 115 132 121 114 133 119 112 135 118 111 136 117 110 137 116 109 138 115 108 139 114 108 140 114 107 140 113 107 141 113 106 141 112 106 142 112 105 142 111 105 143 111 104 143 111 104 143 111 104 143 111 105 143 112 105 142 113 106 141 114 107 140 116 109 138 117 110 137 119 112 135 121 114 133 122 115 132 124 116 130 125 117 129 126 118 128 126 119 128 127 119 127 127 119 127 127 119 127 127 119 127 127 119 127 127 119 127 126 119 128 126 119 128 126 118 128 125 118 129 125 117 129 124 117 130 123 116 131 122 115 132 122 115 132 121 114 133 120 113 134 120 113 134 119 112 135 119 112 135 119 112 135 119 112 135 119 112 135 119 112 135 119 112 135 119 112 135 119 112 135 120 113 134 120 113 134 120 113 134 120 113 134 120 113 134 120 113 134 120 113 134 120 113 134 120 113 134 119 112 135 119 112 135 119 112 135 118 111 136 118 111 136 118 111 136 117 110 137 117 110 137 117 110 137 118 111 136 118 111 136 118 111 136 119 112 135 119 112 135 120 113 134 120 113 134 120 113 134 121 114 133 121 114 133 121 114 133 121 114 133 120 113 134 120 113 134 120 112 134 119 112 135 119 112 135 118 111 136 118 111 136 118 111 136 118 111 136 118 111 136 118 111 136 118 111 136 118 111 136 118 111 136 119 112 135 119 112 135 119 112 135 119 112 135 119 112 135 119 112 135 119 112 135 119 112 135 119 112 135 
123 116 131 124 117 130 126 118 128 127 119 127 128 119 126 128 118 126 129 118 125 128 118 126 128 118 126 127 119 127 126 119 128 125 118 129 124 116 130 122 115 132 121 114 133 119 112 135 119 112 135 118 111 136 118 111 136 118 111 136 119 112 135 120 113 134 121 114 133 122 115 132 123 116 131 124 117 130 125 117 129 125 117 129 124 117 130 124 116 130 122 115 132 121 114 133 119 112 135 118 111 136 116 109 138 115 108 139 115 108 139 115 108 139 116 109 138 117 110 137 119 112 135 121 114 133 124 116 130 126 118 128 127 119 127 128 118 126 129 118 125 128 118 126 127 119 127 125 118 129 123 116 131 121 114 133 118 111 136 117 110 137 115 109 139 115 108 139 116 109 138 117 110 137 120 113 134 123 115 131 126 118 128 129 117 125 132 115 122 135 112 119 136 111 118 137 110 117 137 110 117 136 111 118 134 113 120 131 116 123 128 119 126 125 118 129 122 115 132 120 113 134 117 111 137 116 109 138 115 108 139 114 107 140 114 107 140 114 107 140 114 107 140 114 107 140 114 107 140 114 107 140 114 107 140 114 107 140 114 107 140 114 108 140 115 108 139 115 108 139 116 109 138 117 110 137 119 112 135 120 113 134 122 115 132 124 116 130 125 118 129 127 119 127 128 119 126 129 118 125 130 117 124 130 116 124 131 116 123 131 116 123 131 116 123 131 116 123 131 116 123 130 116 124 130 117 124 129 117 125 129 118 125 128 118 126 128 119 126 127 119 127 126 119 128 125 118 129 124 117 130 124 116 130 123 116 131 122 115 132 121 114 133 121 114 133 120 113 134 120 113 134 120 113 134 120 113 134 120 112 134 120 113 134 120 113 134 120 113 134 120 113 134 120 113 134 120 113 134 120 113 134 120 113 134 120 113 134 120 113 134 120 113 134 120 113 134 119 112 135 119 112 135 118 111 136 118 111 136 118 111 136 117 110 137 117 110 137 117 110 137 118 111 136 118 111 136 119 112 135 119 112 135 120 113 134 120 113 134 121 114 133 121 114 133 122 114 132 122 114 132 122 114 132 121 114 133 121 114 133 120 113 134 120 113 134 119 112 135 119 112 135 118 111 136 118 111 136 118 111 136 117 110 137 117 110 137 118 111 136 118 111 136 118 111 136 118 111 136 119 112 135 119 112 135 119 112 135 120 112 134 120 113 134 120 113 134 120 112 134 119 112 135 
125 117 129 126 118 128 127 119 127 128 118 126 129 118 125 130 117 124 130 117 124 130 117 124 129 118 125 128 119 126 127 119 127 125 118 129 123 116 131 122 114 132 120 113 134 119 112 135 118 111 136 118 111 136 118 111 136 118 111 136 119 112 135 120 113 134 122 115 132 123 116 131 124 117 130 125 118 129 125 118 129 125 118 129 124 117 130 123 116 131 122 114 132 120 113 134 118 111 136 116 110 138 115 108 139 115 108 139 115 108 139 116 109 138 117 111 137 120 113 134 123 115 131 126 118 128 128 118 126 131 116 123 132 114 122 133 114 121 133 114 121 132 115 122 130 117 124 127 119 127 124 117 130 121 114 133 118 111 136 116 110 138 116 109 138 116 109 138 118 111 136 121 113 133 124 117 130 129 117 125 134 113 120 139 108 115 143 104 111 146 101 108 148 99 106 149 99 105 148 100 106 146 102 108 143 105 111 138 109 116 134 113 120 129 117 125 125 118 129 121 114 133 118 111 136 116 109 138 115 108 139 114 107 140 114 108 140 115 108 139 116 109 138 117 110 137 117 111 137 118 111 136 119 112 135 119 112 135 119 112 135 120 113 134 120 113 134 121 114 133 121 114 133 122 115 132 124 116 130 125 117 129 126 119 128 128 119 126 129 117 125 130 116 124 132 115 122 133 114 121 133 114 121 134 113 120 134 113 120 134 113 120 134 113 120 134 113 120 134 113 120 134 113 120 134 113 120 133 114 121 133 114 121 132 114 122 132 115 122 131 116 123 130 116 124 129 117 125 129 118 125 128 119 126 127 119 127 126 118 128 125 117 129 124 116 130 123 116 131 122 115 132 121 114 133 121 114 133 120 113 134 120 113 134 120 113 134 120 113 134 120 113 134 120 113 134 120 113 134 120 113 134 120 113 134 121 113 133 121 113 133 120 113 134 120 113 134 120 113 134 119 112 135 119 112 135 118 111 136 118 111 136 118 111 136 117 110 137 117 110 137 118 111 136 118 111 136 118 111 136 119 112 135 120 113 134 121 113 133 121 114 133 122 115 132 122 115 132 123 115 131 123 115 131 122 115 132 122 115 132 122 114 132 121 114 133 120 113 134 119 112 135 119 112 135 118 111 136 118 111 136 117 110 137 117 110 137 117 110 137 117 110 137 118 111 136 118 111 136 119 112 135 119 112 135 119 112 135 120 113 134 120 113 134 120 113 134 120 113 134 120 113 134 
126 119 128 127 119 127 129 118 125 130 117 124 130 116 124 131 116 123 131 116 123 130 116 124 129 117 125 128 118 126 126 119 128 125 117 129 123 116 131 121 114 133 120 113 134 118 111 136 118 111 136 118 111 136 118 111 136 119 112 135 120 113 134 121 114 133 123 115 131 124 117 130 125 118 129 126 118 128 126 118 128 125 118 129 124 117 130 123 115 131 121 114 133 119 112 135 117 110 137 115 109 139 115 108 139 114 108 140 115 109 139 117 110 137 120 113 134 123 116 131 127 119 127 130 116 124 134 113 120 136 111 118 138 109 116 139 109 115 138 109 116 136 111 118 133 114 121 129 118 125 125 118 129 121 114 133 118 111 136 116 110 138 116 109 138 117 110 137 120 113 134 125 117 129 130 116 124 137 110 117 144 104 110 150 98 104 156 92 98 160 89 94 162 86 92 163 86 91 161 87 93 158 90 96 154 95 100 148 100 106 142 106 112 135 112 119 129 117 125 124 117 130 120 113 134 118 111 136 116 109 138 115 109 139 116 109 138 117 110 137 119 112 135 120 113 134 122 115 132 124 116 130 125 117 129 126 118 128 126 119 128 127 119 127 127 119 127 128 119 126 128 118 126 129 118 125 130 117 124 131 116 123 132 115 122 133 114 121 134 113 120 135 112 119 136 111 118 136 111 118 137 110 117 137 110 117 137 110 117 138 110 116 138 110 116 138 110 116 137 110 117 137 110 117 137 110 117 137 110 117 137 110 117 136 111 118 136 111 118 135 112 119 135 112 119 134 113 120 133 114 121 132 114 122 131 115 123 130 116 124 129 118 125 128 119 126 126 119 128 125 118 129 124 117 130 123 115 131 122 115 132 121 114 133 120 113 134 120 113 134 119 112 135 119 112 135 120 113 134 120 113 134 120 113 134 120 113 134 121 113 133 121 114 133 121 114 133 120 113 134 120 113 134 120 113 134 119 112 135 118 111 136 118 111 136 118 111 136 117 110 137 117 110 137 118 111 136 118 111 136 119 112 135 120 113 134 121 113 133 121 114 133 122 115 132 123 116 131 123 116 131 124 116 130 124 116 130 123 116 131 123 116 131 122 115 132 121 114 133 120 113 134 119 112 135 118 111 136 118 111 136 117 110 137 117 110 137 117 110 137 117 110 137 117 110 137 118 111 136 118 111 136 119 112 135 119 112 135 120 113 134 120 113 134 120 113 134 120 113 134 120 113 134 
128 119 126 129 118 125 130 117 124 131 116 123 132 115 122 132 115 122 131 115 123 131 116 123 130 117 124 128 119 126 126 119 128 124 117 130 122 115 132 120 113 134 119 112 135 118 111 136 117 111 137 118 111 136 118 111 136 119 112 135 121 113 133 122 115 132 124 116 130 125 118 129 126 119 128 127 119 127 126 119 128 125 118 129 124 117 130 122 115 132 120 113 134 118 111 136 116 109 138 114 108 140 114 107 140 115 108 139 116 110 138 119 112 135 123 116 131 127 119 127 132 115 122 136 111 118 140 107 114 143 105 111 144 103 110 144 103 110 143 105 111 140 108 114 136 111 118 131 116 123 126 119 128 122 114 132 118 111 136 117 110 137 117 110 137 119 112 135 123 116 131 130 117 124 137 110 117 146 102 108 154 94 100 163 86 91 169 80 85 175 75 79 177 72 77 178 72 76 176 74 78 172 78 82 166 83 88 158 90 96 150 97 104 143 105 111 135 112 119 129 118 125 124 117 130 120 113 134 119 112 135 118 111 136 119 112 135 120 113 134 123 115 131 125 118 129 128 119 126 130 117 124 132 115 122 133 113 121 135 112 119 135 112 119 136 111 118 136 111 118 136 111 118 137 110 117 137 110 117 138 110 116 138 109 116 138 109 116 139 108 115 139 108 115 140 108 114 140 107 114 140 107 114 140 107 114 140 107 114 140 107 114 140 107 114 140 107 114 140 107 114 140 107 114 140 107 114 140 107 114 140 107 114 140 107 114 140 108 114 140 108 114 139 108 115 139 108 115 138 109 116 138 109 116 137 110 117 136 111 118 134 113 120 133 114 121 131 116 123 129 117 125 128 119 126 126 118 128 124 117 130 122 115 132 121 114 133 120 113 134 119 112 135 119 112 135 119 112 135 119 112 135 120 112 134 120 113 134 120 113 134 121 114 133 121 114 133 121 114 133 121 114 133 120 113 134 120 113 134 119 112 135 118 111 136 118 111 136 118 111 136 117 110 137 117 111 137 118 111 136 119 112 135 119 112 135 120 113 134 122 114 132 123 115 131 124 116 130 124 117 130 125 117 129 125 117 129 125 117 129 124 117 130 123 116 131 122 115 132 121 114 133 120 113 134 119 112 135 118 111 136 117 110 137 117 110 137 117 110 137 116 110 138 117 110 137 117 110 137 118 111 136 118 111 136 119 112 135 119 112 135 120 113 134 120 113 134 121 114 133 121 114 133 
129 118 125 130 116 124 131 115 123 132 115 122 132 114 122 132 114 122 132 115 122 131 116 123 129 117 125 128 119 126 126 118 128 124 116 130 122 114 132 120 113 134 118 111 136 118 111 136 117 110 137 118 111 136 119 112 135 120 113 134 121 114 133 123 116 131 125 117 129 126 119 128 127 119 127 127 119 127 126 119 128 125 118 129 123 116 131 121 114 133 119 112 135 116 110 138 115 108 139 114 107 140 114 107 140 115 109 139 118 111 136 122 115 132 126 119 128 132 115 122 137 110 117 142 105 112 146 102 108 149 99 105 150 98 104 150 98 104 147 101 107 143 104 111 138 109 116 132 114 122 127 119 127 122 115 132 118 111 136 117 110 137 118 111 136 121 114 133 127 119 127 135 112 119 144 103 110 155 93 99 165 83 89 175 74 79 183 67 71 189 61 65 192 58 62 193 58 61 190 60 64 185 65 69 178 72 76 169 80 85 160 89 94 151 97 103 142 105 112 134 112 120 129 118 125 125 117 129 122 115 132 122 115 132 123 115 131 125 117 129 128 119 126 131 116 123 134 113 120 137 110 117 139 108 115 141 106 113 143 104 111 144 104 110 145 103 109 145 103 109 145 103 109 145 103 109 145 103 109 145 103 109 144 103 110 144 103 110 144 104 110 144 104 110 143 104 111 143 105 111 142 105 112 142 105 112 142 106 112 141 106 113 141 106 113 141 106 113 141 106 113 141 106 113 141 106 113 142 106 112 142 105 112 142 105 112 143 105 111 143 104 111 143 104 111 143 104 111 143 104 111 143 104 111 143 105 111 142 106 112 140 107 114 139 108 115 137 110 117 135 112 119 132 114 122 130 117 124 128 119 126 125 118 129 123 116 131 121 114 133 120 113 134 119 112 135 119 112 135 119 112 135 119 112 135 119 112 135 120 113 134 120 113 134 121 114 133 121 114 133 121 114 133 121 114 133 120 113 134 120 113 134 119 112 135 118 111 136 118 111 136 117 110 137 117 110 137 118 111 136 118 111 136 119 112 135 120 113 134 121 114 133 123 115 131 124 116 130 125 117 129 125 118 129 126 118 128 126 118 128 125 118 129 125 117 129 124 116 130 123 115 131 121 114 133 120 113 134 119 112 135 118 111 136 117 110 137 116 109 138 116 109 138 116 109 138 117 110 137 117 110 137 118 111 136 118 111 136 119 112 135 120 113 134 120 113 134 121 114 133 121 114 133 
130 116 124 132 115 122 132 114 122 133 114 121 133 114 121 133 114 121 132 115 122 131 116 123 129 118 125 127 119 127 125 117 129 123 115 131 121 114 133 119 112 135 118 111 136 117 110 137 117 110 137 118 111 136 119 112 135 121 114 133 123 115 131 124 117 130 126 118 128 127 119 127 127 119 127 127 119 127 126 119 128 125 117 129 122 115 132 120 113 134 117 111 137 115 109 139 114 107 140 113 107 141 114 107 140 116 110 138 120 113 134 125 117 129 130 116 124 136 111 118 142 105 112 148 100 106 152 96 102 155 93 99 155 93 99 154 94 100 151 97 103 146 102 108 140 107 114 133 113 121 127 119 127 122 115 132 118 111 136 117 110 137 119 112 135 123 116 131 130 116 124 140 107 114 151 97 103 163 85 91 175 74 79 186 64 68 196 55 58 202 49 52 206 46 48 206 45 48 203 48 51 197 53 57 189 61 65 179 70 75 169 80 85 159 90 95 149 99 105 141 107 113 134 113 120 130 117 124 127 119 127 126 119 128 127 119 127 130 117 124 133 114 121 136 111 118 140 107 114 144 104 110 147 101 107 149 99 105 151 97 103 152 96 102 153 95 101 153 95 101 153 95 101 153 95 101 152 96 102 151 97 103 150 97 104 149 98 105 148 99 106 147 101 107 146 102 108 145 103 109 144 104 110 143 104 111 142 105 112 142 106 112 141 106 113 141 106 113 141 106 113 141 106 113 142 106 112 142 105 112 143 105 111 143 104 111 144 103 110 145 102 109 146 101 108 147 101 107 148 100 106 148 100 106 148 100 106 148 100 106 147 101 107 146 102 108 144 104 110 141 106 113 139 109 115 136 111 118 132 115 122 129 118 125 126 119 128 123 116 131 121 114 133 119 112 135 118 111 136 118 111 136 118 111 136 118 111 136 119 112 135 120 113 134 121 114 133 121 114 133 122 114 132 122 114 132 121 114 133 121 113 133 120 113 134 119 112 135 118 111 136 118 111 136 117 110 137 117 110 137 118 111 136 119 112 135 120 113 134 121 114 133 122 115 132 124 116 130 125 118 129 126 119 128 127 119 127 127 119 127 127 119 127 126 119 128 125 118 129 124 116 130 122 115 132 121 114 133 119 112 135 118 111 136 117 110 137 116 109 138 116 109 138 116 109 138 116 109 138 116 110 138 117 110 137 118 111 136 119 112 135 120 112 134 120 113 134 121 114 133 121 114 133 
132 115 122 133 114 121 133 114 121 133 113 121 133 114 121 133 114 121 132 115 122 130 117 124 128 118 126 126 119 128 124 117 130 122 115 132 120 113 134 119 112 135 118 111 136 117 110 137 118 111 136 119 112 135 120 113 134 122 115 132 124 116 130 125 118 129 127 119 127 128 119 126 128 119 126 127 119 127 126 119 128 124 117 130 122 114 132 119 112 135 116 109 138 114 108 140 113 107 141 113 107 141 115 108 139 118 111 136 122 115 132 128 119 126 134 113 120 141 106 113 147 100 107 153 95 101 157 91 97 159 89 95 160 89 94 158 91 96 154 94 100 148 100 106 141 106 113 134 113 120 127 119 127 122 114 132 118 111 136 118 111 136 120 113 134 125 118 129 134 113 120 145 103 109 157 91 97 171 78 83 184 66 70 196 55 58 206 46 48 212 39 42 216 36 38 216 35 38 213 39 41 207 44 47 198 53 56 188 62 66 177 73 77 166 83 88 156 93 98 147 101 107 140 107 114 135 112 119 132 114 122 132 115 122 133 114 121 135 112 119 138 109 116 142 106 112 146 102 108 149 99 105 153 95 101 155 93 99 157 91 97 159 89 95 160 89 94 160 88 94 160 88 94 159 89 95 158 90 96 157 91 97 155 93 99 154 95 100 152 96 102 150 98 104 148 100 106 146 102 108 144 103 110 143 105 111 142 106 112 141 107 113 140 107 114 140 108 114 140 108 114 140 107 114 140 107 114 141 106 113 142 105 112 143 104 111 145 103 109 146 102 108 148 100 106 149 98 105 151 97 103 152 96 102 153 95 101 154 94 100 154 94 100 153 95 101 152 96 102 149 99 105 146 101 108 143 105 111 139 109 115 134 113 120 130 116 124 126 119 128 123 116 131 121 113 133 119 112 135 118 111 136 117 110 137 118 111 136 118 111 136 119 112 135 120 113 134 121 114 133 122 114 132 122 115 132 122 115 132 121 114 133 121 114 133 120 113 134 119 112 135 118 111 136 117 111 137 117 110 137 117 110 137 118 111 136 119 112 135 120 113 134 122 115 132 124 116 130 125 118 129 126 119 128 127 119 127 128 119 126 128 119 126 127 119 127 126 119 128 125 118 129 124 116 130 122 115 132 120 113 134 119 112 135 117 111 137 116 110 138 116 109 138 115 109 139 115 109 139 116 109 138 116 110 138 117 110 137 118 111 136 119 112 135 120 113 134 121 113 133 121 114 133 
133 114 121 133 113 121 134 113 120 134 113 120 133 114 121 132 114 122 131 116 123 129 117 125 127 119 127 125 118 129 123 116 131 121 114 133 119 112 135 118 111 136 118 111 136 118 111 136 118 111 136 119 112 135 121 114 133 123 116 131 125 117 129 126 119 128 128 119 126 128 118 126 128 118 126 127 119 127 125 118 129 123 116 131 120 113 134 118 111 136 115 108 139 113 107 141 113 106 141 113 107 141 116 109 138 119 112 135 124 117 130 131 116 123 138 109 116 145 103 109 152 96 102 157 91 97 161 87 93 163 86 91 163 86 91 160 89 94 155 93 99 149 99 105 141 106 113 133 113 121 127 119 127 121 114 133 118 111 136 118 111 136 121 114 133 127 119 127 137 110 117 149 99 105 162 87 92 176 73 78 190 61 64 202 49 52 212 40 42 219 33 35 222 30 32 222 30 32 219 33 35 213 39 41 204 47 50 193 57 61 182 67 72 171 78 83 161 87 93 152 96 102 145 102 109 140 107 114 138 109 116 137 110 117 137 110 117 140 108 114 143 105 111 146 102 108 150 98 104 153 95 101 157 92 97 160 89 94 162 87 92 163 85 91 164 84 90 165 84 89 165 84 89 164 85 90 162 86 92 161 88 93 158 90 96 156 92 98 153 95 101 151 97 103 148 100 106 146 102 108 143 104 111 142 106 112 140 107 114 139 108 115 138 109 116 137 110 117 137 110 117 137 110 117 138 109 116 139 109 115 140 108 114 141 106 113 143 105 111 145 103 109 147 100 107 150 98 104 153 95 101 155 93 99 158 91 96 159 89 95 160 88 94 161 88 93 160 89 94 158 91 96 155 93 99 151 97 103 146 101 108 141 106 113 136 111 118 131 116 123 126 119 128 123 115 131 120 113 134 118 111 136 117 110 137 117 110 137 117 110 137 118 111 136 119 112 135 120 113 134 122 114 132 122 115 132 122 115 132 122 115 132 122 114 132 121 114 133 120 113 134 119 112 135 118 111 136 117 110 137 117 110 137 118 111 136 118 111 136 120 113 134 121 114 133 123 116 131 125 117 129 126 119 128 127 119 127 128 118 126 128 118 126 128 118 126 128 119 126 126 119 128 125 118 129 123 116 131 121 114 133 120 113 134 118 111 136 117 110 137 116 109 138 115 109 139 115 108 139 115 109 139 116 109 138 117 110 137 117 111 137 118 111 136 119 112 135 120 113 134 121 114 133 
134 113 120 134 113 120 134 113 120 134 113 120 133 114 121 132 115 122 130 116 124 128 118 126 126 119 128 124 117 130 122 115 132 120 113 134 119 112 135 118 111 136 118 111 136 118 111 136 119 112 135 120 113 134 122 115 132 124 117 130 126 118 128 127 119 127 128 118 126 129 118 125 128 118 126 127 119 127 125 117 129 122 115 132 119 112 135 117 110 137 114 107 140 113 106 141 113 106 141 114 107 140 117 110 137 121 114 133 127 119 127 133 113 121 141 107 113 148 100 106 155 94 99 160 88 94 163 85 91 165 84 89 164 85 90 160 88 94 155 93 99 148 100 106 140 107 114 132 114 122 126 118 128 121 113 133 118 111 136 118 111 136 122 115 132 129 118 125 139 108 115 151 97 103 165 84 89 179 71 75 192 58 62 204 47 50 214 38 40 220 32 34 224 29 30 223 29 31 220 32 34 213 38 41 205 46 49 195 55 59 184 65 70 174 75 80 165 84 89 156 92 98 150 98 104 145 102 109 142 105 112 141 106 113 142 106 112 143 104 111 146 102 108 149 99 105 152 96 102 155 93 99 158 90 96 161 87 93 163 85 91 165 84 89 166 83 88 166 82 88 166 83 88 165 84 89 164 85 90 162 87 92 159 89 95 156 92 98 153 95 101 150 98 104 147 101 107 144 103 110 142 106 112 139 108 115 138 110 116 136 111 118 135 112 119 135 112 119 134 113 120 134 113 120 134 113 120 135 112 119 136 111 118 137 110 117 139 108 115 142 105 112 145 103 109 149 99 105 152 96 102 156 92 98 160 88 94 164 85 90 166 83 88 168 81 86 168 81 86 167 82 87 164 85 90 160 88 94 155 93 99 149 99 105 143 104 111 137 110 117 131 116 123 126 118 128 122 114 132 118 111 136 117 110 137 116 109 138 116 109 138 117 110 137 118 111 136 120 113 134 121 114 133 122 115 132 123 116 131 123 116 131 122 115 132 122 114 132 121 113 133 119 112 135 118 111 136 117 111 137 117 110 137 117 110 137 118 111 136 119 112 135 120 113 134 122 115 132 124 117 130 126 118 128 127 119 127 128 118 126 129 118 125 129 118 125 128 118 126 128 119 126 126 119 128 124 117 130 123 115 131 121 114 133 119 112 135 118 111 136 116 109 138 116 109 138 115 108 139 115 108 139 115 109 139 116 109 138 117 110 137 118 111 136 119 112 135 119 112 135 120 113 134 
135 112 119 135 112 119 134 113 120 133 113 121 132 114 122 131 116 123 129 117 125 127 119 127 125 118 129 123 116 131 121 114 133 120 113 134 119 112 135 118 111 136 118 111 136 119 112 135 120 113 134 122 115 132 124 116 130 125 118 129 127 119 127 128 118 126 129 118 125 129 118 125 128 119 126 126 119 128 124 116 130 121 114 133 118 111 136 115 109 139 113 107 141 112 106 142 113 106 141 114 108 140 118 111 136 122 115 132 129 118 125 136 111 118 143 105 111 150 98 104 156 92 98 161 87 93 164 85 90 165 84 89 163 86 91 159 89 95 153 95 101 146 102 108 138 109 116 131 116 123 124 117 130 120 113 134 118 111 136 119 112 135 123 116 131 130 117 124 140 107 114 152 96 102 165 84 89 178 71 76 191 59 63 202 49 52 210 41 44 216 36 38 219 33 35 218 34 36 215 37 39 209 43 45 201 50 53 192 58 62 183 67 71 174 75 80 165 83 89 158 90 96 153 95 101 149 99 105 146 101 108 145 103 109 145 103 109 146 102 108 148 100 106 150 98 104 152 96 102 155 94 99 157 91 97 159 89 95 161 87 93 163 86 91 164 85 90 164 84 90 164 85 90 163 85 91 162 87 92 160 89 94 157 91 97 154 94 100 151 97 103 148 100 106 145 103 109 142 106 112 139 108 115 137 110 117 135 112 119 134 113 120 133 114 121 132 115 122 131 116 123 131 116 123 130 116 124 131 116 123 131 116 123 132 115 122 134 113 120 137 110 117 140 107 114 145 103 109 150 98 104 155 93 99 161 88 93 166 83 88 170 79 84 174 76 80 175 74 79 175 74 79 174 76 80 170 79 84 165 84 89 159 90 95 151 96 103 144 103 110 137 110 117 130 117 124 124 117 130 120 113 134 117 110 137 115 108 139 115 108 139 115 109 139 117 110 137 118 111 136 120 113 134 122 115 132 123 116 131 123 116 131 123 116 131 123 115 131 122 115 132 120 113 134 119 112 135 118 111 136 117 110 137 117 110 137 117 110 137 118 111 136 119 112 135 121 114 133 123 116 131 125 117 129 126 119 128 128 119 126 129 118 125 129 117 125 129 117 125 128 118 126 127 119 127 126 118 128 124 117 130 122 115 132 120 113 134 119 112 135 117 110 137 116 109 138 116 109 138 115 108 139 115 109 139 116 109 138 116 109 138 117 110 137 118 111 136 119 112 135 119 112 135 
135 112 119 135 112 119 134 113 120 133 114 121 132 115 122 130 117 124 128 118 126 126 119 128 124 117 130 122 115 132 121 114 133 119 112 135 119 112 135 119 112 135 119 112 135 120 113 134 121 114 133 123 116 131 125 117 129 127 119 127 128 119 126 129 118 125 129 117 125 129 118 125 127 119 127 125 118 129 123 116 131 120 113 134 117 110 137 114 108 140 113 106 141 112 105 142 113 106 141 115 108 139 119 112 135 124 116 130 130 117 124 137 110 117 144 103 110 151 97 103 156 92 98 161 88 93 163 86 91 163 86 91 160 88 94 156 92 98 150 98 104 143 104 111 135 112 119 128 118 126 123 115 131 119 112 135 117 111 137 119 112 135 123 116 131 130 116 124 140 107 114 151 97 103 163 86 91 174 75 80 185 65 69 195 56 59 202 49 52 206 45 48 208 44 46 207 44 47 203 48 51 198 52 56 192 59 62 184 66 70 177 73 77 170 79 84 163 85 91 158 90 96 154 94 100 151 97 103 148 99 106 147 101 107 147 101 107 147 101 107 148 100 106 148 99 106 150 98 104 151 97 103 152 96 102 154 94 100 155 93 99 157 92 97 158 91 96 158 90 96 158 90 96 158 91 96 156 92 98 155 94 99 152 96 102 149 98 105 147 101 107 144 104 110 141 106 113 138 109 116 136 111 118 134 113 120 133 114 121 132 115 122 131 116 123 129 117 125 128 118 126 127 119 127 127 119 127 126 118 128 126 118 128 126 119 128 127 119 127 130 117 124 134 113 120 139 109 115 145 103 109 152 96 102 159 89 95 166 83 88 173 76 81 178 71 76 182 68 72 184 66 70 183 67 71 180 69 74 175 74 79 169 80 85 161 88 93 152 96 102 144 104 110 135 112 119 128 119 126 122 115 132 118 111 136 115 108 139 114 107 140 114 107 140 115 108 139 117 110 137 119 112 135 121 114 133 123 115 131 124 116 130 124 117 130 124 117 130 123 116 131 122 114 132 120 113 134 119 112 135 118 111 136 117 110 137 117 110 137 117 110 137 118 111 136 120 113 134 121 114 133 123 116 131 125 118 129 127 119 127 128 118 126 129 117 125 130 117 124 129 117 125 128 118 126 127 119 127 126 118 128 124 116 130 122 115 132 120 113 134 119 112 135 117 110 137 116 109 138 116 109 138 116 109 138 116 109 138 116 109 138 117 110 137 117 110 137 118 111 136 118 111 136 
136 111 118 135 112 119 134 113 120 132 114 122 131 116 123 129 118 125 127 119 127 125 118 129 123 116 131 121 114 133 120 113 134 119 112 135 119 112 135 119 112 135 120 113 134 121 114 133 123 115 131 124 117 130 126 119 128 128 119 126 129 118 125 130 117 124 129 117 125 128 118 126 127 119 127 124 117 130 122 114 132 119 112 135 116 109 138 114 107 140 112 106 142 112 105 142 113 106 141 115 109 139 119 112 135 125 117 129 131 116 123 137 110 117 144 103 110 150 98 104 155 93 99 158 90 96 160 89 94 159 89 95 156 92 98 152 96 102 146 102 108 139 108 115 132 115 122 126 118 128 121 114 133 118 111 136 117 110 137 119 112 135 123 116 131 130 117 124 138 109 116 148 100 106 158 91 96 167 82 87 176 74 78 183 67 71 188 62 66 190 60 64 191 59 63 189 61 65 186 64 68 182 68 72 177 72 77 172 77 82 167 82 87 162 86 92 158 90 96 155 93 99 152 96 102 150 98 104 149 99 105 148 100 106 147 101 107 146 102 108 145 102 109 145 103 109 145 103 109 145 103 109 145 103 109 146 102 108 146 101 108 147 101 107 148 100 106 148 99 106 148 99 106 148 100 106 147 100 107 146 102 108 144 103 110 142 105 112 140 107 114 138 109 116 136 111 118 135 112 119 134 113 120 133 114 121 132 115 122 131 116 123 130 117 124 129 118 125 127 119 127 125 118 129 123 116 131 121 114 133 120 113 134 119 112 135 120 112 134 121 114 133 125 118 129 130 117 124 137 110 117 145 102 109 154 94 100 164 85 90 173 76 81 181 69 73 187 63 67 191 60 63 192 59 62 190 60 64 186 64 68 179 70 75 171 78 83 161 87 93 151 97 103 142 106 112 133 114 121 125 118 129 119 112 135 115 108 139 113 106 141 112 106 142 113 107 141 115 108 139 118 111 136 120 113 134 122 115 132 124 117 130 125 117 129 125 118 129 124 117 130 123 116 131 122 114 132 120 113 134 118 111 136 117 110 137 117 110 137 117 110 137 117 110 137 118 111 136 120 113 134 122 115 132 124 117 130 126 118 128 128 119 126 129 118 125 130 117 124 130 117 124 129 117 125 128 118 126 127 119 127 126 118 128 124 116 130 122 115 132 120 113 134 119 112 135 118 111 136 117 110 137 116 109 138 116 109 138 116 109 138 116 109 138 117 110 137 117 110 137 117 110 137 
136 111 118 135 112 119 133 114 121 132 115 122 130 117 124 128 119 126 126 118 128 124 117 130 122 115 132 121 114 133 120 113 134 119 112 135 119 112 135 120 113 134 121 114 133 123 115 131 124 117 130 126 119 128 128 119 126 129 118 125 130 117 124 130 117 124 129 117 125 128 119 126 126 119 128 123 116 131 121 113 133 118 111 136 115 108 139 113 106 141 112 105 142 112 105 142 113 107 141 116 109 138 120 113 134 125 118 129 131 116 123 137 110 117 143 105 111 148 100 106 152 96 102 154 94 100 155 93 99 153 95 101 150 98 104 146 102 108 140 107 114 134 113 120 128 119 126 123 116 131 119 112 135 117 110 137 117 110 137 119 112 135 123 116 131 129 118 125 136 111 118 143 104 111 150 97 104 157 91 97 163 86 91 167 82 87 169 80 85 170 79 84 169 80 85 167 82 87 164 85 90 161 87 93 158 90 96 155 93 99 153 95 101 151 97 103 150 98 104 149 99 105 148 99 106 148 100 106 147 101 107 146 101 108 145 103 109 143 104 111 141 106 113 139 108 115 138 109 116 136 111 118 135 112 119 134 113 120 134 113 120 134 113 120 135 112 119 135 112 119 135 112 119 135 112 119 135 112 119 135 112 119 134 113 120 133 114 121 132 114 122 132 115 122 131 115 123 131 115 123 132 115 122 132 115 122 132 115 122 132 115 122 132 115 122 130 116 124 128 118 126 125 118 129 122 115 132 118 111 136 115 108 139 112 106 142 111 105 143 112 105 142 115 108 139 120 113 134 127 119 127 137 111 117 147 100 107 159 89 95 170 79 84 181 69 73 190 60 64 196 55 58 199 52 55 199 52 55 196 55 58 190 60 64 181 68 73 171 78 83 160 89 94 148 99 106 138 109 116 129 118 125 121 114 133 116 109 138 112 106 142 111 105 143 112 105 142 113 107 141 116 109 138 119 112 135 122 114 132 124 117 130 125 118 129 126 119 128 126 118 128 125 118 129 123 116 131 122 114 132 120 113 134 118 111 136 117 110 137 116 109 138 116 110 138 117 110 137 119 112 135 120 113 134 122 115 132 124 117 130 126 119 128 128 119 126 129 117 125 130 117 124 130 117 124 130 117 124 129 118 125 127 119 127 126 118 128 124 117 130 122 115 132 121 114 133 119 112 135 118 111 136 117 110 137 117 110 137 116 109 138 116 109 138 116 109 138 116 109 138 116 109 138 
136 111 118 135 112 119 133 114 121 131 116 123 129 118 125 127 119 127 125 117 129 123 116 131 122 114 132 120 113 134 120 113 134 120 113 134 120 113 134 121 114 133 122 115 132 124 117 130 126 118 128 127 119 127 129 118 125 130 117 124 130 116 124 130 117 124 129 117 125 127 119 127 125 118 129 122 115 132 120 112 134 117 110 137 114 107 140 112 106 142 112 105 142 112 105 142 114 107 140 116 109 138 120 113 134 125 118 129 130 116 124 136 111 118 140 107 114 145 103 109 147 100 107 149 99 105 148 99 106 147 101 107 143 104 111 139 108 115 134 113 120 129 118 125 124 117 130 120 113 134 118 111 136 117 110 137 117 110 137 119 112 135 123 116 131 127 119 127 132 115 122 137 110 117 141 106 113 144 103 110 146 101 108 147 100 107 147 101 107 145 102 109 143 104 111 141 107 113 138 109 116 136 111 118 135 112 119 135 112 119 136 111 118 137 110 117 139 108 115 141 107 113 142 105 112 143 104 111 144 104 110 143 104 111 141 106 113 139 108 115 136 111 118 133 114 121 129 118 125 126 119 128 123 116 131 121 114 133 120 113 134 119 112 135 119 112 135 119 112 135 120 113 134 120 113 134 121 114 133 121 114 133 122 115 132 122 115 132 123 116 131 125 117 129 127 119 127 129 118 125 131 116 123 133 114 121 135 112 119 136 111 118 136 111 118 134 113 120 131 115 123 127 119 127 122 115 132 116 110 138 111 104 143 106 100 148 103 97 151 102 96 152 103 97 151 108 101 146 115 108 139 125 118 129 138 109 116 151 97 103 165 83 89 179 71 75 190 60 64 199 52 55 205 46 49 207 45 47 205 46 49 200 51 54 191 59 63 180 69 74 168 81 86 156 92 98 144 104 110 133 114 121 123 116 131 117 110 137 112 105 142 110 103 144 110 103 144 111 105 143 114 107 140 117 110 137 121 114 133 124 116 130 126 118 128 127 119 127 127 119 127 127 119 127 125 118 129 123 116 131 121 114 133 119 112 135 118 111 136 116 110 138 116 109 138 116 109 138 117 110 137 119 112 135 121 114 133 123 116 131 125 118 129 127 119 127 129 118 125 130 117 124 131 116 123 131 116 123 130 116 124 130 117 124 128 118 126 127 119 127 125 118 129 123 116 131 122 115 132 120 113 134 119 112 135 118 111 136 117 110 137 117 110 137 116 109 138 116 109 138 115 108 139 
136 111 118 134 113 120 132 115 122 130 117 124 128 119 126 126 118 128 124 116 130 122 115 132 121 114 133 120 113 134 120 113 134 120 113 134 121 114 133 122 115 132 124 116 130 125 118 129 127 119 127 129 118 125 130 117 124 131 116 123 131 116 123 130 117 124 129 118 125 127 119 127 124 117 130 121 114 133 119 112 135 116 109 138 114 107 140 112 105 142 112 105 142 112 105 142 114 107 140 117 110 137 120 113 134 124 117 130 129 118 125 133 114 121 137 110 117 140 107 114 142 106 112 142 105 112 141 106 113 139 108 115 136 111 118 132 115 122 128 119 126 124 116 130 120 113 134 118 111 136 116 109 138 116 109 138 117 110 137 119 112 135 122 115 132 125 118 129 127 119 127 129 117 125 130 116 124 130 117 124 128 118 126 126 118 128 122 115 132 119 112 135 115 108 139 112 105 142 110 104 144 110 103 144 111 104 143 113 106 141 117 110 137 121 114 133 126 118 128 131 116 123 134 112 120 137 110 117 139 109 115 138 109 116 137 110 117 134 113 120 129 117 125 125 117 129 120 113 134 115 108 139 111 104 143 108 101 146 105 99 149 103 97 151 103 96 151 102 96 152 103 97 151 103 97 151 105 98 149 106 100 148 108 102 146 111 104 143 114 107 140 118 111 136 122 115 132 127 119 127 132 115 122 136 111 118 140 107 114 142 105 112 143 105 111 141 106 113 138 109 116 132 115 122 125 118 129 117 110 137 109 102 145 101 95 153 95 89 159 91 86 163 91 86 163 95 89 159 102 96 152 113 106 141 126 119 128 141 106 113 158 91 96 174 76 80 188 62 66 200 51 54 208 43 46 212 39 42 212 40 42 208 43 46 200 51 54 189 61 65 176 73 78 163 86 91 149 98 105 137 110 117 126 119 128 118 111 136 112 106 142 109 103 145 108 102 146 110 103 144 112 106 142 116 109 138 120 113 134 123 116 131 126 119 128 128 118 126 129 118 125 129 118 125 128 119 126 126 118 128 123 116 131 121 114 133 119 112 135 117 110 137 116 109 138 116 109 138 116 109 138 117 110 137 119 112 135 121 114 133 123 116 131 126 118 128 128 119 126 130 117 124 131 116 123 132 115 122 132 115 122 132 115 122 131 116 123 130 117 124 128 118 126 126 119 128 125 117 129 123 116 131 121 114 133 120 113 134 118 111 136 117 110 137 116 109 138 115 109 139 115 108 139 
136 111 118 134 113 120 131 115 123 129 118 125 127 119 127 125 117 129 123 116 131 122 114 132 121 114 133 120 113 134 120 113 134 121 114 133 122 115 132 124 116 130 125 118 129 127 119 127 129 118 125 130 117 124 131 116 123 131 115 123 131 116 123 130 117 124 128 118 126 126 119 128 123 116 131 120 113 134 118 111 136 115 108 139 113 106 141 112 105 142 112 105 142 112 106 142 114 107 140 117 110 137 120 113 134 123 116 131 127 119 127 130 116 124 133 114 121 135 112 119 135 112 119 135 112 119 134 113 120 131 116 123 128 119 126 125 117 129 121 114 133 119 112 135 117 110 137 116 109 138 115 109 139 116 109 138 118 111 136 119 112 135 121 114 133 122 115 132 122 115 132 121 114 133 119 112 135 115 108 139 109 103 145 104 97 150 97 92 157 91 86 163 87 81 167 83 78 171 82 77 172 83 78 171 86 81 168 91 85 163 97 91 157 104 98 150 112 106 142 119 112 135 125 118 129 130 117 124 132 114 122 133 114 121 131 116 123 128 119 126 123 115 131 117 110 137 111 104 143 105 98 149 99 93 155 94 89 160 91 85 163 88 83 166 86 81 168 85 80 169 85 80 169 86 81 168 88 83 166 91 85 163 94 89 160 99 93 155 105 99 149 111 105 143 119 112 135 127 119 127 134 113 120 142 106 112 147 100 107 151 97 103 153 95 101 151 97 103 147 101 107 140 107 114 131 116 123 120 113 134 108 102 146 97 92 157 88 83 166 82 77 172 80 75 174 82 77 172 88 83 166 99 93 155 113 106 141 130 117 124 148 100 106 166 83 88 183 67 71 198 53 56 209 43 45 215 37 39 217 35 37 214 38 40 207 44 47 197 54 57 184 66 70 169 80 85 155 93 99 141 106 113 129 117 125 120 113 134 113 106 141 109 102 145 107 101 147 108 102 146 111 104 143 114 108 140 119 112 135 123 115 131 126 119 128 129 118 125 130 116 124 131 116 123 130 117 124 128 119 126 126 118 128 123 116 131 120 113 134 118 111 136 116 109 138 115 109 139 115 108 139 116 109 138 117 110 137 119 112 135 122 115 132 124 117 130 127 119 127 129 117 125 131 116 123 133 114 121 133 113 121 134 113 120 133 113 121 133 114 121 131 115 123 130 117 124 128 119 126 126 119 128 124 117 130 122 115 132 120 113 134 118 111 136 117 110 137 115 109 139 114 107 140 
136 111 118 133 114 121 131 116 123 128 118 126 126 118 128 124 116 130 122 115 132 121 114 133 121 113 133 120 113 134 121 114 133 122 115 132 123 116 131 125 118 129 127 119 127 128 118 126 130 117 124 131 116 123 132 115 122 132 115 122 131 116 123 130 117 124 128 119 126 125 118 129 122 115 132 120 113 134 117 110 137 115 108 139 113 106 141 112 105 142 112 105 142 113 106 141 114 107 140 116 110 138 119 112 135 122 115 132 125 117 129 127 119 127 128 118 126 129 118 125 129 118 125 128 119 126 126 118 128 123 116 131 121 114 133 118 111 136 116 109 138 114 108 140 114 107 140 114 107 140 115 108 139 117 110 137 118 111 136 119 112 135 120 113 134 119 112 135 117 110 137 113 106 141 107 100 147 99 94 155 91 86 163 82 77 172 73 69 181 66 62 188 60 56 194 56 53 198 55 52 199 57 54 197 62 59 192 69 65 185 78 74 176 88 83 166 99 93 155 108 102 146 116 109 138 122 115 132 126 118 128 127 119 127 125 118 129 122 114 132 116 109 138 110 103 144 103 97 151 96 90 158 89 84 165 83 78 171 78 73 176 74 70 180 71 67 183 70 65 184 69 65 185 70 66 184 72 68 182 76 71 178 81 76 173 88 83 166 96 91 158 106 100 148 117 110 137 128 119 126 139 108 115 149 99 105 157 91 97 163 86 91 165 83 89 164 85 90 159 89 95 150 98 104 139 109 115 125 117 129 110 104 144 96 90 158 84 79 170 74 70 180 69 65 185 69 65 185 74 70 180 84 79 170 99 93 155 116 110 138 136 111 118 157 92 97 176 73 78 193 57 61 206 45 48 215 37 39 219 33 35 218 34 36 212 39 42 202 49 52 190 61 64 175 74 79 160 88 94 145 102 109 132 115 122 121 114 133 113 107 141 108 102 146 106 100 148 107 100 147 109 103 145 113 106 141 117 110 137 122 115 132 126 119 128 130 117 124 132 115 122 133 114 121 132 115 122 131 116 123 128 118 126 125 118 129 122 115 132 119 112 135 117 110 137 115 109 139 115 108 139 115 108 139 116 109 138 118 111 136 120 113 134 123 116 131 126 118 128 128 118 126 131 116 123 133 114 121 135 112 119 136 111 118 136 111 118 136 111 118 135 112 119 133 114 121 131 115 123 129 117 125 127 119 127 125 117 129 122 115 132 120 113 134 118 111 136 116 109 138 114 107 140 
136 111 118 133 114 121 130 117 124 127 119 127 125 118 129 123 116 131 122 114 132 121 114 133 121 113 133 121 114 133 122 114 132 123 116 131 124 117 130 126 119 128 128 119 126 130 117 124 131 116 123 132 115 122 132 115 122 132 115 122 131 116 123 129 117 125 127 119 127 124 117 130 122 114 132 119 112 135 116 109 138 114 107 140 113 106 141 112 105 142 112 105 142 113 106 141 114 107 140 116 109 138 118 111 136 120 113 134 122 115 132 123 116 131 124 116 130 123 116 131 122 115 132 121 114 133 119 112 135 116 109 138 114 107 140 112 106 142 111 105 143 111 105 143 112 105 142 113 107 141 115 108 139 117 110 137 119 112 135 119 112 135 119 112 135 116 109 138 111 105 143 104 98 150 96 90 158 85 80 169 74 70 180 63 59 191 52 49 202 43 41 211 37 34 217 33 31 221 33 31 221 36 34 218 42 40 212 51 48 203 62 59 192 74 70 180 86 81 168 98 92 156 107 101 147 114 108 140 119 112 135 121 114 133 120 113 134 117 110 137 111 105 143 105 98 149 97 91 157 89 84 165 82 77 172 74 70 180 68 64 186 63 59 191 59 56 195 57 53 197 55 52 199 56 53 198 58 55 196 63 59 191 69 65 185 78 74 176 89 84 165 102 96 152 116 109 138 131 116 123 145 103 109 158 90 96 169 80 85 177 73 77 180 70 74 179 71 75 173 76 81 163 86 91 149 99 105 132 114 122 114 108 140 97 91 157 81 76 173 68 64 186 61 57 193 58 55 196 62 58 192 71 66 183 85 80 169 103 97 151 124 117 130 146 102 108 167 82 87 186 64 68 202 49 52 213 39 41 218 33 36 219 33 35 215 37 39 206 45 48 194 57 60 179 70 75 164 85 90 149 99 105 135 112 119 123 116 131 114 108 140 109 102 145 106 99 148 106 99 148 108 101 146 112 105 142 116 109 138 121 114 133 126 119 128 130 116 124 133 114 121 134 113 120 134 113 120 133 114 121 131 116 123 128 119 126 125 117 129 121 114 133 118 111 136 116 109 138 115 108 139 114 107 140 115 108 139 116 109 138 119 112 135 121 114 133 124 117 130 128 119 126 131 116 123 134 113 120 136 111 118 137 110 117 138 109 116 138 109 116 138 109 116 137 110 117 135 112 119 133 114 121 130 117 124 127 119 127 125 117 129 122 115 132 119 112 135 116 110 138 114 107 140 
136 111 118 132 115 122 129 117 125 126 119 128 124 117 130 122 115 132 121 114 133 121 114 133 121 114 133 121 114 133 122 115 132 124 116 130 125 118 129 127 119 127 129 118 125 131 116 123 132 115 122 132 114 122 132 114 122 132 115 122 130 116 124 129 118 125 126 119 128 124 116 130 121 114 133 118 111 136 116 109 138 114 107 140 113 106 141 112 106 142 112 106 142 113 106 141 114 107 140 116 109 138 117 110 137 118 111 136 119 112 135 120 113 134 119 112 135 118 111 136 116 109 138 114 108 140 112 105 142 110 104 144 109 102 145 108 101 146 108 101 146 109 102 145 111 104 143 113 106 141 116 109 138 118 111 136 119 112 135 119 112 135 117 110 137 113 106 141 106 100 148 97 91 157 86 81 168 73 69 181 60 56 194 47 44 207 35 33 219 25 24 229 18 17 236 15 14 239 15 14 239 19 18 235 27 25 227 37 35 217 50 47 204 63 59 191 76 72 178 89 84 165 99 94 155 108 101 146 113 107 141 116 109 138 116 109 138 113 106 141 108 102 146 102 96 152 94 89 160 86 81 168 78 73 176 70 66 184 63 59 191 56 53 198 51 48 203 47 45 207 45 42 209 45 42 209 47 44 207 52 49 202 60 56 194 70 66 184 84 79 170 99 93 155 117 110 137 135 112 119 152 96 102 168 80 86 182 68 72 191 59 63 196 55 58 195 55 59 189 62 65 177 72 77 161 88 93 142 106 112 121 114 133 100 94 154 81 76 173 65 61 189 54 51 200 49 47 205 51 48 203 59 55 195 72 68 182 90 85 164 111 105 143 134 113 120 156 92 98 177 72 77 194 56 60 207 44 47 215 37 39 217 35 37 214 37 40 207 44 47 196 55 58 182 68 72 167 82 87 151 97 103 137 110 117 125 118 129 116 109 138 109 103 145 106 99 148 105 99 149 107 101 147 111 104 143 115 109 139 121 114 133 126 119 128 131 116 123 134 113 120 136 111 118 137 111 117 136 111 118 133 113 121 130 116 124 127 119 127 123 116 131 120 113 134 117 110 137 115 108 139 114 107 140 114 107 140 115 108 139 117 110 137 120 113 134 123 116 131 127 119 127 130 116 124 134 113 120 136 111 118 139 108 115 140 107 114 141 106 113 141 107 113 140 108 114 138 109 116 136 111 118 133 114 121 130 117 124 127 119 127 124 116 130 120 113 134 117 110 137 114 108 140 
135 112 119 132 115 122 128 118 126 126 118 128 123 116 131 122 115 132 121 114 133 121 113 133 121 114 133 122 114 132 123 116 131 125 117 129 126 119 128 128 118 126 130 117 124 131 115 123 132 114 122 133 114 121 132 114 122 132 115 122 130 117 124 128 119 126 125 118 129 123 116 131 120 113 134 118 111 136 116 109 138 114 107 140 113 106 141 113 106 141 113 106 141 113 107 141 114 108 140 115 109 139 116 109 138 117 110 137 117 110 137 116 109 138 115 108 139 113 107 141 111 105 143 109 103 145 107 101 147 105 99 149 104 98 150 104 98 150 105 99 149 107 101 147 110 104 144 113 107 141 116 109 138 119 112 135 120 113 134 119 112 135 116 109 138 110 104 144 102 96 152 91 86 163 78 73 176 64 60 190 50 47 204 36 34 218 23 22 231 13 13 241 7 6 247 4 3 250 5 4 249 9 9 245 18 17 236 29 27 225 42 39 212 56 52 198 70 65 184 83 78 171 94 88 160 103 97 151 109 102 145 112 106 142 113 106 141 111 105 143 107 101 147 102 96 152 95 89 159 87 82 167 79 74 175 71 66 183 62 59 192 55 52 199 48 45 206 43 40 211 39 37 215 38 36 216 40 37 214 45 42 209 53 50 201 65 61 189 80 75 174 98 92 156 118 111 136 139 108 115 160 88 94 179 70 75 195 56 59 206 45 48 212 40 42 211 40 43 204 47 50 192 59 62 174 76 80 152 96 102 129 118 125 105 99 149 83 78 171 64 60 190 51 48 203 44 41 210 43 40 211 49 46 205 61 58 193 79 74 175 99 94 155 122 115 132 145 102 109 167 82 87 185 65 69 200 51 54 209 42 45 213 39 41 211 40 43 205 46 49 195 55 59 182 67 72 168 81 86 153 95 101 139 108 115 127 119 127 117 110 137 110 103 144 106 100 148 105 99 149 107 100 147 110 104 144 115 108 139 120 113 134 126 119 128 131 116 123 135 112 119 137 110 117 138 109 116 138 109 116 136 111 118 133 114 121 129 117 125 126 118 128 122 114 132 118 111 136 116 109 138 114 107 140 114 107 140 114 108 140 116 109 138 119 112 135 122 115 132 126 118 128 130 117 124 133 113 121 137 110 117 140 108 114 142 106 112 143 105 111 143 104 111 142 105 112 141 106 113 139 109 115 136 111 118 133 114 121 129 118 125 125 118 129 122 114 132 118 111 136 115 108 139 
135 112 119 131 116 123 128 119 126 125 118 129 123 116 131 121 114 133 121 113 133 120 113 134 121 114 133 122 115 132 124 116 130 125 118 129 127 119 127 129 118 125 131 116 123 132 115 122 133 114 121 133 114 121 132 114 122 131 116 123 129 117 125 127 119 127 125 117 129 122 115 132 120 113 134 117 110 137 115 109 139 114 107 140 113 107 141 113 106 141 113 107 141 114 107 140 114 108 140 115 108 139 115 109 139 115 109 139 115 108 139 113 107 141 112 105 142 110 103 144 107 101 147 105 99 149 103 97 151 102 96 152 102 96 152 102 96 152 104 98 150 107 101 147 110 104 144 114 107 140 117 110 137 119 112 135 120 113 134 118 111 136 114 108 140 108 101 146 98 92 156 86 81 168 73 68 181 58 55 196 43 41 211 29 28 225 17 16 237 8 7 246 2 2 252 0 0 255 1 1 253 6 6 248 15 14 239 26 25 228 39 37 215 53 50 201 66 63 188 79 75 175 90 85 164 100 94 154 106 100 148 110 104 144 112 106 142 112 105 142 109 103 145 105 99 149 99 93 155 92 87 162 84 79 170 76 71 178 67 63 187 58 55 196 50 47 204 43 41 211 38 36 216 36 34 218 36 34 218 41 38 213 49 46 205 62 58 192 78 74 176 98 93 156 121 114 133 145 103 109 168 81 86 189 61 65 207 44 47 220 32 34 226 26 28 226 26 28 219 33 35 206 46 48 186 64 68 163 86 91 137 110 117 111 105 143 87 82 167 66 62 188 51 48 203 41 39 213 38 36 216 43 40 211 53 50 201 69 65 185 89 84 165 112 105 142 134 112 120 156 92 98 175 74 79 190 60 64 201 50 53 206 45 48 206 45 48 201 50 53 192 58 62 181 69 73 168 81 86 154 95 100 140 107 114 128 118 126 118 111 136 111 105 143 107 101 147 106 99 148 107 100 147 110 104 144 115 108 139 120 113 134 126 118 128 131 116 123 135 112 119 138 109 116 140 108 114 140 108 114 138 109 116 135 112 119 132 115 122 128 119 126 124 116 130 120 113 134 117 110 137 115 108 139 114 107 140 114 107 140 115 108 139 118 111 136 121 114 133 125 117 129 129 118 125 133 114 121 137 110 117 140 107 114 143 105 111 144 103 110 145 103 109 144 103 110 143 104 111 141 106 113 138 109 116 135 112 119 131 116 123 127 119 127 123 116 131 119 112 135 115 109 139 
134 113 120 130 116 124 127 119 127 124 117 130 122 115 132 121 114 133 120 113 134 120 113 134 121 114 133 122 115 132 124 117 130 126 118 128 128 119 126 130 117 124 131 116 123 132 115 122 133 114 121 133 114 121 132 115 122 131 116 123 129 118 125 127 119 127 124 117 130 122 114 132 119 112 135 117 110 137 115 109 139 114 108 140 114 107 140 114 107 140 114 107 140 114 108 140 115 108 139 115 108 139 115 108 139 114 108 140 113 107 141 111 105 143 109 103 145 107 101 147 104 98 150 102 96 152 101 95 153 100 94 154 100 94 154 102 96 152 104 98 150 107 101 147 111 105 143 115 108 139 118 111 136 120 113 134 120 113 134 118 111 136 113 106 141 106 99 148 96 90 158 84 79 170 70 66 184 56 52 198 41 39 213 28 27 226 17 16 237 9 8 245 4 4 250 3 2 251 5 5 249 10 10 244 19 18 235 30 28 224 42 39 212 55 51 199 67 63 187 79 74 175 90 84 164 99 93 155 106 99 148 111 104 143 114 107 140 115 108 139 114 107 140 111 105 143 107 101 147 102 96 152 95 89 159 86 81 168 77 72 177 67 63 187 58 54 196 49 46 205 42 40 212 38 36 216 37 35 217 41 38 213 49 46 205 61 58 193 79 74 175 100 94 154 124 117 130 150 98 104 175 75 79 198 53 56 217 35 37 231 21 23 239 14 15 239 14 15 232 21 22 218 34 36 198 53 56 174 76 80 147 101 107 119 112 135 93 88 161 71 67 183 53 50 201 42 40 212 38 35 216 40 38 214 49 46 205 63 60 191 82 77 172 103 97 151 125 117 129 146 102 108 164 84 90 180 70 74 191 60 63 197 54 57 198 53 56 195 56 59 188 63 66 178 72 76 166 83 88 153 95 101 140 107 114 129 118 125 120 113 134 113 106 141 108 102 146 107 100 147 108 101 146 110 104 144 115 108 139 120 113 134 126 118 128 131 116 123 136 111 118 139 108 115 141 107 113 141 106 113 140 108 114 137 110 117 134 113 120 130 117 124 125 118 129 121 114 133 118 111 136 115 109 139 114 107 140 114 107 140 115 108 139 117 110 137 120 113 134 124 116 130 128 119 126 132 115 122 136 111 118 140 107 114 143 105 111 145 103 109 146 102 108 146 102 108 145 103 109 142 105 112 140 108 114 136 111 118 132 115 122 128 119 126 124 116 130 120 113 134 116 109 138 
133 114 121 129 117 125 126 119 128 124 116 130 122 114 132 120 113 134 120 113 134 120 113 134 121 114 133 123 115 131 124 117 130 126 119 128 128 118 126 130 117 124 131 115 123 132 114 122 133 114 121 132 114 122 132 115 122 130 117 124 128 118 126 126 118 128 123 116 131 121 114 133 119 112 135 117 110 137 116 109 138 115 108 139 114 108 140 114 108 140 115 108 139 115 108 139 115 109 139 115 109 139 115 108 139 114 107 140 112 106 142 110 104 144 108 102 146 105 99 149 103 97 151 101 95 153 100 94 154 99 93 155 100 94 154 102 96 152 105 99 149 108 102 146 112 106 142 116 109 138 119 112 135 120 113 134 120 113 134 117 110 137 112 105 142 104 98 150 94 89 160 83 78 171 70 66 184 57 53 197 44 41 210 32 31 222 23 22 231 16 15 238 13 12 241 13 12 241 15 14 239 21 20 233 29 27 225 39 36 215 49 46 205 61 57 193 72 67 182 82 77 172 92 86 162 100 94 154 107 101 147 113 106 141 117 110 137 120 113 134 121 114 133 121 114 133 119 112 135 114 108 140 109 102 145 101 95 153 91 86 163 81 76 173 70 66 184 60 56 194 51 48 203 45 42 209 42 40 212 44 41 210 51 48 203 63 60 191 81 76 173 102 96 152 127 119 127 154 94 100 180 70 74 204 47 50 225 28 29 240 14 14 248 6 6 248 5 6 242 12 12 228 25 26 208 44 46 183 67 71 156 92 98 128 119 126 101 95 153 78 73 176 59 56 195 47 44 207 41 39 213 42 39 212 49 46 205 61 57 193 78 73 176 97 91 157 117 110 137 136 111 118 154 94 100 169 80 85 180 70 74 186 64 68 188 62 66 186 64 68 181 69 73 173 77 81 162 86 92 151 97 103 140 107 114 130 117 124 121 114 133 115 108 139 110 104 144 109 102 145 109 103 145 112 105 142 116 109 138 120 113 134 126 118 128 131 116 123 136 111 118 139 108 115 141 106 113 142 106 112 141 106 113 139 109 115 135 112 119 131 115 123 127 119 127 123 116 131 119 112 135 116 109 138 114 108 140 114 107 140 114 108 140 116 109 138 119 112 135 123 115 131 127 119 127 131 116 123 135 112 119 139 108 115 142 105 112 145 103 109 146 102 108 146 102 108 145 102 109 143 104 111 140 107 114 137 110 117 133 114 121 128 118 126 124 117 130 120 113 134 116 109 138 
133 114 121 129 118 125 125 118 129 123 116 131 121 114 133 120 113 134 120 113 134 120 113 134 121 114 133 123 115 131 125 117 129 126 119 128 128 118 126 130 117 124 131 115 123 132 115 122 132 114 122 132 115 122 131 116 123 129 117 125 127 119 127 125 118 129 123 116 131 121 114 133 119 112 135 117 110 137 116 109 138 115 109 139 115 108 139 115 109 139 116 109 138 116 109 138 116 109 138 116 109 138 115 109 139 114 107 140 112 106 142 110 104 144 108 101 146 105 99 149 103 97 151 101 95 153 100 94 154 100 94 154 101 95 153 103 97 151 106 100 148 110 103 144 114 107 140 117 110 137 119 112 135 120 113 134 120 112 134 117 110 137 111 105 143 104 98 150 94 89 160 84 79 170 72 68 182 61 57 193 50 47 204 41 39 213 34 32 220 29 28 225 27 26 227 28 26 226 31 30 223 37 35 217 44 41 210 52 49 202 61 57 193 70 66 184 79 75 175 88 83 166 96 90 158 103 97 151 110 104 144 117 110 137 122 115 132 127 119 127 130 117 124 132 115 122 132 115 122 130 117 124 126 118 128 119 112 135 109 103 145 98 93 156 86 81 168 74 70 180 64 60 190 55 52 199 51 48 203 51 48 203 56 53 198 67 63 187 84 79 170 105 99 149 130 117 124 156 92 98 183 67 71 208 43 46 229 24 25 244 9 10 253 1 1 254 0 0 247 6 7 234 19 20 214 37 40 190 60 64 164 85 90 136 111 118 110 104 144 87 82 167 68 64 186 55 52 199 48 45 206 48 45 206 53 50 201 63 59 191 77 72 177 93 88 161 111 105 143 129 118 125 145 103 109 158 90 96 168 81 86 175 74 79 178 72 76 177 73 77 173 76 81 166 83 88 158 90 96 149 99 105 139 108 115 130 117 124 122 115 132 117 110 137 113 106 141 111 104 143 111 104 143 113 106 141 117 110 137 121 114 133 126 119 128 131 116 123 135 112 119 139 108 115 141 106 113 142 106 112 141 106 113 139 108 115 136 111 118 133 114 121 129 118 125 124 117 130 120 113 134 117 110 137 115 108 139 114 107 140 114 107 140 116 109 138 118 111 136 122 114 132 126 118 128 130 117 124 134 113 120 138 109 116 141 106 113 144 104 110 145 102 109 146 102 108 145 103 109 143 105 111 140 107 114 137 110 117 133 114 121 128 118 126 124 117 130 120 113 134 116 109 138 
132 115 122 128 119 126 125 117 129 122 115 132 120 113 134 120 112 134 119 112 135 120 113 134 121 114 133 123 115 131 124 117 130 126 119 128 128 118 126 130 117 124 131 116 123 132 115 122 132 115 122 131 115 123 130 117 124 129 118 125 127 119 127 125 117 129 122 115 132 120 113 134 119 112 135 117 110 137 117 110 137 116 109 138 116 109 138 117 110 137 117 110 137 117 110 137 118 111 136 117 110 137 116 110 138 115 108 139 113 107 141 111 104 143 108 102 146 106 100 148 104 98 150 102 96 152 101 95 153 102 96 152 103 97 151 105 99 149 108 102 146 111 105 143 115 108 139 118 111 136 120 113 134 120 113 134 119 112 135 116 109 138 111 104 143 104 98 150 96 90 158 86 81 168 77 72 177 68 64 186 60 56 194 53 50 201 49 46 205 46 43 208 46 43 208 48 45 206 52 49 202 57 53 197 63 59 191 69 65 185 76 71 178 83 78 171 89 84 165 96 90 158 102 96 152 108 102 146 115 108 139 122 114 132 128 118 126 135 112 119 140 107 114 145 103 109 147 101 107 147 101 107 144 103 110 138 109 116 130 117 124 118 111 136 105 99 149 92 86 162 79 74 175 69 65 185 62 58 192 60 56 194 63 59 191 72 68 182 88 82 166 108 101 146 132 115 122 158 91 96 184 66 70 208 43 46 229 24 25 244 9 10 253 1 1 255 0 0 249 5 5 236 17 18 218 34 36 195 55 59 170 79 84 144 103 110 119 112 135 97 91 157 79 75 175 66 62 188 59 55 195 57 54 197 61 57 193 68 64 186 80 75 174 94 88 160 108 102 146 123 116 131 137 110 117 148 99 106 158 91 96 164 85 90 167 82 87 167 82 87 164 85 90 159 89 95 153 95 101 145 102 109 138 110 116 130 117 124 124 116 130 119 112 135 115 108 139 113 107 141 113 107 141 115 108 139 118 111 136 122 115 132 126 119 128 131 116 123 135 112 119 138 109 116 140 107 114 141 106 113 141 106 113 140 108 114 137 110 117 133 113 121 130 117 124 125 118 129 122 114 132 118 111 136 116 109 138 114 108 140 114 108 140 115 109 139 118 111 136 121 113 133 124 117 130 128 118 126 133 114 121 136 111 118 140 107 114 142 105 112 144 104 110 144 103 110 143 104 111 142 106 112 139 108 115 136 111 118 132 115 122 128 119 126 124 116 130 120 113 134 116 109 138 
131 116 123 127 119 127 124 117 130 122 114 132 120 113 134 119 112 135 119 112 135 120 113 134 121 114 133 122 115 132 124 117 130 126 119 128 128 119 126 129 117 125 131 116 123 131 116 123 131 116 123 131 116 123 129 117 125 128 119 126 126 119 128 124 117 130 122 115 132 120 113 134 119 112 135 118 111 136 117 110 137 117 110 137 117 110 137 118 111 136 119 112 135 119 112 135 119 112 135 119 112 135 118 111 136 117 110 137 115 108 139 113 106 141 110 104 144 108 101 146 106 100 148 104 98 150 104 97 150 104 98 150 105 99 149 107 101 147 110 103 144 113 106 141 116 109 138 118 111 136 120 113 134 120 113 134 118 111 136 115 108 139 111 104 143 105 98 149 98 92 156 90 85 164 83 78 171 77 72 177 71 67 183 68 64 186 66 62 188 66 62 188 67 63 187 70 66 184 74 70 180 79 74 175 83 78 171 88 83 166 92 87 162 97 91 157 101 95 153 105 98 149 109 103 145 114 108 140 120 113 134 127 119 127 135 112 119 143 104 111 151 97 103 158 91 96 163 86 91 165 84 89 164 85 90 159 90 95 151 97 103 139 108 115 126 118 128 111 104 143 96 91 158 84 79 170 75 70 179 70 66 184 72 67 182 79 74 175 92 87 162 110 104 144 132 114 122 157 91 97 182 68 72 205 46 49 225 27 29 240 13 14 249 5 5 251 3 3 246 8 8 234 18 20 218 34 36 197 53 57 174 75 80 151 97 103 128 118 126 108 102 146 92 86 162 80 75 174 73 68 181 70 66 184 72 68 182 78 73 176 86 81 168 97 91 157 109 102 145 120 113 134 131 116 123 140 107 114 148 100 106 153 95 101 156 92 98 156 92 98 155 93 99 151 96 103 147 101 107 141 106 113 136 111 118 130 117 124 125 118 129 121 114 133 118 111 136 116 109 138 116 109 138 117 110 137 120 113 134 123 116 131 126 119 128 130 116 124 134 113 120 137 110 117 139 108 115 140 107 114 140 107 114 139 108 115 137 110 117 134 113 120 130 117 124 126 119 128 122 115 132 119 112 135 117 110 137 115 108 139 115 108 139 115 108 139 117 110 137 120 113 134 123 116 131 127 119 127 131 116 123 134 113 120 138 110 116 140 107 114 142 106 112 142 105 112 141 106 113 140 107 114 137 110 117 134 113 120 131 116 123 127 119 127 123 115 131 119 112 135 116 109 138 
130 117 124 126 119 128 123 116 131 121 114 133 119 112 135 119 112 135 119 112 135 119 112 135 120 113 134 122 115 132 124 116 130 126 118 128 127 119 127 129 118 125 130 117 124 130 116 124 130 116 124 130 117 124 129 118 125 127 119 127 125 118 129 123 116 131 122 115 132 120 113 134 119 112 135 118 111 136 118 111 136 118 111 136 119 112 135 119 112 135 120 113 134 121 114 133 121 114 133 121 114 133 120 113 134 119 112 135 117 110 137 115 108 139 113 106 141 111 104 143 109 102 145 107 101 147 106 100 148 107 100 147 108 101 146 109 103 145 112 105 142 114 107 140 116 110 138 118 111 136 119 112 135 119 112 135 118 111 136 115 108 139 111 104 143 106 100 148 101 95 153 95 90 159 91 85 163 87 82 167 84 79 170 83 79 171 84 79 170 86 81 168 89 84 165 93 88 161 97 91 157 101 95 153 104 98 150 107 101 147 109 103 145 111 104 143 112 106 142 114 107 140 117 110 137 121 113 133 126 119 128 133 114 121 142 105 112 151 96 103 161 87 93 170 79 84 177 72 77 181 69 73 182 68 72 178 71 76 171 78 83 160 89 94 146 102 108 130 117 124 114 107 140 100 94 154 89 83 165 82 77 172 81 76 173 86 81 168 96 91 158 112 106 142 132 115 122 154 94 100 177 72 77 199 52 55 217 34 37 231 21 23 240 13 14 242 11 12 238 15 16 229 24 25 214 37 40 196 54 58 177 73 77 156 92 98 137 110 117 120 113 134 105 99 149 95 89 159 88 83 166 86 81 168 86 81 168 90 85 164 96 90 158 104 97 150 112 105 142 120 113 134 128 119 126 134 113 120 140 108 114 144 104 110 146 102 108 147 101 107 146 102 108 144 104 110 141 106 113 137 110 117 134 113 120 130 117 124 126 119 128 123 116 131 121 114 133 119 112 135 119 112 135 120 113 134 122 114 132 124 117 130 127 119 127 130 117 124 133 114 121 136 111 118 138 110 116 139 109 115 139 108 115 138 109 116 136 111 118 133 114 121 130 117 124 127 119 127 123 116 131 120 113 134 117 110 137 116 109 138 115 108 139 115 109 139 117 110 137 119 112 135 122 115 132 125 118 129 129 118 125 132 115 122 135 112 119 137 110 117 139 109 115 139 108 115 139 109 115 137 110 117 135 112 119 132 115 122 129 118 125 125 118 129 121 114 133 118 111 136 115 108 139 
129 117 125 126 118 128 123 116 131 121 113 133 119 112 135 118 111 136 118 111 136 119 112 135 120 113 134 121 114 133 123 116 131 125 117 129 127 119 127 128 119 126 129 118 125 129 117 125 129 117 125 129 118 125 128 119 126 126 119 128 125 117 129 123 116 131 122 114 132 120 113 134 119 112 135 119 112 135 119 112 135 119 112 135 120 113 134 121 114 133 122 115 132 123 116 131 124 116 130 124 116 130 123 116 131 122 115 132 120 113 134 118 111 136 116 109 138 114 107 140 112 105 142 110 104 144 109 103 145 109 103 145 110 103 144 111 105 143 113 106 141 115 108 139 117 110 137 118 111 136 119 112 135 118 111 136 117 110 137 115 108 139 112 105 142 108 102 146 104 98 150 101 95 153 99 93 155 98 92 156 98 92 156 99 93 155 102 96 152 106 100 148 110 104 144 115 108 139 119 112 135 122 115 132 124 117 130 125 118 129 125 117 129 124 117 130 123 116 131 123 115 131 124 116 130 126 119 128 131 115 123 139 109 115 148 100 106 159 90 95 170 79 84 181 69 73 189 61 65 196 55 58 198 53 56 196 55 58 189 61 65 178 71 76 164 85 90 148 100 106 131 116 123 115 109 139 102 96 152 94 88 160 90 85 164 93 87 161 100 95 154 114 107 140 131 116 123 150 98 104 171 79 83 190 60 64 207 44 47 220 32 34 227 25 27 230 23 24 227 25 27 219 33 35 207 44 47 193 58 61 176 73 78 160 89 94 144 103 110 130 116 124 119 112 135 111 104 143 105 99 149 103 97 151 103 97 151 105 99 149 108 102 146 113 106 141 117 110 137 122 115 132 127 119 127 130 116 124 133 113 121 136 111 118 137 110 117 138 109 116 138 110 116 137 110 117 135 112 119 133 113 121 131 115 123 129 117 125 127 119 127 125 118 129 123 116 131 122 115 132 122 115 132 122 115 132 123 116 131 125 118 129 127 119 127 129 117 125 132 115 122 134 113 120 136 111 118 137 110 117 137 110 117 136 111 118 135 112 119 132 114 122 130 117 124 127 119 127 123 116 131 121 113 133 118 111 136 116 109 138 116 109 138 116 109 138 117 110 137 118 111 136 121 114 133 124 116 130 127 119 127 130 117 124 132 115 122 134 113 120 135 112 119 136 111 118 135 112 119 134 113 120 132 115 122 129 117 125 126 119 128 123 116 131 120 113 134 117 110 137 114 108 140 
128 118 126 125 118 129 122 115 132 120 113 134 119 112 135 118 111 136 118 111 136 118 111 136 119 112 135 121 114 133 122 115 132 124 117 130 126 118 128 127 119 127 128 119 126 128 118 126 128 118 126 128 119 126 127 119 127 126 118 128 124 117 130 123 116 131 121 114 133 120 113 134 120 113 134 120 112 134 120 113 134 121 113 133 122 115 132 123 116 131 124 117 130 126 118 128 126 119 128 127 119 127 126 119 128 125 118 129 124 117 130 122 115 132 120 113 134 117 111 137 115 109 139 114 107 140 113 106 141 112 105 142 112 106 142 113 106 141 114 107 140 116 109 138 117 110 137 118 111 136 118 111 136 118 111 136 117 110 137 115 108 139 113 106 141 111 104 143 109 102 145 107 101 147 107 101 147 108 102 146 110 104 144 114 107 140 118 111 136 124 116 130 129 118 125 134 113 120 138 110 116 140 107 114 141 106 113 140 107 114 138 109 116 135 112 119 132 115 122 130 117 124 130 117 124 131 115 123 136 111 118 143 105 111 153 95 101 164 85 90 176 73 78 189 62 65 199 52 55 207 45 47 210 41 44 210 42 44 204 47 50 194 57 60 180 70 74 163 85 91 146 101 108 130 117 124 115 108 139 105 99 149 99 93 155 99 93 155 104 98 150 114 108 140 128 118 126 145 103 109 162 86 92 179 70 75 194 57 60 205 46 49 212 39 42 215 37 39 213 39 41 207 44 47 198 53 56 187 63 67 174 75 80 162 87 92 150 98 104 140 107 114 132 115 122 126 119 128 122 115 132 120 113 134 120 113 134 120 113 134 122 115 132 123 116 131 125 118 129 126 119 128 128 119 126 128 118 126 129 117 125 130 117 124 130 117 124 130 116 124 130 116 124 130 116 124 130 116 124 130 117 124 129 117 125 129 118 125 128 119 126 127 119 127 126 119 128 125 118 129 125 118 129 125 118 129 125 118 129 126 119 128 127 119 127 129 118 125 131 116 123 132 115 122 133 113 121 134 113 120 135 112 119 134 113 120 133 114 121 131 116 123 129 118 125 126 119 128 123 116 131 121 114 133 119 112 135 117 110 137 116 109 138 116 109 138 117 110 137 118 111 136 120 113 134 122 115 132 125 117 129 127 119 127 129 117 125 131 116 123 132 115 122 132 114 122 132 115 122 131 116 123 129 118 125 126 119 128 124 116 130 121 114 133 118 111 136 116 109 138 114 107 140 
128 119 126 125 117 129 122 115 132 120 113 134 118 111 136 118 111 136 117 110 137 118 111 136 119 112 135 120 113 134 122 114 132 123 116 131 125 117 129 126 118 128 127 119 127 127 119 127 127 119 127 127 119 127 126 119 128 125 118 129 124 116 130 123 115 131 121 114 133 121 113 133 120 113 134 120 113 134 121 114 133 122 115 132 123 116 131 125 118 129 127 119 127 128 119 126 129 117 125 130 117 124 130 117 124 129 118 125 128 119 126 126 118 128 124 116 130 121 114 133 119 112 135 117 110 137 115 109 139 114 108 140 114 107 140 114 108 140 115 108 139 116 109 138 117 110 137 117 110 137 118 111 136 117 111 137 117 110 137 116 109 138 115 108 139 114 107 140 113 106 141 113 107 141 115 108 139 118 111 136 121 114 133 127 119 127 132 114 122 138 109 116 144 103 110 149 99 105 152 96 102 154 94 100 154 94 100 152 96 102 148 100 106 144 104 110 139 108 115 136 111 118 134 113 120 135 112 119 139 109 115 146 102 108 155 93 99 167 82 87 180 69 74 194 57 60 205 46 49 214 38 40 219 33 35 219 33 35 214 37 40 205 46 49 192 58 62 176 74 78 158 90 96 141 106 113 126 119 128 115 108 139 107 101 147 105 99 149 107 101 147 114 108 140 125 118 129 139 108 115 153 95 101 167 82 87 179 70 75 189 61 65 195 55 59 198 53 56 197 54 57 193 57 61 187 63 67 179 71 75 170 79 84 162 87 92 154 94 100 148 99 106 144 104 110 140 107 114 138 109 116 137 110 117 137 110 117 136 111 118 136 111 118 135 112 119 134 113 120 132 115 122 130 116 124 128 118 126 127 119 127 125 118 129 125 117 129 124 117 130 124 117 130 125 118 129 126 118 128 127 119 127 128 119 126 128 118 126 128 118 126 129 118 125 128 118 126 128 119 126 128 119 126 127 119 127 127 119 127 127 119 127 128 119 126 128 118 126 129 117 125 130 116 124 131 116 123 132 115 122 132 115 122 132 115 122 131 116 123 130 117 124 128 119 126 126 118 128 123 116 131 121 114 133 119 112 135 118 111 136 117 110 137 116 109 138 117 110 137 118 111 136 119 112 135 121 114 133 123 116 131 125 118 129 127 119 127 128 119 126 129 118 125 129 118 125 128 118 126 127 119 127 126 118 128 124 116 130 121 114 133 119 112 135 117 110 137 115 108 139 113 106 141 
127 119 127 124 117 130 122 114 132 120 113 134 118 111 136 117 110 137 117 110 137 117 110 137 118 111 136 119 112 135 121 114 133 122 115 132 124 116 130 125 117 129 126 118 128 126 119 128 126 119 128 126 119 128 125 118 129 124 117 130 123 116 131 122 115 132 121 114 133 121 114 133 121 114 133 121 114 133 122 115 132 123 116 131 125 117 129 127 119 127 129 118 125 131 116 123 132 115 122 133 114 121 133 114 121 133 114 121 131 115 123 130 117 124 127 119 127 125 118 129 122 115 132 120 113 134 118 111 136 117 110 137 116 109 138 115 109 139 115 109 139 116 109 138 117 110 137 117 110 137 117 110 137 118 111 136 117 110 137 117 110 137 117 110 137 117 110 137 118 111 136 119 112 135 122 115 132 126 118 128 131 116 123 137 111 117 143 105 111 149 99 105 155 93 99 160 89 94 162 86 92 163 85 91 162 86 92 159 89 95 154 94 100 149 99 105 143 104 111 139 108 115 136 111 118 137 110 117 140 107 114 147 101 107 156 92 98 168 81 86 182 68 72 195 55 59 207 44 47 217 35 37 223 30 31 224 28 30 220 32 34 212 40 42 200 51 54 184 66 70 167 81 87 151 97 103 135 112 119 123 115 131 114 107 140 110 103 144 110 103 144 114 108 140 122 115 132 132 114 122 144 104 110 155 93 99 165 84 89 173 76 81 178 71 76 181 69 73 180 69 74 178 71 76 174 75 80 170 79 84 165 84 89 160 88 94 157 91 97 155 94 99 153 95 101 153 95 101 153 95 101 153 95 101 152 96 102 151 97 103 149 99 105 146 101 108 143 105 111 139 108 115 134 113 120 130 117 124 126 119 128 123 116 131 121 114 133 120 113 134 120 113 134 121 114 133 122 115 132 124 117 130 126 119 128 128 119 126 129 118 125 130 117 124 130 117 124 130 117 124 130 117 124 129 118 125 128 118 126 128 119 126 128 119 126 128 119 126 128 119 126 128 118 126 129 118 125 129 117 125 129 117 125 129 117 125 129 118 125 128 119 126 126 119 128 125 117 129 123 116 131 121 114 133 119 112 135 118 111 136 117 110 137 117 110 137 117 110 137 118 111 136 119 112 135 120 113 134 122 114 132 123 116 131 124 117 130 125 118 129 126 118 128 126 118 128 125 118 129 124 117 130 123 115 131 121 114 133 119 112 135 117 110 137 115 108 139 114 107 140 113 106 141 
127 119 127 124 117 130 122 114 132 120 113 134 118 111 136 117 110 137 117 110 137 117 110 137 118 111 136 119 112 135 120 113 134 121 114 133 122 115 132 124 116 130 125 117 129 125 118 129 125 118 129 125 118 129 125 117 129 124 117 130 123 116 131 122 115 132 122 114 132 121 114 133 121 114 133 122 115 132 123 116 131 124 117 130 126 119 128 129 118 125 131 116 123 133 114 121 135 112 119 136 111 118 136 111 118 136 111 118 135 112 119 133 114 121 131 116 123 128 118 126 125 118 129 123 115 131 120 113 134 118 111 136 117 110 137 116 109 138 116 109 138 116 109 138 116 109 138 117 110 137 117 111 137 118 111 136 118 111 136 119 112 135 120 112 134 121 113 133 122 115 132 125 117 129 128 119 126 132 114 122 138 109 116 144 104 110 150 98 104 156 92 98 161 87 93 165 83 89 168 81 86 168 81 86 166 83 88 162 86 92 157 91 97 151 97 103 145 103 109 140 107 114 137 110 117 137 110 117 140 108 114 146 102 108 155 93 99 167 82 87 180 70 74 193 57 61 206 46 48 215 36 39 222 30 32 224 28 30 221 31 33 214 38 40 203 48 51 189 61 65 173 76 81 157 92 97 142 106 112 129 118 125 119 112 135 114 107 140 112 105 142 114 107 140 119 112 135 127 119 127 135 112 119 143 104 111 151 97 103 157 91 97 161 87 93 164 85 90 164 84 90 163 85 91 162 87 92 160 88 94 159 90 95 158 91 96 158 90 96 159 89 95 161 88 93 163 86 91 164 84 90 165 83 89 165 83 89 164 85 90 161 87 93 157 91 97 152 96 102 145 102 109 139 108 115 132 114 122 127 119 127 122 115 132 119 112 135 117 110 137 117 110 137 118 111 136 120 113 134 122 115 132 125 117 129 127 119 127 129 117 125 131 116 123 131 115 123 132 115 122 131 116 123 130 116 124 130 117 124 129 118 125 128 119 126 127 119 127 127 119 127 127 119 127 127 119 127 127 119 127 127 119 127 127 119 127 126 119 128 126 118 128 125 117 129 124 116 130 122 115 132 121 114 133 120 113 134 119 112 135 118 111 136 117 110 137 117 110 137 118 111 136 118 111 136 119 112 135 120 113 134 121 114 133 122 115 132 123 115 131 123 116 131 123 116 131 122 115 132 121 114 133 120 113 134 119 112 135 117 110 137 116 109 138 114 108 140 113 107 141 113 106 141 
126 119 128 124 117 130 122 114 132 120 113 134 118 111 136 117 110 137 117 110 137 117 110 137 117 110 137 118 111 136 119 112 135 120 113 134 121 114 133 123 115 131 123 116 131 124 117 130 124 117 130 124 117 130 124 117 130 123 116 131 123 115 131 122 115 132 122 114 132 121 114 133 122 114 132 122 115 132 124 116 130 125 118 129 128 119 126 130 117 124 132 114 122 135 112 119 137 110 117 138 109 116 139 108 115 139 108 115 138 109 116 136 111 118 134 113 120 131 116 123 128 118 126 125 118 129 122 115 132 120 113 134 118 111 136 117 110 137 116 109 138 116 109 138 116 109 138 117 110 137 118 111 136 119 112 135 120 113 134 121 114 133 123 115 131 124 117 130 126 119 128 129 117 125 133 114 121 137 110 117 142 105 112 148 100 106 153 95 101 159 90 95 163 85 91 166 82 88 168 81 86 168 81 86 165 83 89 161 87 93 156 92 98 150 98 104 144 104 110 139 108 115 136 111 118 135 112 119 138 109 116 143 104 111 152 96 102 163 86 91 176 74 78 188 62 66 200 50 54 210 41 44 217 35 37 219 33 35 218 34 36 212 40 42 202 49 52 189 61 65 175 75 79 160 89 94 145 102 109 133 114 121 123 116 131 117 110 137 114 107 140 114 107 140 117 110 137 122 114 132 127 119 127 133 114 121 139 108 115 143 104 111 147 101 107 149 99 105 150 98 104 150 98 104 150 98 104 151 97 103 152 96 102 154 94 100 157 91 97 161 87 93 165 83 89 169 80 85 173 76 81 175 74 79 176 74 78 174 75 80 171 78 83 166 83 88 159 89 95 151 97 103 143 104 111 135 112 119 128 118 126 123 115 131 119 112 135 116 109 138 115 109 139 116 109 138 118 111 136 121 114 133 124 116 130 127 119 127 129 117 125 131 116 123 132 115 122 133 114 121 132 115 122 131 115 123 130 117 124 129 118 125 127 119 127 126 119 128 125 118 129 125 118 129 125 117 129 124 117 130 124 117 130 124 117 130 124 117 130 124 117 130 123 116 131 123 115 131 122 115 132 121 114 133 120 113 134 119 112 135 118 111 136 118 111 136 118 111 136 118 111 136 118 111 136 119 112 135 119 112 135 120 113 134 120 113 134 121 114 133 121 114 133 120 113 134 120 113 134 119 112 135 118 111 136 117 110 137 116 109 138 115 108 139 114 107 140 113 107 141 113 107 141 
126 119 128 124 117 130 122 115 132 120 113 134 118 111 136 117 110 137 117 110 137 117 110 137 117 110 137 117 110 137 118 111 136 119 112 135 120 113 134 121 114 133 122 115 132 123 116 131 123 116 131 123 116 131 123 116 131 123 116 131 122 115 132 122 115 132 122 114 132 122 114 132 122 115 132 123 116 131 124 117 130 126 119 128 129 118 125 131 116 123 134 113 120 136 111 118 139 109 115 140 107 114 141 106 113 141 106 113 141 107 113 139 108 115 137 110 117 134 113 120 130 116 124 127 119 127 124 116 130 121 114 133 119 112 135 117 110 137 116 109 138 116 109 138 116 110 138 117 110 137 119 112 135 120 113 134 122 115 132 124 116 130 126 118 128 128 119 126 130 116 124 133 114 121 136 111 118 140 107 114 145 103 109 149 99 105 154 94 100 158 90 96 161 87 93 164 85 90 165 84 89 164 85 90 161 87 93 157 91 97 152 96 102 146 102 108 140 107 114 136 111 118 133 114 121 132 114 122 135 112 119 140 108 114 148 100 106 158 91 96 169 80 85 181 69 73 192 58 62 201 49 53 208 43 46 211 41 43 210 41 44 205 46 49 197 54 57 186 64 68 173 76 81 160 89 94 147 101 107 135 112 119 126 118 128 119 112 135 115 108 139 114 107 140 115 108 139 118 111 136 121 114 133 125 118 129 129 118 125 132 115 122 134 113 120 136 111 118 137 110 117 138 109 116 140 107 114 142 105 112 145 102 109 150 98 104 155 93 99 161 87 93 168 81 86 173 76 81 178 71 76 181 69 73 182 68 72 181 69 73 177 72 77 172 77 82 164 84 90 156 92 98 147 101 107 138 109 116 130 116 124 124 116 130 119 112 135 116 109 138 115 108 139 115 109 139 117 110 137 120 113 134 123 116 131 126 119 128 129 118 125 131 116 123 132 114 122 133 114 121 133 114 121 132 115 122 130 116 124 129 118 125 127 119 127 126 118 128 124 117 130 123 116 131 123 116 131 122 115 132 122 115 132 122 115 132 122 115 132 122 115 132 122 115 132 122 114 132 121 114 133 121 114 133 120 113 134 119 112 135 119 112 135 119 112 135 118 111 136 118 111 136 118 111 136 119 112 135 119 112 135 119 112 135 119 112 135 119 112 135 119 112 135 119 112 135 118 111 136 117 111 137 117 110 137 116 109 138 115 108 139 115 108 139 114 107 140 114 107 140 114 107 140 
126 118 128 124 117 130 122 115 132 120 113 134 119 112 135 118 111 136 117 110 137 117 110 137 117 110 137 117 110 137 118 111 136 119 112 135 119 112 135 120 113 134 121 114 133 122 115 132 122 115 132 123 115 131 123 115 131 122 115 132 122 115 132 122 115 132 122 114 132 122 115 132 122 115 132 123 116 131 125 117 129 127 119 127 129 117 125 132 115 122 135 112 119 137 110 117 140 107 114 142 106 112 143 105 111 143 104 111 142 105 112 141 106 113 138 109 116 135 112 119 132 115 122 128 118 126 125 117 129 122 115 132 119 112 135 117 110 137 116 110 138 116 109 138 117 110 137 118 111 136 120 113 134 122 115 132 124 117 130 127 119 127 129 118 125 131 116 123 134 113 120 136 111 118 139 108 115 142 106 112 145 103 109 148 99 106 151 96 103 154 94 100 157 92 97 158 90 96 158 90 96 157 91 97 154 94 100 150 97 104 146 102 108 141 107 113 136 111 118 132 115 122 129 117 125 129 118 125 131 116 123 135 112 119 142 105 112 151 97 103 161 87 93 172 77 82 182 68 72 190 60 64 196 54 58 200 51 54 199 51 55 196 55 58 189 61 65 180 70 74 169 80 85 157 91 97 146 102 108 136 111 118 127 119 127 121 114 133 117 110 137 114 108 140 114 107 140 115 109 139 117 110 137 120 112 134 122 114 132 123 116 131 125 118 129 126 119 128 127 119 127 129 118 125 131 115 123 135 112 119 140 108 114 145 102 109 152 96 102 160 89 94 167 82 87 174 75 80 180 70 74 184 66 70 185 65 69 184 66 70 181 69 73 175 74 79 168 81 86 159 89 95 150 98 104 141 107 113 132 115 122 125 118 129 120 113 134 117 110 137 115 108 139 115 108 139 117 110 137 119 112 135 122 115 132 126 118 128 128 118 126 131 116 123 132 115 122 132 114 122 132 115 122 131 115 123 130 117 124 128 118 126 126 119 128 125 117 129 123 116 131 122 115 132 121 114 133 121 114 133 121 113 133 121 113 133 121 114 133 121 114 133 121 114 133 121 114 133 121 114 133 120 113 134 120 113 134 120 113 134 119 112 135 119 112 135 119 112 135 119 112 135 119 112 135 119 112 135 119 112 135 118 111 136 118 111 136 118 111 136 118 111 136 118 111 136 117 110 137 117 110 137 116 109 138 115 109 139 115 108 139 115 108 139 115 108 139 115 108 139 115 109 139 
126 118 128 124 117 130 122 115 132 121 114 133 119 112 135 118 111 136 117 110 137 117 110 137 117 110 137 117 110 137 117 110 137 118 111 136 119 112 135 120 112 134 120 113 134 121 114 133 122 114 132 122 115 132 122 115 132 122 115 132 122 115 132 122 114 132 122 114 132 122 115 132 122 115 132 124 116 130 125 118 129 127 119 127 129 117 125 132 115 122 135 112 119 138 109 116 140 107 114 142 105 112 144 104 110 144 104 110 143 104 111 142 105 112 140 108 114 137 111 117 133 114 121 129 117 125 126 118 128 122 115 132 120 113 134 118 111 136 117 110 137 117 110 137 118 111 136 119 112 135 122 114 132 124 117 130 127 119 127 129 117 125 132 115 122 134 113 120 136 111 118 138 109 116 140 107 114 142 105 112 144 104 110 146 102 108 147 100 107 149 99 105 150 98 104 150 98 104 150 98 104 148 100 106 146 102 108 142 105 112 139 109 115 134 113 120 130 116 124 127 119 127 125 118 129 125 117 129 126 119 128 130 116 124 136 111 118 144 104 110 152 96 102 161 87 93 170 79 84 178 72 76 183 67 71 186 64 68 187 63 67 184 66 70 179 71 75 172 77 82 163 86 91 153 95 101 144 104 110 135 112 119 128 119 126 122 115 132 118 111 136 115 108 139 114 108 140 114 108 140 115 108 139 116 109 138 117 110 137 118 111 136 119 112 135 119 112 135 121 113 133 122 115 132 125 118 129 129 117 125 135 112 119 141 106 113 149 99 105 157 91 97 165 84 89 172 77 82 178 71 76 183 67 71 185 65 69 184 66 70 181 69 73 176 74 78 168 81 86 160 88 94 151 97 103 142 105 112 134 113 120 127 119 127 121 114 133 118 111 136 116 109 138 116 109 138 117 110 137 119 112 135 122 115 132 125 118 129 128 119 126 130 117 124 131 116 123 132 115 122 131 115 123 131 116 123 129 118 125 127 119 127 126 118 128 124 116 130 122 115 132 121 114 133 120 113 134 119 112 135 119 112 135 119 112 135 119 112 135 120 113 134 120 113 134 120 113 134 120 113 134 120 113 134 120 113 134 120 113 134 120 113 134 120 113 134 119 112 135 119 112 135 119 112 135 119 112 135 118 111 136 118 111 136 118 111 136 118 111 136 117 110 137 117 110 137 117 110 137 116 109 138 116 109 138 116 109 138 115 109 139 115 109 139 116 109 138 116 109 138 117 110 137 
126 118 128 124 117 130 123 116 131 121 114 133 120 113 134 119 112 135 118 111 136 117 110 137 117 110 137 117 110 137 117 110 137 117 110 137 118 111 136 119 112 135 120 112 134 120 113 134 121 114 133 121 114 133 121 114 133 121 114 133 121 114 133 121 114 133 122 114 132 122 115 132 123 115 131 124 116 130 125 118 129 127 119 127 129 117 125 132 115 122 135 112 119 138 110 116 140 107 114 142 105 112 143 104 111 144 104 110 144 104 110 142 105 112 140 107 114 137 110 117 134 113 120 130 117 124 126 119 128 123 116 131 120 113 134 119 112 135 118 111 136 118 111 136 119 112 135 121 114 133 123 116 131 126 119 128 129 118 125 132 115 122 134 113 120 137 111 117 138 109 116 140 108 114 141 107 113 141 106 113 142 105 112 142 105 112 142 105 112 143 105 111 142 105 112 142 106 112 141 107 113 139 108 115 137 110 117 134 113 120 131 116 123 128 119 126 125 118 129 122 115 132 121 114 133 121 114 133 122 115 132 125 118 129 130 116 124 136 111 118 143 104 111 151 97 103 158 90 96 164 84 90 169 80 85 172 77 82 173 76 81 171 78 83 168 81 86 162 86 92 155 93 99 148 100 106 140 107 114 133 113 121 127 119 127 122 115 132 119 112 135 117 110 137 115 108 139 115 108 139 115 108 139 115 108 139 115 108 139 115 108 139 115 109 139 116 109 138 117 110 137 118 111 136 121 114 133 125 118 129 130 116 124 137 110 117 145 103 109 153 95 101 161 88 93 168 81 86 174 75 80 178 71 76 181 69 73 180 69 74 178 72 76 173 76 81 167 82 87 159 89 95 151 97 103 142 105 112 134 113 120 128 119 126 122 115 132 119 112 135 117 110 137 116 110 138 117 110 137 119 112 135 122 114 132 124 117 130 127 119 127 128 118 126 130 117 124 130 116 124 130 117 124 129 117 125 128 119 126 126 119 128 125 117 129 123 116 131 121 114 133 120 113 134 119 112 135 119 112 135 118 111 136 118 111 136 118 111 136 119 112 135 119 112 135 120 112 134 120 113 134 120 113 134 120 113 134 120 113 134 120 113 134 120 113 134 120 113 134 119 112 135 119 112 135 119 112 135 119 112 135 118 111 136 118 111 136 117 111 137 117 110 137 117 110 137 116 110 138 116 109 138 116 109 138 116 109 138 116 109 138 117 110 137 117 110 137 118 111 136 119 112 135 
126 118 128 125 117 129 123 116 131 122 115 132 120 113 134 119 112 135 118 111 136 117 110 137 117 110 137 117 110 137 117 110 137 117 110 137 118 111 136 118 111 136 119 112 135 119 112 135 120 113 134 121 113 133 121 114 133 121 114 133 121 114 133 121 114 133 121 114 133 122 115 132 122 115 132 123 116 131 125 117 129 127 119 127 129 118 125 131 115 123 134 113 120 137 110 117 139 108 115 141 106 113 142 105 112 143 104 111 143 105 111 142 106 112 140 108 114 137 110 117 134 113 120 130 116 124 127 119 127 124 116 130 121 114 133 119 112 135 119 112 135 119 112 135 120 113 134 122 115 132 125 117 129 128 119 126 131 116 123 134 113 120 136 111 118 138 109 116 140 108 114 140 107 114 140 107 114 140 107 114 139 108 115 138 109 116 137 110 117 136 111 118 135 112 119 134 113 120 132 115 122 130 116 124 129 118 125 127 119 127 124 117 130 122 115 132 120 113 134 119 112 135 118 111 136 118 111 136 119 112 135 121 114 133 125 118 129 130 117 124 135 112 119 141 106 113 147 101 107 152 96 102 156 92 98 158 90 96 159 89 95 159 90 95 156 92 98 152 96 102 147 100 107 142 105 112 136 111 118 131 116 123 127 119 127 123 116 131 120 113 134 118 111 136 117 110 137 116 109 138 116 109 138 115 109 139 115 108 139 115 108 139 115 108 139 115 108 139 115 108 139 117 110 137 119 112 135 123 115 131 127 119 127 133 113 121 140 107 114 148 100 106 155 93 99 162 87 92 168 81 86 172 77 82 174 75 80 174 75 80 172 77 82 168 81 86 163 86 91 156 92 98 149 99 105 141 106 113 134 113 120 128 118 126 123 116 131 120 113 134 118 111 136 117 110 137 118 111 136 119 112 135 121 114 133 123 116 131 125 118 129 127 119 127 128 118 126 129 118 125 128 118 126 128 119 126 127 119 127 125 118 129 124 116 130 122 115 132 121 113 133 119 112 135 118 111 136 118 111 136 118 111 136 118 111 136 118 111 136 118 111 136 119 112 135 119 112 135 120 113 134 120 113 134 120 113 134 120 113 134 120 113 134 120 113 134 120 113 134 120 113 134 119 112 135 119 112 135 119 112 135 118 111 136 118 111 136 118 111 136 117 110 137 117 110 137 117 110 137 117 110 137 117 110 137 117 110 137 117 110 137 118 111 136 119 112 135 119 112 135 120 113 134 
126 118 128 125 117 129 124 116 130 122 115 132 121 114 133 120 113 134 119 112 135 118 111 136 117 110 137 117 110 137 117 110 137 117 110 137 117 110 137 118 111 136 118 111 136 119 112 135 119 112 135 120 113 134 120 113 134 121 113 133 121 114 133 121 114 133 121 114 133 122 114 132 122 115 132 123 116 131 124 117 130 126 118 128 128 119 126 130 117 124 133 114 121 135 112 119 137 110 117 139 108 115 141 107 113 141 106 113 141 106 113 140 107 114 139 109 115 136 111 118 133 113 121 130 116 124 127 119 127 124 117 130 122 115 132 120 113 134 120 113 134 120 113 134 122 114 132 124 116 130 126 119 128 129 117 125 132 114 122 135 112 119 138 109 116 139 108 115 140 107 114 140 107 114 140 108 114 138 109 116 137 110 117 135 112 119 132 114 122 130 116 124 128 118 126 126 119 128 125 117 129 123 116 131 122 115 132 120 113 134 119 112 135 118 111 136 116 110 138 116 109 138 115 108 139 115 109 139 116 109 138 118 111 136 121 113 133 124 117 130 128 119 126 132 115 122 136 111 118 140 107 114 144 104 110 146 102 108 147 101 107 147 101 107 145 102 109 143 105 111 140 108 114 136 111 118 132 115 122 129 118 125 125 118 129 123 116 131 121 114 133 119 112 135 119 112 135 118 111 136 118 111 136 117 110 137 117 110 137 116 109 138 116 109 138 116 109 138 116 109 138 117 110 137 119 112 135 121 114 133 125 118 129 130 116 124 136 111 118 142 105 112 149 99 105 155 93 99 160 89 94 164 85 90 166 83 88 166 83 88 165 84 89 162 87 92 157 91 97 152 96 102 146 102 108 139 108 115 133 114 121 128 119 126 124 116 130 121 114 133 119 112 135 118 111 136 118 111 136 119 112 135 121 114 133 122 115 132 124 117 130 125 118 129 126 119 128 127 119 127 127 119 127 126 119 128 125 118 129 124 117 130 123 115 131 121 114 133 120 113 134 119 112 135 118 111 136 118 111 136 117 110 137 117 110 137 118 111 136 118 111 136 118 111 136 119 112 135 119 112 135 120 113 134 120 113 134 120 113 134 120 113 134 120 113 134 120 113 134 120 113 134 120 113 134 119 112 135 119 112 135 118 111 136 118 111 136 118 111 136 117 111 137 117 110 137 117 110 137 117 110 137 118 111 136 118 111 136 119 112 135 119 112 135 120 113 134 121 114 133 122 115 132 
126 118 128 125 118 129 124 117 130 123 116 131 122 115 132 121 113 133 119 112 135 119 112 135 118 111 136 117 110 137 117 110 137 117 110 137 117 110 137 117 110 137 118 111 136 118 111 136 119 112 135 119 112 135 120 113 134 120 113 134 120 113 134 121 114 133 121 114 133 121 114 133 122 115 132 123 115 131 124 116 130 125 118 129 127 119 127 129 118 125 131 116 123 133 114 121 135 112 119 137 110 117 138 109 116 139 108 115 139 108 115 138 109 116 137 110 117 135 112 119 133 114 121 130 117 124 127 119 127 125 117 129 123 116 131 122 114 132 121 114 133 122 114 132 123 116 131 125 118 129 128 119 126 131 116 123 133 113 121 136 111 118 138 109 116 140 108 114 140 107 114 140 108 114 138 109 116 137 111 117 134 113 120 131 115 123 128 118 126 126 118 128 123 116 131 121 114 133 119 112 135 118 111 136 117 110 137 116 109 138 115 109 139 115 108 139 114 108 140 114 107 140 114 107 140 114 107 140 115 108 139 116 109 138 118 111 136 120 113 134 122 115 132 125 118 129 128 119 126 131 116 123 133 114 121 135 112 119 136 111 118 136 111 118 136 111 118 134 113 120 132 114 122 130 116 124 128 118 126 126 119 128 124 117 130 123 115 131 122 114 132 121 114 133 120 113 134 120 113 134 120 113 134 120 113 134 119 112 135 119 112 135 118 111 136 118 111 136 118 111 136 118 111 136 119 112 135 121 114 133 124 117 130 128 119 126 132 114 122 137 110 117 142 105 112 147 101 107 151 97 103 155 94 99 157 92 97 157 91 97 156 92 98 154 94 100 151 97 103 146 101 108 141 106 113 136 111 118 132 115 122 127 119 127 124 116 130 121 114 133 119 112 135 119 112 135 119 112 135 119 112 135 120 113 134 121 114 133 123 115 131 124 116 130 124 117 130 125 117 129 125 117 129 124 117 130 124 116 130 123 115 131 121 114 133 120 113 134 119 112 135 118 111 136 118 111 136 117 110 137 117 110 137 117 110 137 118 111 136 118 111 136 118 111 136 119 112 135 119 112 135 120 113 134 120 113 134 120 113 134 120 113 134 120 113 134 120 113 134 120 113 134 120 113 134 119 112 135 119 112 135 119 112 135 118 111 136 118 111 136 118 111 136 118 111 136 118 111 136 118 111 136 119 112 135 119 112 135 120 113 134 121 113 133 121 114 133 122 115 132 123 116 131 
126 118 128 125 118 129 124 117 130 123 116 131 122 115 132 121 114 133 120 113 134 119 112 135 118 111 136 118 111 136 117 110 137 117 110 137 117 110 137 117 110 137 117 110 137 118 111 136 118 111 136 119 112 135 119 112 135 120 113 134 120 113 134 120 113 134 121 113 133 121 114 133 121 114 133 122 115 132 123 116 131 124 117 130 125 118 129 127 119 127 129 118 125 130 116 124 132 115 122 134 113 120 135 112 119 136 111 118 136 111 118 136 111 118 135 112 119 134 113 120 132 115 122 130 117 124 127 119 127 125 118 129 124 116 130 123 115 131 122 115 132 123 115 131 124 117 130 126 118 128 128 118 126 131 116 123 134 113 120 136 111 118 138 109 116 139 108 115 139 108 115 139 109 115 137 110 117 135 112 119 132 115 122 129 118 125 126 118 128 123 115 131 120 113 134 118 111 136 116 109 138 115 108 139 114 107 140 114 107 140 114 107 140 114 107 140 114 107 140 114 107 140 114 107 140 114 107 140 114 108 140 115 108 139 116 109 138 117 110 137 118 111 136 120 113 134 122 114 132 123 116 131 125 118 129 126 119 128 127 119 127 128 119 126 128 119 126 127 119 127 126 119 128 125 118 129 124 117 130 124 116 130 123 116 131 122 115 132 122 115 132 122 115 132 122 115 132 122 115 132 122 115 132 122 115 132 122 115 132 122 114 132 121 114 133 121 113 133 120 113 134 120 113 134 121 113 133 122 114 132 123 116 131 126 118 128 129 118 125 132 114 122 136 111 118 140 108 114 143 105 111 145 102 109 147 101 107 148 100 106 147 101 107 146 102 108 143 104 111 140 107 114 137 110 117 133 114 121 129 117 125 126 119 128 123 116 131 121 114 133 120 113 134 119 112 135 119 112 135 119 112 135 120 113 134 121 113 133 121 114 133 122 115 132 123 115 131 123 116 131 123 116 131 123 115 131 122 115 132 121 114 133 120 113 134 120 113 134 119 112 135 118 111 136 118 111 136 117 111 137 117 110 137 117 110 137 118 111 136 118 111 136 118 111 136 119 112 135 119 112 135 120 113 134 120 113 134 120 113 134 120 113 134 120 113 134 120 113 134 120 113 134 120 113 134 119 112 135 119 112 135 119 112 135 118 111 136 118 111 136 118 111 136 118 111 136 118 111 136 119 112 135 119 112 135 120 113 134 121 114 133 122 114 132 123 115 131 123 116 131 124 117 130 
125 118 129 125 118 129 124 117 130 124 116 130 123 115 131 122 115 132 121 114 133 120 113 134 119 112 135 118 111 136 118 111 136 117 110 137 117 110 137 117 110 137 117 110 137 118 111 136 118 111 136 118 111 136 119 112 135 119 112 135 120 113 134 120 113 134 120 113 134 121 113 133 121 114 133 121 114 133 122 115 132 123 115 131 124 116 130 125 118 129 126 119 128 128 119 126 129 117 125 131 116 123 132 115 122 133 114 121 133 113 121 133 113 121 133 114 121 132 115 122 131 116 123 129 118 125 127 119 127 126 118 128 124 117 130 123 116 131 123 116 131 124 116 130 125 117 129 127 119 127 129 118 125 131 116 123 133 114 121 135 112 119 137 110 117 138 109 116 138 109 116 137 110 117 136 111 118 133 114 121 130 116 124 127 119 127 124 117 130 121 114 133 119 112 135 117 110 137 115 108 139 114 107 140 114 107 140 114 107 140 114 107 140 114 107 140 115 108 139 115 108 139 115 108 139 115 108 139 115 108 139 115 108 139 115 109 139 116 109 138 116 109 138 117 110 137 117 110 137 118 111 136 119 112 135 120 113 134 121 114 133 121 114 133 122 114 132 122 115 132 122 115 132 122 114 132 121 114 133 121 114 133 121 114 133 122 115 132 122 115 132 123 115 131 123 116 131 124 117 130 124 117 130 125 117 129 125 117 129 124 117 130 124 117 130 123 116 131 123 116 131 122 115 132 122 115 132 122 115 132 123 116 131 124 117 130 126 119 128 128 118 126 130 116 124 133 114 121 135 112 119 137 110 117 138 109 116 139 109 115 139 109 115 138 109 116 136 111 118 134 113 120 132 115 122 129 117 125 127 119 127 124 117 130 122 115 132 121 114 133 120 112 134 119 112 135 119 112 135 119 112 135 119 112 135 120 113 134 120 113 134 121 114 133 121 114 133 121 114 133 121 114 133 121 114 133 121 114 133 120 113 134 120 113 134 119 112 135 119 112 135 118 111 136 118 111 136 118 111 136 118 111 136 118 111 136 118 111 136 118 111 136 118 111 136 119 112 135 119 112 135 120 113 134 120 113 134 120 113 134 120 113 134 120 113 134 120 113 134 120 113 134 120 112 134 119 112 135 119 112 135 119 112 135 119 112 135 118 111 136 118 111 136 119 112 135 119 112 135 119 112 135 120 113 134 121 114 133 121 114 133 122 115 132 123 116 131 124 117 130 125 117 129 
125 118 129 125 117 129 124 117 130 124 116 130 123 116 131 122 115 132 121 114 133 120 113 134 120 112 134 119 112 135 118 111 136 118 111 136 117 110 137 117 110 137 117 110 137 117 110 137 118 111 136 118 111 136 119 112 135 119 112 135 119 112 135 120 113 134 120 113 134 120 113 134 120 113 134 121 114 133 121 114 133 121 114 133 122 115 132 123 116 131 124 117 130 125 118 129 126 119 128 128 119 126 129 118 125 130 117 124 130 116 124 131 116 123 130 116 124 130 117 124 129 118 125 128 119 126 127 119 127 126 118 128 125 117 129 124 117 130 124 117 130 124 117 130 125 118 129 127 119 127 128 118 126 130 116 124 132 115 122 134 113 120 135 112 119 136 111 118 136 111 118 135 112 119 134 113 120 132 115 122 129 117 125 127 119 127 124 117 130 121 114 133 119 112 135 117 110 137 116 109 138 115 108 139 115 108 139 115 108 139 116 109 138 116 109 138 117 110 137 117 110 137 117 110 137 117 110 137 117 110 137 116 110 138 116 109 138 116 109 138 115 108 139 115 108 139 115 108 139 115 109 139 116 109 138 116 109 138 117 110 137 117 110 137 118 111 136 118 111 136 118 111 136 119 112 135 119 112 135 120 113 134 120 113 134 121 114 133 122 115 132 123 116 131 124 117 130 125 117 129 126 118 128 126 119 128 126 119 128 126 119 128 126 119 128 126 118 128 125 118 129 124 117 130 124 116 130 123 116 131 123 116 131 123 116 131 124 116 130 125 117 129 126 118 128 127 119 127 128 118 126 129 117 125 130 116 124 131 116 123 131 116 123 131 116 123 130 117 124 129 118 125 127 119 127 126 118 128 124 117 130 123 115 131 121 114 133 120 113 134 119 112 135 119 112 135 118 111 136 118 111 136 119 112 135 119 112 135 119 112 135 119 112 135 120 113 134 120 113 134 120 113 134 120 113 134 120 112 134 119 112 135 119 112 135 119 112 135 118 111 136 118 111 136 118 111 136 118 111 136 118 111 136 118 111 136 118 111 136 118 111 136 119 112 135 119 112 135 119 112 135 119 112 135 120 113 134 120 113 134 120 113 134 120 113 134 120 113 134 120 112 134 119 112 135 119 112 135 119 112 135 119 112 135 119 112 135 119 112 135 119 112 135 119 112 135 119 112 135 120 113 134 120 113 134 121 114 133 122 115 132 123 115 131 123 116 131 124 117 130 125 118 129 
124 117 130 124 117 130 124 117 130 124 117 130 123 116 131 123 115 131 122 115 132 121 114 133 120 113 134 119 112 135 119 112 135 118 111 136 118 111 136 117 110 137 117 110 137 117 110 137 118 111 136 118 111 136 118 111 136 119 112 135 119 112 135 119 112 135 120 113 134 120 113 134 120 113 134 120 113 134 120 113 134 120 113 134 121 114 133 121 114 133 122 115 132 123 115 131 124 116 130 125 117 129 126 118 128 127 119 127 127 119 127 128 119 126 128 119 126 128 119 126 128 119 126 127 119 127 126 119 128 126 118 128 125 118 129 125 117 129 124 117 130 125 117 129 125 118 129 126 119 128 128 119 126 129 118 125 131 116 123 132 115 122 133 114 121 134 113 120 134 113 120 133 114 121 132 114 122 131 116 123 129 118 125 127 119 127 125 117 129 122 115 132 121 114 133 119 112 135 118 111 136 118 111 136 118 111 136 118 111 136 118 111 136 119 112 135 119 112 135 120 113 134 120 113 134 119 112 135 119 112 135 118 111 136 118 111 136 117 110 137 116 109 138 115 108 139 115 108 139 114 108 140 114 107 140 114 108 140 115 108 139 115 108 139 115 108 139 116 109 138 116 109 138 117 110 137 117 111 137 118 111 136 119 112 135 120 113 134 121 114 133 123 115 131 124 117 130 125 118 129 126 119 128 127 119 127 127 119 127 128 119 126 128 119 126 127 119 127 126 119 128 125 118 129 125 117 129 124 116 130 123 116 131 122 115 132 122 115 132 122 115 132 122 115 132 122 115 132 123 116 131 123 116 131 124 117 130 124 117 130 125 117 129 125 117 129 124 117 130 124 117 130 123 116 131 122 115 132 122 114 132 121 114 133 120 113 134 119 112 135 119 112 135 118 111 136 118 111 136 118 111 136 118 111 136 118 111 136 118 111 136 119 112 135 119 112 135 119 112 135 119 112 135 119 112 135 119 112 135 119 112 135 118 111 136 118 111 136 118 111 136 118 111 136 118 111 136 118 111 136 118 111 136 118 111 136 118 111 136 118 111 136 119 112 135 119 112 135 119 112 135 119 112 135 119 112 135 119 112 135 119 112 135 119 112 135 119 112 135 119 112 135 119 112 135 119 112 135 119 112 135 118 111 136 118 111 136 118 111 136 119 112 135 119 112 135 119 112 135 120 113 134 120 113 134 121 114 133 122 115 132 123 115 131 123 116 131 124 117 130 125 117 129 
124 117 130 124 117 130 124 117 130 124 117 130 123 116 131 123 116 131 122 115 132 121 114 133 121 114 133 120 113 134 119 112 135 118 111 136 118 111 136 118 111 136 117 110 137 117 110 137 117 111 137 118 111 136 118 111 136 118 111 136 119 112 135 119 112 135 119 112 135 119 112 135 120 112 134 120 112 134 120 112 134 120 112 134 120 113 134 120 113 134 120 113 134 121 113 133 121 114 133 122 115 132 123 116 131 124 116 130 124 117 130 125 118 129 126 118 128 126 119 128 126 119 128 126 119 128 126 118 128 125 118 129 125 118 129 125 117 129 125 117 129 125 117 129 125 118 129 126 118 128 126 119 128 127 119 127 129 118 125 130 117 124 131 116 123 131 116 123 131 115 123 131 115 123 131 116 123 130 117 124 129 118 125 127 119 127 126 118 128 124 117 130 123 116 131 122 115 132 121 114 133 121 114 133 121 114 133 121 114 133 122 115 132 122 115 132 122 115 132 123 115 131 122 115 132 122 115 132 121 114 133 121 113 133 120 112 134 118 111 136 117 110 137 116 110 138 116 109 138 115 108 139 114 108 140 114 107 140 114 107 140 114 107 140 114 108 140 115 108 139 115 108 139 116 109 138 116 110 138 117 110 137 118 111 136 119 112 135 121 113 133 122 115 132 123 116 131 125 117 129 126 118 128 127 119 127 127 119 127 128 119 126 128 119 126 127 119 127 127 119 127 126 118 128 125 117 129 124 116 130 123 115 131 121 114 133 121 113 133 120 113 134 119 112 135 119 112 135 119 112 135 119 112 135 120 112 134 120 113 134 120 113 134 120 113 134 120 113 134 120 113 134 120 113 134 120 113 134 120 113 134 119 112 135 119 112 135 119 112 135 118 111 136 118 111 136 118 111 136 118 111 136 118 111 136 118 111 136 118 111 136 118 111 136 118 111 136 118 111 136 118 111 136 118 111 136 118 111 136 118 111 136 118 111 136 118 111 136 118 111 136 118 111 136 118 111 136 118 111 136 118 111 136 118 111 136 118 111 136 119 112 135 119 112 135 119 112 135 119 112 135 119 112 135 119 112 135 119 112 135 119 112 135 119 112 135 119 112 135 119 112 135 119 112 135 118 111 136 118 111 136 118 111 136 118 111 136 118 111 136 119 112 135 119 112 135 119 112 135 120 113 134 120 113 134 121 114 133 122 114 132 122 115 132 123 116 131 123 116 131 124 117 130 
123 116 131 124 116 130 124 116 130 124 116 130 123 116 131 123 116 131 123 115 131 122 115 132 121 114 133 120 113 134 120 113 134 119 112 135 118 111 136 118 111 136 118 111 136 117 110 137 117 111 137 118 111 136 118 111 136 118 111 136 119 112 135 119 112 135 119 112 135 119 112 135 119 112 135 119 112 135 119 112 135 119 112 135 119 112 135 119 112 135 119 112 135 119 112 135 119 112 135 120 113 134 120 113 134 121 114 133 122 115 132 123 115 131 123 116 131 124 117 130 125 117 129 125 117 129 125 118 129 125 118 129 125 117 129 125 117 129 124 117 130 124 117 130 124 117 130 125 117 129 125 118 129 126 118 128 126 119 128 127 119 127 128 119 126 128 118 126 129 118 125 129 117 125 129 117 125 129 118 125 128 118 126 128 119 126 127 119 127 126 119 128 126 118 128 125 118 129 125 118 129 125 117 129 125 117 129 125 118 129 125 118 129 125 118 129 125 118 129 125 118 129 125 118 129 124 117 130 124 116 130 123 116 131 122 115 132 121 113 133 119 112 135 118 111 136 117 110 137 116 110 138 116 109 138 115 108 139 115 108 139 115 108 139 115 108 139 115 108 139 115 108 139 115 109 139 116 109 138 117 110 137 118 111 136 119 112 135 120 113 134 121 114 133 122 115 132 123 116 131 125 117 129 126 118 128 126 119 128 127 119 127 127 119 127 127 119 127 126 119 128 126 118 128 125 117 129 123 116 131 122 115 132 121 114 133 120 113 134 119 112 135 118 111 136 117 111 137 117 110 137 117 110 137 117 110 137 117 110 137 117 110 137 117 111 137 118 111 136 118 111 136 118 111 136 118 111 136 118 111 136 118 111 136 118 111 136 118 111 136 118 111 136 118 111 136 118 111 136 118 111 136 118 111 136 118 111 136 118 111 136 118 111 136 118 111 136 118 111 136 118 111 136 118 111 136 118 111 136 118 111 136 118 111 136 118 111 136 118 111 136 118 111 136 118 111 136 118 111 136 118 111 136 118 111 136 118 111 136 119 112 135 119 112 135 119 112 135 119 112 135 119 112 135 119 112 135 119 112 135 119 112 135 119 112 135 119 112 135 118 111 136 118 111 136 118 111 136 118 111 136 118 111 136 118 111 136 118 111 136 118 111 136 119 112 135 119 112 135 119 112 135 120 113 134 121 113 133 121 114 133 122 114 132 122 115 132 123 115 131 123 116 131 
123 115 131 123 116 131 123 116 131 123 116 131 123 116 131 123 116 131 123 115 131 122 115 132 122 114 132 121 114 133 120 113 134 119 112 135 119 112 135 118 111 136 118 111 136 118 111 136 118 111 136 118 111 136 118 111 136 118 111 136 118 111 136 119 112 135 119 112 135 119 112 135 119 112 135 119 112 135 119 112 135 119 112 135 118 111 136 118 111 136 118 111 136 118 111 136 118 111 136 118 111 136 119 112 135 119 112 135 120 113 134 121 114 133 122 114 132 122 115 132 123 116 131 124 116 130 124 117 130 124 117 130 124 117 130 124 117 130 124 117 130 124 116 130 123 116 131 123 116 131 123 116 131 124 116 130 124 117 130 125 117 129 125 118 129 126 118 128 126 119 128 127 119 127 128 119 126 128 119 126 128 118 126 128 118 126 128 118 126 128 118 126 128 118 126 128 118 126 128 118 126 128 118 126 128 118 126 128 118 126 128 118 126 128 119 126 128 119 126 128 119 126 127 119 127 127 119 127 126 118 128 125 117 129 124 116 130 123 115 131 122 114 132 120 113 134 119 112 135 118 111 136 118 111 136 117 110 137 116 110 138 116 109 138 116 109 138 116 109 138 116 109 138 116 109 138 116 109 138 116 110 138 117 110 137 118 111 136 119 112 135 120 113 134 121 114 133 122 115 132 123 116 131 124 117 130 125 117 129 125 118 129 125 118 129 125 118 129 125 118 129 124 117 130 124 116 130 123 115 131 121 114 133 120 113 134 119 112 135 118 111 136 118 111 136 117 110 137 116 109 138 116 109 138 116 109 138 116 109 138 116 109 138 116 109 138 117 110 137 117 110 137 117 110 137 117 110 137 117 110 137 117 111 137 118 111 136 118 111 136 118 111 136 118 111 136 118 111 136 118 111 136 117 111 137 117 111 137 117 111 137 117 111 137 117 111 137 118 111 136 118 111 136 118 111 136 118 111 136 118 111 136 118 111 136 118 111 136 118 111 136 118 111 136 118 111 136 118 111 136 118 111 136 118 111 136 118 111 136 119 112 135 119 112 135 119 112 135 119 112 135 119 112 135 119 112 135 119 112 135 119 112 135 118 111 136 118 111 136 118 111 136 118 111 136 118 111 136 118 111 136 118 111 136 118 111 136 118 111 136 118 111 136 118 111 136 119 112 135 119 112 135 120 112 134 120 113 134 120 113 134 121 114 133 121 114 133 121 114 133 122 114 132 
122 115 132 122 115 132 123 115 131 123 116 131 123 116 131 123 116 131 123 116 131 122 115 132 122 115 132 121 114 133 120 113 134 120 113 134 119 112 135 119 112 135 118 111 136 118 111 136 118 111 136 118 111 136 118 111 136 118 111 136 118 111 136 119 112 135 119 112 135 119 112 135 119 112 135 119 112 135 119 112 135 119 112 135 118 111 136 118 111 136 117 110 137 117 110 137 117 110 137 117 110 137 117 110 137 118 111 136 118 111 136 119 112 135 120 113 134 121 114 133 122 115 132 123 115 131 123 116 131 123 116 131 124 116 130 123 116 131 123 116 131 123 116 131 122 115 132 122 115 132 122 115 132 122 115 132 122 115 132 122 115 132 123 115 131 123 116 131 124 117 130 125 118 129 126 119 128 127 119 127 128 119 126 129 118 125 129 117 125 130 117 124 130 116 124 130 116 124 131 116 123 131 116 123 131 116 123 130 116 124 130 116 124 130 117 124 130 117 124 129 117 125 129 118 125 128 119 126 127 119 127 126 119 128 125 118 129 125 117 129 124 116 130 123 115 131 122 114 132 121 113 133 120 113 134 119 112 135 118 111 136 118 111 136 117 110 137 117 110 137 116 109 138 116 109 138 116 109 138 116 110 138 117 110 137 117 110 137 118 111 136 119 112 135 120 112 134 120 113 134 121 114 133 122 115 132 123 115 131 123 116 131 123 116 131 123 116 131 123 116 131 123 116 131 122 115 132 122 114 132 121 114 133 120 113 134 119 112 135 118 111 136 118 111 136 117 110 137 117 110 137 117 110 137 116 109 138 116 109 138 116 109 138 116 110 138 117 110 137 117 110 137 117 110 137 117 110 137 117 110 137 117 110 137 117 110 137 117 110 137 117 111 137 117 111 137 117 111 137 118 111 136 118 111 136 118 111 136 118 111 136 118 111 136 118 111 136 118 111 136 118 111 136 118 111 136 118 111 136 118 111 136 118 111 136 118 111 136 118 111 136 118 111 136 118 111 136 118 111 136 118 111 136 118 111 136 118 111 136 118 111 136 118 111 136 118 111 136 119 112 135 119 112 135 118 111 136 118 111 136 118 111 136 118 111 136 118 111 136 118 111 136 118 111 136 118 111 136 118 111 136 118 111 136 118 111 136 118 111 136 118 111 136 118 111 136 118 111 136 119 112 135 119 112 135 119 112 135 120 113 134 120 113 134 120 113 134 120 113 134 120 113 134 
121 114 133 122 115 132 122 115 132 123 115 131 123 115 131 123 116 131 123 115 131 122 115 132 122 115 132 121 114 133 121 114 133 120 113 134 119 112 135 119 112 135 118 111 136 118 111 136 118 111 136 118 111 136 118 111 136 118 111 136 118 111 136 119 112 135 119 112 135 119 112 135 119 112 135 119 112 135 119 112 135 119 112 135 118 111 136 118 111 136 118 111 136 117 110 137 117 110 137 117 110 137 117 110 137 117 110 137 118 111 136 118 111 136 119 112 135 120 113 134 121 114 133 121 114 133 122 115 132 122 115 132 123 115 131 123 115 131 122 115 132 122 115 132 121 114 133 121 114 133 120 113 134 120 113 134 120 113 134 120 113 134 121 114 133 121 114 133 122 115 132 123 116 131 125 117 129 126 119 128 127 119 127 129 118 125 130 117 124 131 116 123 131 115 123 132 115 122 132 115 122 132 115 122 132 115 122 132 115 122 131 115 123 131 116 123 130 116 124 130 117 124 129 117 125 129 118 125 128 119 126 127 119 127 127 119 127 126 118 128 125 118 129 124 117 130 123 116 131 122 115 132 122 114 132 121 114 133 120 113 134 119 112 135 118 111 136 118 111 136 117 110 137 117 110 137 117 110 137 117 110 137 117 110 137 117 110 137 117 110 137 118 111 136 118 111 136 119 112 135 120 112 134 120 113 134 120 113 134 121 114 133 121 114 133 121 114 133 121 114 133 121 114 133 121 114 133 120 113 134 120 113 134 120 112 134 119 112 135 119 112 135 118 111 136 118 111 136 118 111 136 118 111 136 118 111 136 118 111 136 118 111 136 117 111 137 117 110 137 117 110 137 117 110 137 117 110 137 117 110 137 117 110 137 117 110 137 117 111 137 117 111 137 118 111 136 118 111 136 118 111 136 118 111 136 118 111 136 118 111 136 118 111 136 118 111 136 118 111 136 118 111 136 118 111 136 118 111 136 118 111 136 118 111 136 118 111 136 118 111 136 118 111 136 118 111 136 118 111 136 118 111 136 118 111 136 118 111 136 118 111 136 118 111 136 118 111 136 118 111 136 118 111 136 118 111 136 118 111 136 118 111 136 118 111 136 118 111 136 118 111 136 118 111 136 118 111 136 118 111 136 118 111 136 118 111 136 118 111 136 118 111 136 118 111 136 118 111 136 118 111 136 119 112 135 119 112 135 119 112 135 119 112 135 119 112 135 119 112 135 119 112 135 
121 113 133 121 114 133 122 114 132 122 115 132 122 115 132 122 115 132 123 115 131 122 115 132 122 115 132 122 114 132 121 114 133 120 113 134 120 113 134 119 112 135 119 112 135 118 111 136 118 111 136 118 111 136 118 111 136 118 111 136 118 111 136 119 112 135 119 112 135 119 112 135 120 113 134 120 113 134 120 113 134 119 112 135 119 112 135 119 112 135 118 111 136 118 111 136 117 110 137 117 110 137 117 110 137 117 110 137 117 110 137 118 111 136 118 111 136 119 112 135 120 113 134 120 113 134 121 114 133 121 114 133 122 114 132 122 114 132 121 114 133 121 114 133 120 113 134 120 113 134 119 112 135 119 112 135 119 112 135 119 112 135 119 112 135 120 113 134 121 114 133 122 115 132 123 116 131 125 118 129 126 119 128 128 119 126 129 117 125 130 116 124 131 115 123 132 115 122 132 114 122 132 114 122 132 115 122 132 115 122 131 115 123 131 116 123 130 116 124 130 117 124 129 117 125 129 118 125 128 118 126 128 119 126 127 119 127 127 119 127 126 119 128 125 118 129 125 117 129 124 117 130 123 116 131 122 115 132 121 114 133 120 113 134 120 112 134 119 112 135 118 111 136 118 111 136 117 110 137 117 110 137 117 110 137 117 110 137 117 110 137 117 110 137 118 111 136 118 111 136 118 111 136 118 111 136 119 112 135 119 112 135 119 112 135 119 112 135 119 112 135 119 112 135 119 112 135 119 112 135 119 112 135 119 112 135 119 112 135 119 112 135 120 112 134 120 113 134 120 113 134 120 113 134 120 113 134 119 112 135 119 112 135 119 112 135 119 112 135 119 112 135 118 111 136 118 111 136 118 111 136 118 111 136 118 111 136 118 111 136 118 111 136 118 111 136 118 111 136 118 111 136 118 111 136 118 111 136 118 111 136 118 111 136 118 111 136 118 111 136 118 111 136 118 111 136 118 111 136 118 111 136 118 111 136 118 111 136 118 111 136 118 111 136 118 111 136 118 111 136 118 111 136 118 111 136 118 111 136 118 111 136 118 111 136 118 111 136 118 111 136 118 111 136 118 111 136 118 111 136 118 111 136 118 111 136 118 111 136 118 111 136 118 111 136 118 111 136 118 111 136 118 111 136 118 111 136 118 111 136 118 111 136 118 111 136 118 111 136 118 111 136 118 111 136 118 111 136 118 111 136 118 111 136 119 112 135 119 112 135 119 112 135 
120 113 134 120 113 134 121 114 133 121 114 133 122 115 132 122 115 132 122 115 132 122 115 132 122 115 132 122 114 132 121 114 133 121 113 133 120 113 134 119 112 135 119 112 135 118 111 136 118 111 136 118 111 136 118 111 136 118 111 136 119 112 135 119 112 135 119 112 135 120 113 134 120 113 134 120 113 134 120 113 134 120 113 134 120 113 134 119 112 135 119 112 135 118 111 136 118 111 136 117 111 137 117 110 137 117 110 137 117 110 137 117 110 137 118 111 136 118 111 136 119 112 135 120 112 134 120 113 134 120 113 134 121 114 133 121 114 133 121 113 133 120 113 134 120 113 134 119 112 135 118 111 136 118 111 136 118 111 136 118 111 136 118 111 136 119 112 135 120 112 134 121 114 133 122 115 132 124 116 130 125 118 129 127 119 127 128 118 126 130 117 124 131 116 123 131 116 123 132 115 122 132 115 122 131 115 123 131 116 123 130 116 124 130 117 124 129 117 125 129 118 125 128 118 126 128 119 126 128 119 126 127 119 127 127 119 127 127 119 127 126 119 128 126 118 128 125 118 129 125 117 129 124 117 130 123 116 131 122 115 132 121 114 133 120 113 134 120 112 134 119 112 135 118 111 136 118 111 136 117 111 137 117 110 137 117 110 137 117 110 137 117 110 137 117 110 137 117 110 137 117 110 137 117 110 137 117 110 137 117 110 137 117 110 137 117 110 137 117 110 137 117 111 137 118 111 136 118 111 136 119 112 135 119 112 135 120 113 134 120 113 134 121 113 133 121 114 133 121 114 133 122 114 132 122 114 132 122 114 132 121 114 133 121 114 133 121 113 133 120 113 134 120 113 134 119 112 135 119 112 135 118 111 136 118 111 136 118 111 136 118 111 136 118 111 136 118 111 136 118 111 136 118 111 136 118 111 136 118 111 136 119 112 135 119 112 135 119 112 135 119 112 135 119 112 135 118 111 136 118 111 136 118 111 136 118 111 136 118 111 136 118 111 136 118 111 136 118 111 136 118 111 136 118 111 136 118 111 136 118 111 136 118 111 136 118 111 136 118 111 136 118 111 136 118 111 136 118 111 136 118 111 136 118 111 136 118 111 136 118 111 136 118 111 136 118 111 136 118 111 136 118 111 136 118 111 136 118 111 136 118 111 136 118 111 136 118 111 136 118 111 136 118 111 136 118 111 136 118 111 136 118 111 136 118 111 136 118 111 136 118 111 136 
119 112 135 120 113 134 120 113 134 121 114 133 121 114 133 122 115 132 122 115 132 122 115 132 122 115 132 122 114 132 121 114 133 121 114 133 120 113 134 120 113 134 119 112 135 119 112 135 118 111 136 118 111 136 118 111 136 118 111 136 119 112 135 119 112 135 119 112 135 120 113 134 120 113 134 121 113 133 121 114 133 121 114 133 121 114 133 120 113 134 120 113 134 119 112 135 119 112 135 118 111 136 118 111 136 118 111 136 117 111 137 117 111 137 118 111 136 118 111 136 118 111 136 119 112 135 119 112 135 120 113 134 120 113 134 120 113 134 120 113 134 119 112 135 119 112 135 118 111 136 118 111 136 118 111 136 117 110 137 117 110 137 117 110 137 118 111 136 119 112 135 120 113 134 121 114 133 123 115 131 124 117 130 126 118 128 127 119 127 128 118 126 129 118 125 130 117 124 130 117 124 130 117 124 130 117 124 129 117 125 129 118 125 128 118 126 128 119 126 127 119 127 127 119 127 127 119 127 127 119 127 126 119 128 126 119 128 126 119 128 126 119 128 126 118 128 125 118 129 125 117 129 124 117 130 123 116 131 122 115 132 122 114 132 121 114 133 120 113 134 119 112 135 119 112 135 118 111 136 118 111 136 118 111 136 118 111 136 118 111 136 118 111 136 117 110 137 117 110 137 117 110 137 117 110 137 116 110 138 116 109 138 116 109 138 116 109 138 116 109 138 116 109 138 117 110 137 117 110 137 118 111 136 119 112 135 120 113 134 121 114 133 122 114 132 122 115 132 123 116 131 123 116 131 123 116 131 123 116 131 123 116 131 123 115 131 122 115 132 122 114 132 121 114 133 120 113 134 120 113 134 119 112 135 119 112 135 119 112 135 118 111 136 118 111 136 118 111 136 118 111 136 119 112 135 119 112 135 119 112 135 119 112 135 119 112 135 119 112 135 119 112 135 119 112 135 119 112 135 119 112 135 118 111 136 118 111 136 118 111 136 118 111 136 118 111 136 118 111 136 118 111 136 118 111 136 118 111 136 118 111 136 118 111 136 118 111 136 118 111 136 118 111 136 119 112 135 119 112 135 119 112 135 119 112 135 119 112 135 119 112 135 118 111 136 118 111 136 118 111 136 118 111 136 118 111 136 118 111 136 118 111 136 118 111 136 118 111 136 118 111 136 118 111 136 118 111 136 118 111 136 118 111 136 118 111 136 118 111 136 118 111 136 
119 112 135 119 112 135 120 113 134 120 113 134 121 114 133 121 114 133 122 114 132 122 114 132 122 114 132 121 114 133 121 114 133 121 114 133 120 113 134 120 113 134 119 112 135 119 112 135 119 112 135 118 111 136 118 111 136 118 111 136 119 112 135 119 112 135 120 113 134 120 113 134 121 114 133 121 114 133 121 114 133 122 114 132 122 114 132 121 114 133 121 114 133 121 114 133 120 113 134 120 112 134 119 112 135 118 111 136 118 111 136 118 111 136 118 111 136 118 111 136 118 111 136 118 111 136 119 112 135 119 112 135 119 112 135 119 112 135 119 112 135 119 112 135 119 112 135 118 111 136 118 111 136 117 111 137 117 110 137 117 110 137 117 110 137 118 111 136 118 111 136 119 112 135 120 113 134 121 114 133 123 116 131 124 117 130 125 118 129 126 119 128 127 119 127 127 119 127 127 119 127 127 119 127 127 119 127 127 119 127 126 119 128 126 119 128 126 118 128 125 118 129 125 118 129 125 118 129 125 118 129 125 118 129 125 118 129 125 118 129 125 118 129 125 118 129 125 117 129 124 117 130 124 116 130 123 116 131 122 115 132 121 114 133 121 114 133 120 113 134 120 112 134 119 112 135 119 112 135 119 112 135 119 112 135 119 112 135 118 111 136 118 111 136 118 111 136 118 111 136 117 110 137 117 110 137 116 110 138 116 109 138 116 109 138 116 109 138 116 109 138 116 109 138 116 109 138 117 110 137 118 111 136 119 112 135 120 113 134 121 114 133 122 115 132 123 116 131 124 117 130 125 117 129 125 117 129 125 117 129 125 117 129 124 117 130 123 116 131 123 115 131 122 115 132 121 114 133 120 113 134 120 113 134 119 112 135 119 112 135 119 112 135 119 112 135 119 112 135 119 112 135 119 112 135 119 112 135 119 112 135 119 112 135 119 112 135 119 112 135 119 112 135 119 112 135 119 112 135 119 112 135 118 111 136 118 111 136 118 111 136 118 111 136 118 111 136 118 111 136 118 111 136 118 111 136 118 111 136 118 111 136 118 111 136 118 111 136 118 111 136 119 112 135 119 112 135 119 112 135 119 112 135 119 112 135 119 112 135 119 112 135 119 112 135 119 112 135 119 112 135 119 112 135 118 111 136 118 111 136 118 111 136 118 111 136 118 111 136 118 111 136 118 111 136 118 111 136 118 111 136 118 111 136 118 111 136 118 111 136 118 111 136 
118 111 136 119 112 135 119 112 135 120 113 134 120 113 134 121 114 133 121 114 133 121 114 133 121 114 133 121 114 133 121 114 133 121 114 133 120 113 134 120 113 134 119 112 135 119 112 135 119 112 135 119 112 135 118 111 136 119 112 135 119 112 135 119 112 135 120 113 134 120 113 134 121 114 133 122 114 132 122 115 132 122 115 132 122 115 132 122 115 132 122 115 132 122 115 132 121 114 133 121 114 133 120 113 134 119 112 135 119 112 135 118 111 136 118 111 136 118 111 136 118 111 136 118 111 136 118 111 136 118 111 136 119 112 135 119 112 135 119 112 135 119 112 135 119 112 135 118 111 136 118 111 136 118 111 136 118 111 136 117 111 137 118 111 136 118 111 136 118 111 136 119 112 135 120 113 134 120 113 134 121 114 133 122 115 132 123 116 131 124 117 130 124 117 130 125 117 129 125 117 129 125 117 129 125 117 129 124 117 130 124 117 130 124 116 130 123 116 131 123 116 131 123 116 131 123 116 131 124 116 130 124 116 130 124 117 130 124 117 130 124 117 130 124 117 130 124 116 130 123 116 131 123 116 131 122 115 132 122 114 132 121 114 133 120 113 134 120 113 134 120 113 134 119 112 135 119 112 135 119 112 135 119 112 135 119 112 135 119 112 135 119 112 135 119 112 135 119 112 135 118 111 136 118 111 136 117 110 137 116 110 138 116 109 138 116 109 138 116 109 138 116 109 138 116 109 138 117 110 137 118 111 136 119 112 135 120 113 134 121 114 133 123 115 131 124 116 130 125 117 129 125 118 129 125 118 129 126 118 128 125 118 129 125 117 129 124 117 130 123 116 131 123 115 131 122 115 132 121 114 133 120 113 134 120 113 134 119 112 135 119 112 135 119 112 135 119 112 135 119 112 135 119 112 135 119 112 135 119 112 135 119 112 135 119 112 135 119 112 135 119 112 135 119 112 135 119 112 135 119 112 135 118 111 136 118 111 136 118 111 136 118 111 136 118 111 136 118 111 136 118 111 136 118 111 136 118 111 136 118 111 136 118 111 136 119 112 135 119 112 135 119 112 135 119 112 135 119 112 135 119 112 135 119 112 135 119 112 135 119 112 135 119 112 135 119 112 135 119 112 135 119 112 135 119 112 135 119 112 135 118 111 136 118 111 136 118 111 136 118 111 136 118 111 136 118 111 136 118 111 136 118 111 136 118 111 136 118 111 136 118 111 136 
118 111 136 119 112 135 119 112 135 119 112 135 120 113 134 120 113 134 121 114 133 121 114 133 121 114 133 121 114 133 121 114 133 121 113 133 120 113 134 120 113 134 119 112 135 119 112 135 119 112 135 119 112 135 119 112 135 119 112 135 119 112 135 119 112 135 120 113 134 121 113 133 121 114 133 122 115 132 122 115 132 123 116 131 123 116 131 123 116 131 123 116 131 123 116 131 122 115 132 122 115 132 121 114 133 120 113 134 120 113 134 119 112 135 118 111 136 118 111 136 118 111 136 118 111 136 118 111 136 118 111 136 118 111 136 118 111 136 118 111 136 119 112 135 119 112 135 119 112 135 118 111 136 118 111 136 118 111 136 118 111 136 118 111 136 118 111 136 118 111 136 119 112 135 119 112 135 120 113 134 120 113 134 121 114 133 121 114 133 122 114 132 122 115 132 122 115 132 122 115 132 122 115 132 122 115 132 122 115 132 122 114 132 121 114 133 121 114 133 121 114 133 122 114 132 122 115 132 122 115 132 122 115 132 123 115 131 123 115 131 123 116 131 123 115 131 122 115 132 122 115 132 122 115 132 121 114 133 121 114 133 120 113 134 120 113 134 120 113 134 120 112 134 120 113 134 120 113 134 120 113 134 120 113 134 120 113 134 120 113 134 120 113 134 120 113 134 120 113 134 119 112 135 119 112 135 118 111 136 117 110 137 117 110 137 116 109 138 116 109 138 116 109 138 117 110 137 117 110 137 118 111 136 119 112 135 120 113 134 122 114 132 123 115 131 124 116 130 125 117 129 125 118 129 126 118 128 126 118 128 125 118 129 125 118 129 124 117 130 124 116 130 123 115 131 122 115 132 121 114 133 121 113 133 120 113 134 120 113 134 119 112 135 119 112 135 119 112 135 119 112 135 119 112 135 119 112 135 119 112 135 119 112 135 119 112 135 119 112 135 119 112 135 119 112 135 119 112 135 119 112 135 118 111 136 118 111 136 118 111 136 118 111 136 118 111 136 118 111 136 118 111 136 118 111 136 118 111 136 118 111 136 119 112 135 119 112 135 119 112 135 119 112 135 119 112 135 119 112 135 119 112 135 119 112 135 119 112 135 119 112 135 119 112 135 119 112 135 119 112 135 119 112 135 119 112 135 119 112 135 119 112 135 119 112 135 118 111 136 118 111 136 118 111 136 118 111 136 118 111 136 118 111 136 118 111 136 118 111 136 118 111 136 
118 111 136 118 111 136 119 112 135 119 112 135 119 112 135 120 113 134 120 113 134 120 113 134 121 113 133 121 114 133 121 113 133 120 113 134 120 113 134 120 113 134 119 112 135 119 112 135 119 112 135 119 112 135 119 112 135 119 112 135 119 112 135 119 112 135 120 113 134 121 113 133 121 114 133 122 115 132 123 115 131 123 116 131 124 116 130 124 117 130 124 117 130 124 116 130 123 116 131 123 115 131 122 115 132 121 114 133 120 113 134 120 112 134 119 112 135 118 111 136 118 111 136 118 111 136 118 111 136 118 111 136 118 111 136 118 111 136 118 111 136 119 112 135 119 112 135 119 112 135 119 112 135 119 112 135 119 112 135 119 112 135 119 112 135 119 112 135 119 112 135 119 112 135 119 112 135 119 112 135 119 112 135 119 112 135 120 113 134 120 113 134 120 113 134 120 113 134 120 113 134 120 113 134 120 113 134 120 112 134 119 112 135 119 112 135 120 112 134 120 113 134 120 113 134 120 113 134 121 113 133 121 114 133 121 114 133 121 114 133 121 114 133 121 114 133 121 114 133 121 114 133 121 113 133 120 113 134 120 113 134 119 112 135 119 112 135 119 112 135 119 112 135 120 113 134 120 113 134 120 113 134 121 114 133 121 114 133 121 114 133 122 114 132 121 114 133 121 114 133 121 113 133 120 113 134 119 112 135 119 112 135 118 111 136 117 110 137 117 110 137 117 110 137 117 110 137 118 111 136 118 111 136 119 112 135 120 113 134 121 114 133 122 115 132 123 116 131 124 117 130 125 117 129 125 118 129 125 118 129 125 117 129 124 117 130 124 117 130 123 116 131 123 115 131 122 115 132 121 114 133 121 113 133 120 113 134 120 113 134 119 112 135 119 112 135 119 112 135 119 112 135 119 112 135 119 112 135 119 112 135 119 112 135 119 112 135 119 112 135 119 112 135 119 112 135 119 112 135 118 111 136 118 111 136 118 111 136 118 111 136 118 111 136 118 111 136 118 111 136 118 111 136 118 111 136 118 111 136 119 112 135 119 112 135 119 112 135 119 112 135 119 112 135 119 112 135 120 112 134 120 113 134 120 113 134 120 113 134 120 113 134 119 112 135 119 112 135 119 112 135 119 112 135 119 112 135 119 112 135 119 112 135 119 112 135 119 112 135 119 112 135 118 111 136 118 111 136 118 111 136 118 111 136 119 112 135 119 112 135 119 112 135 
118 111 136 118 111 136 118 111 136 119 112 135 119 112 135 119 112 135 120 113 134 120 113 134 120 113 134 120 113 134 120 113 134 120 113 134 120 113 134 120 113 134 119 112 135 119 112 135 119 112 135 119 112 135 119 112 135 119 112 135 119 112 135 119 112 135 120 113 134 121 113 133 121 114 133 122 115 132 123 115 131 123 116 131 124 117 130 124 117 130 124 117 130 124 117 130 124 116 130 123 116 131 122 115 132 122 115 132 121 114 133 120 113 134 119 112 135 119 112 135 118 111 136 118 111 136 118 111 136 118 111 136 118 111 136 118 111 136 118 111 136 119 112 135 119 112 135 119 112 135 120 112 134 120 113 134 120 113 134 120 112 134 119 112 135 119 112 135 119 112 135 119 112 135 119 112 135 119 112 135 118 111 136 118 111 136 118 111 136 118 111 136 118 111 136 118 111 136 118 111 136 118 111 136 118 111 136 118 111 136 118 111 136 118 111 136 118 111 136 118 111 136 119 112 135 119 112 135 119 112 135 120 113 134 120 113 134 120 113 134 120 113 134 120 113 134 120 113 134 120 113 134 119 112 135 119 112 135 119 112 135 119 112 135 119 112 135 119 112 135 119 112 135 120 113 134 120 113 134 121 114 133 121 114 133 122 115 132 122 115 132 123 115 131 122 115 132 122 115 132 122 115 132 121 114 133 121 113 133 120 113 134 119 112 135 119 112 135 118 111 136 118 111 136 118 111 136 118 111 136 119 112 135 119 112 135 120 113 134 121 114 133 122 115 132 123 115 131 123 116 131 124 116 130 124 117 130 124 117 130 124 117 130 124 116 130 123 116 131 123 115 131 122 115 132 121 114 133 121 114 133 120 113 134 120 113 134 120 113 134 119 112 135 119 112 135 119 112 135 119 112 135 119 112 135 119 112 135 119 112 135 119 112 135 119 112 135 119 112 135 119 112 135 119 112 135 118 111 136 118 111 136 118 111 136 118 111 136 118 111 136 118 111 136 118 111 136 118 111 136 118 111 136 118 111 136 119 112 135 119 112 135 119 112 135 119 112 135 119 112 135 119 112 135 120 113 134 120 113 134 120 113 134 120 113 134 120 113 134 120 113 134 120 113 134 120 112 134 119 112 135 119 112 135 119 112 135 119 112 135 119 112 135 119 112 135 119 112 135 119 112 135 119 112 135 119 112 135 119 112 135 119 112 135 119 112 135 119 112 135 119 112 135 
118 111 136 118 111 136 118 111 136 118 111 136 119 112 135 119 112 135 119 112 135 120 113 134 120 113 134 120 113 134 120 113 134 120 113 134 120 113 134 120 112 134 119 112 135 119 112 135 119 112 135 119 112 135 119 112 135 119 112 135 119 112 135 119 112 135 120 113 134 120 113 134 121 114 133 122 115 132 123 115 131 123 116 131 124 116 130 124 117 130 124 117 130 124 117 130 124 117 130 123 116 131 123 116 131 122 115 132 121 114 133 120 113 134 120 113 134 119 112 135 118 111 136 118 111 136 118 111 136 118 111 136 118 111 136 118 111 136 119 112 135 119 112 135 119 112 135 120 113 134 120 113 134 120 113 134 120 113 134 120 113 134 120 113 134 120 113 134 119 112 135 119 112 135 119 112 135 118 111 136 118 111 136 118 111 136 117 111 137 117 110 137 117 110 137 117 110 137 117 110 137 117 110 137 117 110 137 117 110 137 117 110 137 117 110 137 117 110 137 118 111 136 118 111 136 118 111 136 119 112 135 119 112 135 119 112 135 119 112 135 119 112 135 119 112 135 119 112 135 119 112 135 119 112 135 118 111 136 118 111 136 118 111 136 118 111 136 119 112 135 119 112 135 120 113 134 120 113 134 121 114 133 122 115 132 122 115 132 123 116 131 123 116 131 123 116 131 123 116 131 123 116 131 122 115 132 122 115 132 121 114 133 120 113 134 120 113 134 119 112 135 119 112 135 119 112 135 119 112 135 119 112 135 120 113 134 120 113 134 121 114 133 121 114 133 122 115 132 122 115 132 123 115 131 123 115 131 123 115 131 123 115 131 122 115 132 122 115 132 122 114 132 121 114 133 121 114 133 120 113 134 120 113 134 120 113 134 119 112 135 119 112 135 119 112 135 119 112 135 119 112 135 119 112 135 119 112 135 119 112 135 119 112 135 119 112 135 119 112 135 119 112 135 118 111 136 118 111 136 118 111 136 118 111 136 118 111 136 118 111 136 118 111 136 118 111 136 118 111 136 118 111 136 119 112 135 119 112 135 119 112 135 119 112 135 119 112 135 120 112 134 120 113 134 120 113 134 120 113 134 120 113 134 120 113 134 120 113 134 120 113 134 120 113 134 120 112 134 119 112 135 119 112 135 119 112 135 119 112 135 119 112 135 119 112 135 119 112 135 119 112 135 119 112 135 119 112 135 119 112 135 119 112 135 119 112 135 119 112 135 120 113 134 
118 111 136 118 111 136 118 111 136 118 111 136 119 112 135 119 112 135 119 112 135 119 112 135 120 112 134 120 113 134 120 113 134 120 113 134 120 112 134 119 112 135 119 112 135 119 112 135 119 112 135 119 112 135 119 112 135 119 112 135 119 112 135 119 112 135 120 113 134 120 113 134 121 114 133 122 114 132 122 115 132 123 116 131 123 116 131 124 117 130 124 117 130 124 117 130 124 116 130 123 116 131 123 116 131 122 115 132 121 114 133 121 113 133 120 113 134 119 112 135 119 112 135 118 111 136 118 111 136 118 111 136 118 111 136 118 111 136 119 112 135 119 112 135 120 113 134 120 113 134 120 113 134 121 113 133 121 113 133 121 113 133 120 113 134 120 113 134 120 113 134 119 112 135 119 112 135 118 111 136 118 111 136 117 111 137 117 110 137 117 110 137 117 110 137 116 109 138 116 109 138 116 109 138 116 109 138 116 109 138 116 110 138 117 110 137 117 110 137 117 110 137 118 111 136 118 111 136 118 111 136 118 111 136 118 111 136 119 112 135 118 111 136 118 111 136 118 111 136 118 111 136 118 111 136 118 111 136 118 111 136 118 111 136 118 111 136 118 111 136 119 112 135 120 113 134 120 113 134 121 114 133 122 115 132 123 115 131 123 116 131 124 116 130 124 116 130 124 116 130 123 116 131 123 116 131 123 115 131 122 115 132 121 114 133 121 114 133 120 113 134 120 113 134 120 113 134 120 112 134 120 113 134 120 113 134 120 113 134 120 113 134 121 113 133 121 114 133 121 114 133 121 114 133 121 114 133 121 114 133 121 114 133 121 114 133 121 114 133 120 113 134 120 113 134 120 113 134 120 113 134 119 112 135 119 112 135 119 112 135 119 112 135 119 112 135 119 112 135 119 112 135 119 112 135 119 112 135 119 112 135 119 112 135 118 111 136 118 111 136 118 111 136 118 111 136 118 111 136 118 111 136 118 111 136 118 111 136 118 111 136 118 111 136 118 111 136 118 111 136 118 111 136 119 112 135 119 112 135 119 112 135 119 112 135 120 112 134 120 113 134 120 113 134 120 113 134 120 113 134 120 113 134 120 113 134 120 113 134 120 113 134 120 112 134 119 112 135 119 112 135 119 112 135 119 112 135 119 112 135 119 112 135 119 112 135 119 112 135 119 112 135 119 112 135 119 112 135 119 112 135 119 112 135 120 113 134 120 113 134 120 113 134 
118 111 136 118 111 136 118 111 136 118 111 136 118 111 136 119 112 135 119 112 135 119 112 135 119 112 135 119 112 135 119 112 135 119 112 135 119 112 135 119 112 135 119 112 135 119 112 135 119 112 135 119 112 135 119 112 135 119 112 135 119 112 135 119 112 135 120 112 134 120 113 134 121 113 133 121 114 133 122 115 132 122 115 132 123 116 131 123 116 131 124 116 130 124 116 130 123 116 131 123 116 131 123 115 131 122 115 132 121 114 133 121 113 133 120 113 134 119 112 135 119 112 135 118 111 136 118 111 136 118 111 136 118 111 136 119 112 135 119 112 135 119 112 135 120 113 134 120 113 134 121 113 133 121 114 133 121 114 133 121 114 133 121 113 133 120 113 134 120 113 134 119 112 135 119 112 135 118 111 136 118 111 136 118 111 136 117 110 137 117 110 137 117 110 137 116 110 138 116 109 138 116 109 138 116 109 138 116 109 138 117 110 137 117 110 137 117 110 137 117 110 137 117 111 137 118 111 136 118 111 136 118 111 136 118 111 136 118 111 136 118 111 136 118 111 136 118 111 136 118 111 136 118 111 136 118 111 136 118 111 136 118 111 136 118 111 136 118 111 136 119 112 135 120 113 134 120 113 134 121 114 133 122 115 132 123 115 131 123 116 131 124 116 130 124 116 130 124 116 130 124 116 130 123 116 131 123 116 131 123 115 131 122 115 132 121 114 133 121 114 133 121 113 133 120 113 134 120 113 134 120 113 134 120 113 134 120 113 134 120 113 134 120 113 134 120 113 134 120 113 134 120 113 134 120 113 134 120 113 134 120 113 134 120 113 134 120 112 134 119 112 135 119 112 135 119 112 135 119 112 135 119 112 135 119 112 135 119 112 135 119 112 135 119 112 135 119 112 135 119 112 135 119 112 135 119 112 135 118 111 136 118 111 136 118 111 136 118 111 136 118 111 136 118 111 136 118 111 136 118 111 136 118 111 136 118 111 136 118 111 136 118 111 136 118 111 136 118 111 136 119 112 135 119 112 135 119 112 135 119 112 135 119 112 135 120 113 134 120 113 134 120 113 134 120 113 134 120 113 134 120 113 134 120 113 134 120 113 134 120 113 134 119 112 135 119 112 135 119 112 135 119 112 135 119 112 135 119 112 135 119 112 135 119 112 135 119 112 135 119 112 135 119 112 135 119 112 135 119 112 135 120 112 134 120 113 134 120 113 134 120 113 134 
118 111 136 118 111 136 118 111 136 118 111 136 118 111 136 118 111 136 119 112 135 119 112 135 119 112 135 119 112 135 119 112 135 119 112 135 119 112 135 119 112 135 119 112 135 119 112 135 119 112 135 119 112 135 119 112 135 119 112 135 119 112 135 119 112 135 119 112 135 120 113 134 120 113 134 121 114 133 121 114 133 122 115 132 122 115 132 123 115 131 123 116 131 123 116 131 123 116 131 123 115 131 122 115 132 122 114 132 121 114 133 121 113 133 120 113 134 119 112 135 119 112 135 119 112 135 119 112 135 119 112 135 119 112 135 119 112 135 119 112 135 120 112 134 120 113 134 120 113 134 120 113 134 121 114 133 121 114 133 121 114 133 121 113 133 120 113 134 120 113 134 120 112 134 119 112 135 119 112 135 118 111 136 118 111 136 118 111 136 117 110 137 117 110 137 117 110 137 117 110 137 117 110 137 117 110 137 117 110 137 117 110 137 117 110 137 117 110 137 117 111 137 118 111 136 118 111 136 118 111 136 118 111 136 118 111 136 118 111 136 118 111 136 118 111 136 118 111 136 118 111 136 118 111 136 118 111 136 118 111 136 118 111 136 118 111 136 119 112 135 119 112 135 120 113 134 120 113 134 121 114 133 122 114 132 122 115 132 123 115 131 123 116 131 123 116 131 123 116 131 123 116 131 123 116 131 123 116 131 123 115 131 122 115 132 122 115 132 121 114 133 121 114 133 121 113 133 120 113 134 120 113 134 120 113 134 119 112 135 119 112 135 119 112 135 119 112 135 119 112 135 119 112 135 119 112 135 119 112 135 119 112 135 119 112 135 119 112 135 119 112 135 118 111 136 118 111 136 118 111 136 118 111 136 118 111 136 118 111 136 118 111 136 118 111 136 118 111 136 118 111 136 118 111 136 118 111 136 118 111 136 118 111 136 118 111 136 118 111 136 118 111 136 118 111 136 118 111 136 118 111 136 118 111 136 118 111 136 118 111 136 118 111 136 118 111 136 118 111 136 119 112 135 119 112 135 119 112 135 119 112 135 120 112 134 120 113 134 120 113 134 120 113 134 120 113 134 120 113 134 120 113 134 120 113 134 120 113 134 119 112 135 119 112 135 119 112 135 119 112 135 119 112 135 119 112 135 118 111 136 118 111 136 118 111 136 119 112 135 119 112 135 119 112 135 119 112 135 119 112 135 120 112 134 120 113 134 120 113 134 120 113 134 
118 111 136 118 111 136 118 111 136 118 111 136 118 111 136 118 111 136 118 111 136 118 111 136 119 112 135 119 112 135 119 112 135 119 112 135 119 112 135 119 112 135 119 112 135 119 112 135 119 112 135 119 112 135 119 112 135 119 112 135 119 112 135 119 112 135 119 112 135 119 112 135 120 113 134 120 113 134 121 114 133 121 114 133 121 114 133 122 115 132 122 115 132 122 115 132 122 115 132 122 115 132 122 114 132 121 114 133 121 114 133 120 113 134 120 113 134 119 112 135 119 112 135 119 112 135 119 112 135 119 112 135 119 112 135 119 112 135 119 112 135 120 112 134 120 113 134 120 113 134 120 113 134 120 113 134 120 113 134 120 113 134 120 113 134 120 113 134 120 113 134 120 113 134 119 112 135 119 112 135 119 112 135 118 111 136 118 111 136 118 111 136 118 111 136 118 111 136 118 111 136 118 111 136 118 111 136 118 111 136 118 111 136 118 111 136 118 111 136 118 111 136 118 111 136 118 111 136 118 111 136 118 111 136 118 111 136 118 111 136 118 111 136 118 111 136 118 111 136 118 111 136 118 111 136 118 111 136 118 111 136 118 111 136 118 111 136 119 112 135 119 112 135 120 113 134 120 113 134 121 114 133 121 114 133 122 115 132 122 115 132 122 115 132 123 115 131 123 115 131 123 116 131 123 115 131 122 115 132 122 115 132 122 115 132 122 114 132 121 114 133 121 114 133 121 113 133 120 113 134 120 113 134 120 112 134 119 112 135 119 112 135 119 112 135 119 112 135 118 111 136 118 111 136 118 111 136 118 111 136 118 111 136 118 111 136 118 111 136 118 111 136 118 111 136 118 111 136 118 111 136 118 111 136 118 111 136 118 111 136 118 111 136 118 111 136 118 111 136 118 111 136 118 111 136 118 111 136 118 111 136 118 111 136 118 111 136 118 111 136 118 111 136 118 111 136 118 111 136 118 111 136 118 111 136 118 111 136 118 111 136 118 111 136 118 111 136 118 111 136 119 112 135 119 112 135 119 112 135 119 112 135 119 112 135 120 113 134 120 113 134 120 113 134 120 113 134 120 113 134 120 113 134 120 112 134 119 112 135 119 112 135 119 112 135 119 112 135 119 112 135 118 111 136 118 111 136 118 111 136 118 111 136 118 111 136 118 111 136 118 111 136 119 112 135 119 112 135 119 112 135 119 112 135 120 113 134 120 113 134 120 113 134 
118 111 136 118 111 136 118 111 136 118 111 136 118 111 136 118 111 136 118 111 136 118 111 136 118 111 136 119 112 135 119 112 135 119 112 135 119 112 135 119 112 135 119 112 135 119 112 135 119 112 135 118 111 136 118 111 136 118 111 136 119 112 135 119 112 135 119 112 135 119 112 135 119 112 135 120 113 134 120 113 134 120 113 134 121 114 133 121 114 133 121 114 133 121 114 133 121 114 133 121 114 133 121 114 133 121 114 133 120 113 134 120 113 134 120 113 134 119 112 135 119 112 135 119 112 135 119 112 135 119 112 135 119 112 135 119 112 135 119 112 135 119 112 135 120 113 134 120 113 134 120 113 134 120 113 134 120 113 134 120 113 134 120 113 134 120 113 134 120 113 134 120 112 134 119 112 135 119 112 135 119 112 135 119 112 135 119 112 135 119 112 135 119 112 135 119 112 135 118 111 136 118 111 136 118 111 136 118 111 136 118 111 136 118 111 136 118 111 136 118 111 136 118 111 136 118 111 136 118 111 136 118 111 136 118 111 136 118 111 136 118 111 136 118 111 136 118 111 136 118 111 136 118 111 136 118 111 136 118 111 136 118 111 136 119 112 135 119 112 135 119 112 135 120 113 134 120 113 134 120 113 134 121 114 133 121 114 133 121 114 133 122 114 132 122 115 132 122 115 132 122 115 132 122 115 132 122 115 132 122 114 132 121 114 133 121 114 133 121 114 133 121 113 133 120 113 134 120 113 134 120 113 134 119 112 135 119 112 135 119 112 135 119 112 135 118 111 136 118 111 136 118 111 136 118 111 136 118 111 136 118 111 136 118 111 136 118 111 136 118 111 136 118 111 136 118 111 136 118 111 136 118 111 136 118 111 136 118 111 136 118 111 136 118 111 136 118 111 136 118 111 136 118 111 136 118 111 136 118 111 136 118 111 136 118 111 136 118 111 136 118 111 136 118 111 136 118 111 136 118 111 136 118 111 136 118 111 136 118 111 136 118 111 136 118 111 136 119 112 135 119 112 135 119 112 135 119 112 135 119 112 135 119 112 135 120 112 134 120 113 134 120 113 134 120 113 134 120 113 134 120 112 134 119 112 135 119 112 135 119 112 135 119 112 135 119 112 135 118 111 136 118 111 136 118 111 136 118 111 136 118 111 136 118 111 136 118 111 136 118 111 136 118 111 136 119 112 135 119 112 135 119 112 135 120 112 134 120 113 134 120 113 134 
118 111 136 118 111 136 118 111 136 118 111 136 118 111 136 118 111 136 118 111 136 118 111 136 118 111 136 118 111 136 118 111 136 118 111 136 118 111 136 118 111 136 118 111 136 118 111 136 118 111 136 118 111 136 118 111 136 118 111 136 118 111 136 118 111 136 119 112 135 119 112 135 119 112 135 119 112 135 119 112 135 120 113 134 120 113 134 120 113 134 120 113 134 120 113 134 120 113 134 120 113 134 120 113 134 120 113 134 120 113 134 120 113 134 120 112 134 119 112 135 119 112 135 119 112 135 119 112 135 119 112 135 119 112 135 119 112 135 119 112 135 119 112 135 119 112 135 119 112 135 119 112 135 120 112 134 120 112 134 120 112 134 120 112 134 120 112 134 119 112 135 119 112 135 119 112 135 119 112 135 119 112 135 119 112 135 119 112 135 119 112 135 119 112 135 119 112 135 119 112 135 119 112 135 119 112 135 119 112 135 119 112 135 119 112 135 119 112 135 119 112 135 118 111 136 118 111 136 118 111 136 118 111 136 118 111 136 118 111 136 118 111 136 118 111 136 118 111 136 118 111 136 118 111 136 119 112 135 119 112 135 119 112 135 119 112 135 119 112 135 119 112 135 120 113 134 120 113 134 120 113 134 120 113 134 120 113 134 120 113 134 121 113 133 121 114 133 121 114 133 121 114 133 121 114 133 121 114 133 121 114 133 121 113 133 120 113 134 120 113 134 120 113 134 120 113 134 120 113 134 119 112 135 119 112 135 119 112 135 119 112 135 118 111 136 118 111 136 118 111 136 118 111 136 118 111 136 118 111 136 118 111 136 118 111 136 118 111 136 118 111 136 118 111 136 118 111 136 118 111 136 118 111 136 118 111 136 118 111 136 118 111 136 118 111 136 118 111 136 118 111 136 118 111 136 118 111 136 118 111 136 118 111 136 118 111 136 118 111 136 118 111 136 118 111 136 118 111 136 118 111 136 118 111 136 118 111 136 118 111 136 118 111 136 118 111 136 119 112 135 119 112 135 119 112 135 119 112 135 119 112 135 119 112 135 119 112 135 119 112 135 120 112 134 119 112 135 119 112 135 119 112 135 119 112 135 119 112 135 119 112 135 119 112 135 118 111 136 118 111 136 118 111 136 118 111 136 118 111 136 118 111 136 118 111 136 118 111 136 118 111 136 118 111 136 119 112 135 119 112 135 119 112 135 119 112 135 119 112 135 120 113 134 
118 111 136 118 111 136 118 111 136 118 111 136 118 111 136 118 111 136 118 111 136 118 111 136 118 111 136 118 111 136 118 111 136 118 111 136 118 111 136 118 111 136 118 111 136 118 111 136 118 111 136 118 111 136 118 111 136 118 111 136 118 111 136 118 111 136 118 111 136 119 112 135 119 112 135 119 112 135 119 112 135 119 112 135 119 112 135 119 112 135 119 112 135 120 112 134 120 113 134 120 113 134 120 113 134 120 112 134 119 112 135 119 112 135 119 112 135 119 112 135 119 112 135 119 112 135 119 112 135 119 112 135 119 112 135 119 112 135 119 112 135 119 112 135 119 112 135 119 112 135 119 112 135 119 112 135 119 112 135 119 112 135 119 112 135 119 112 135 119 112 135 119 112 135 119 112 135 120 112 134 120 113 134 120 113 134 120 113 134 120 113 134 120 113 134 120 113 134 120 113 134 120 113 134 120 113 134 120 113 134 119 112 135 119 112 135 119 112 135 119 112 135 119 112 135 118 111 136 118 111 136 118 111 136 118 111 136 118 111 136 118 111 136 118 111 136 119 112 135 119 112 135 119 112 135 119 112 135 119 112 135 119 112 135 119 112 135 119 112 135 119 112 135 120 112 134 120 113 134 120 113 134 120 113 134 120 113 134 120 113 134 120 113 134 120 113 134 120 113 134 120 113 134 120 113 134 120 113 134 120 113 134 120 113 134 120 113 134 120 113 134 119 112 135 119 112 135 119 112 135 119 112 135 119 112 135 119 112 135 119 112 135 119 112 135 118 111 136 118 111 136 118 111 136 118 111 136 118 111 136 118 111 136 118 111 136 118 111 136 118 111 136 118 111 136 118 111 136 118 111 136 118 111 136 118 111 136 118 111 136 118 111 136 118 111 136 118 111 136 118 111 136 118 111 136 118 111 136 118 111 136 118 111 136 118 111 136 118 111 136 118 111 136 118 111 136 118 111 136 118 111 136 118 111 136 118 111 136 118 111 136 118 111 136 118 111 136 119 112 135 119 112 135 119 112 135 119 112 135 119 112 135 119 112 135 119 112 135 119 112 135 119 112 135 119 112 135 119 112 135 119 112 135 119 112 135 119 112 135 119 112 135 119 112 135 118 111 136 118 111 136 118 111 136 118 111 136 118 111 136 118 111 136 118 111 136 118 111 136 118 111 136 118 111 136 118 111 136 119 112 135 119 112 135 119 112 135 119 112 135 119 112 135 
118 111 136 118 111 136 118 111 136 118 111 136 118 111 136 118 111 136 118 111 136 118 111 136 118 111 136 118 111 136 118 111 136 118 111 136 118 111 136 118 111 136 118 111 136 118 111 136 118 111 136 118 111 136 118 111 136 118 111 136 118 111 136 118 111 136 118 111 136 118 111 136 118 111 136 118 111 136 118 111 136 119 112 135 119 112 135 119 112 135 119 112 135 119 112 135 119 112 135 119 112 135 119 112 135 119 112 135 119 112 135 119 112 135 119 112 135 119 112 135 119 112 135 119 112 135 119 112 135 119 112 135 119 112 135 119 112 135 119 112 135 119 112 135 119 112 135 119 112 135 118 111 136 118 111 136 118 111 136 119 112 135 119 112 135 119 112 135 119 112 135 119 112 135 119 112 135 120 113 134 120 113 134 120 113 134 120 113 134 120 113 134 120 113 134 120 113 134 120 113 134 120 113 134 120 113 134 120 113 134 120 112 134 119 112 135 119 112 135 119 112 135 119 112 135 118 111 136 118 111 136 118 111 136 118 111 136 118 111 136 119 112 135 119 112 135 119 112 135 119 112 135 119 112 135 119 112 135 119 112 135 119 112 135 120 112 134 120 112 134 119 112 135 119 112 135 119 112 135 119 112 135 119 112 135 119 112 135 119 112 135 119 112 135 119 112 135 119 112 135 119 112 135 119 112 135 119 112 135 119 112 135 119 112 135 119 112 135 119 112 135 119 112 135 119 112 135 119 112 135 119 112 135 119 112 135 119 112 135 119 112 135 119 112 135 119 112 135 119 112 135 119 112 135 119 112 135 119 112 135 119 112 135 119 112 135 119 112 135 118 111 136 118 111 136 118 111 136 118 111 136 118 111 136 118 111 136 118 111 136 118 111 136 118 111 136 118 111 136 118 111 136 118 111 136 118 111 136 118 111 136 118 111 136 118 111 136 118 111 136 118 111 136 118 111 136 118 111 136 118 111 136 118 111 136 118 111 136 118 111 136 118 111 136 119 112 135 119 112 135 119 112 135 119 112 135 119 112 135 119 112 135 119 112 135 119 112 135 119 112 135 119 112 135 119 112 135 119 112 135 119 112 135 119 112 135 119 112 135 119 112 135 119 112 135 118 111 136 118 111 136 118 111 136 118 111 136 118 111 136 118 111 136 118 111 136 118 111 136 118 111 136 118 111 136 118 111 136 118 111 136 119 112 135 119 112 135 119 112 135 119 112 135 
118 111 136 118 111 136 118 111 136 118 111 136 118 111 136 118 111 136 118 111 136 118 111 136 118 111 136 118 111 136 118 111 136 118 111 136 118 111 136 118 111 136 118 111 136 118 111 136 118 111 136 118 111 136 118 111 136 118 111 136 118 111 136 118 111 136 118 111 136 118 111 136 118 111 136 118 111 136 118 111 136 118 111 136 118 111 136 118 111 136 118 111 136 118 111 136 119 112 135 119 112 135 119 112 135 119 112 135 119 112 135 119 112 135 119 112 135 119 112 135 119 112 135 119 112 135 119 112 135 119 112 135 119 112 135 119 112 135 118 111 136 118 111 136 118 111 136 118 111 136 118 111 136 118 111 136 118 111 136 118 111 136 118 111 136 118 111 136 119 112 135 119 112 135 119 112 135 120 112 134 120 113 134 120 113 134 120 113 134 120 113 134 120 113 134 120 113 134 120 113 134 120 113 134 120 113 134 120 113 134 119 112 135 119 112 135 119 112 135 119 112 135 118 111 136 118 111 136 118 111 136 118 111 136 118 111 136 119 112 135 119 112 135 119 112 135 119 112 135 119 112 135 119 112 135 119 112 135 120 112 134 120 113 134 120 113 134 120 112 134 119 112 135 119 112 135 119 112 135 119 112 135 119 112 135 119 112 135 119 112 135 118 111 136 118 111 136 118 111 136 118 111 136 118 111 136 118 111 136 118 111 136 118 111 136 118 111 136 118 111 136 118 111 136 118 111 136 119 112 135 119 112 135 119 112 135 119 112 135 119 112 135 119 112 135 119 112 135 119 112 135 119 112 135 119 112 135 119 112 135 119 112 135 119 112 135 119 112 135 119 112 135 119 112 135 119 112 135 119 112 135 118 111 136 118 111 136 118 111 136 118 111 136 118 111 136 118 111 136 118 111 136 118 111 136 118 111 136 118 111 136 118 111 136 118 111 136 118 111 136 118 111 136 119 112 135 119 112 135 119 112 135 119 112 135 119 112 135 119 112 135 119 112 135 119 112 135 119 112 135 119 112 135 119 112 135 119 112 135 119 112 135 119 112 135 119 112 135 119 112 135 119 112 135 119 112 135 119 112 135 119 112 135 119 112 135 119 112 135 119 112 135 119 112 135 118 111 136 118 111 136 118 111 136 118 111 136 118 111 136 118 111 136 118 111 136 118 111 136 118 111 136 118 111 136 118 111 136 118 111 136 118 111 136 118 111 136 119 112 135 119 112 135 
118 111 136 118 111 136 118 111 136 118 111 136 118 111 136 118 111 136 118 111 136 118 111 136 118 111 136 118 111 136 118 111 136 118 111 136 118 111 136 118 111 136 118 111 136 118 111 136 118 111 136 118 111 136 118 111 136 118 111 136 118 111 136 118 111 136 118 111 136 118 111 136 118 111 136 118 111 136 118 111 136 118 111 136 118 111 136 118 111 136 118 111 136 118 111 136 118 111 136 118 111 136 118 111 136 118 111 136 119 112 135 119 112 135 119 112 135 119 112 135 119 112 135 119 112 135 119 112 135 119 112 135 119 112 135 118 111 136 118 111 136 118 111 136 118 111 136 118 111 136 118 111 136 118 111 136 118 111 136 118 111 136 118 111 136 118 111 136 118 111 136 119 112 135 119 112 135 119 112 135 120 113 134 120 113 134 120 113 134 120 113 134 120 113 134 120 113 134 120 113 134 120 113 134 120 113 134 119 112 135 119 112 135 119 112 135 119 112 135 118 111 136 118 111 136 118 111 136 118 111 136 118 111 136 118 111 136 118 111 136 119 112 135 119 112 135 119 112 135 119 112 135 119 112 135 119 112 135 120 112 134 120 113 134 120 112 134 119 112 135 119 112 135 119 112 135 119 112 135 119 112 135 119 112 135 118 111 136 118 111 136 118 111 136 118 111 136 118 111 136 118 111 136 118 111 136 118 111 136 118 111 136 118 111 136 118 111 136 118 111 136 118 111 136 118 111 136 118 111 136 119 112 135 119 112 135 119 112 135 119 112 135 119 112 135 119 112 135 120 113 134 120 113 134 120 113 134 120 113 134 120 113 134 120 113 134 120 113 134 120 113 134 119 112 135 119 112 135 119 112 135 119 112 135 118 111 136 118 111 136 118 111 136 118 111 136 118 111 136 118 111 136 118 111 136 118 111 136 118 111 136 118 111 136 118 111 136 119 112 135 119 112 135 119 112 135 119 112 135 119 112 135 119 112 135 119 112 135 119 112 135 119 112 135 119 112 135 119 112 135 119 112 135 118 111 136 118 111 136 119 112 135 119 112 135 119 112 135 119 112 135 119 112 135 119 112 135 119 112 135 119 112 135 119 112 135 119 112 135 119 112 135 119 112 135 119 112 135 118 111 136 118 111 136 118 111 136 118 111 136 118 111 136 118 111 136 118 111 136 118 111 136 118 111 136 118 111 136 118 111 136 118 111 136 118 111 136 118 111 136 118 111 136 
118 111 136 118 111 136 118 111 136 118 111 136 118 111 136 118 111 136 118 111 136 118 111 136 118 111 136 118 111 136 118 111 136 118 111 136 118 111 136 118 111 136 118 111 136 118 111 136 118 111 136 118 111 136 118 111 136 118 111 136 118 111 136 118 111 136 118 111 136 118 111 136 118 111 136 118 111 136 118 111 136 118 111 136 118 111 136 118 111 136 118 111 136 118 111 136 118 111 136 118 111 136 118 111 136 118 111 136 118 111 136 119 112 135 119 112 135 119 112 135 119 112 135 119 112 135 119 112 135 118 111 136 118 111 136 118 111 136 118 111 136 118 111 136 118 111 136 118 111 136 118 111 136 118 111 136 118 111 136 118 111 136 118 111 136 118 111 136 118 111 136 119 112 135 119 112 135 119 112 135 120 112 134 120 113 134 120 113 134 120 113 134 120 113 134 120 113 134 120 113 134 119 112 135 119 112 135 119 112 135 119 112 135 118 111 136 118 111 136 118 111 136 118 111 136 118 111 136 118 111 136 118 111 136 118 111 136 118 111 136 119 112 135 119 112 135 119 112 135 119 112 135 119 112 135 119 112 135 119 112 135 119 112 135 119 112 135 119 112 135 119 112 135 119 112 135 119 112 135 119 112 135 119 112 135 118 111 136 118 111 136 118 111 136 118 111 136 118 111 136 118 111 136 118 111 136 118 111 136 118 111 136 118 111 136 118 111 136 118 111 136 118 111 136 118 111 136 118 111 136 118 111 136 119 112 135 119 112 135 119 112 135 120 112 134 120 113 134 120 113 134 120 113 134 120 113 134 120 113 134 120 113 134 120 113 134 120 113 134 120 113 134 120 113 134 120 112 134 119 112 135 119 112 135 119 112 135 118 111 136 118 111 136 118 111 136 118 111 136 118 111 136 118 111 136 118 111 136 118 111 136 118 111 136 119 112 135 119 112 135 119 112 135 119 112 135 119 112 135 119 112 135 119 112 135 119 112 135 119 112 135 119 112 135 119 112 135 119 112 135 118 111 136 118 111 136 118 111 136 118 111 136 118 111 136 118 111 136 118 111 136 119 112 135 119 112 135 119 112 135 119 112 135 119 112 135 119 112 135 119 112 135 119 112 135 119 112 135 119 112 135 119 112 135 119 112 135 118 111 136 118 111 136 118 111 136 118 111 136 118 111 136 118 111 136 118 111 136 118 111 136 118 111 136 118 111 136 118 111 136 118 111 136 
118 111 136 118 111 136 118 111 136 118 111 136 118 111 136 118 111 136 118 111 136 118 111 136 118 111 136 118 111 136 118 111 136 118 111 136 118 111 136 118 111 136 118 111 136 118 111 136 118 111 136 118 111 136 118 111 136 118 111 136 118 111 136 118 111 136 118 111 136 118 111 136 118 111 136 118 111 136 118 111 136 118 111 136 118 111 136 118 111 136 118 111 136 118 111 136 118 111 136 118 111 136 118 111 136 118 111 136 118 111 136 118 111 136 119 112 135 119 112 135 119 112 135 118 111 136 118 111 136 118 111 136 118 111 136 118 111 136 118 111 136 118 111 136 118 111 136 118 111 136 117 111 137 117 111 137 118 111 136 118 111 136 118 111 136 118 111 136 118 111 136 119 112 135 119 112 135 119 112 135 119 112 135 119 112 135 119 112 135 119 112 135 119 112 135 119 112 135 119 112 135 119 112 135 119 112 135 118 111 136 118 111 136 118 111 136 118 111 136 118 111 136 118 111 136 118 111 136 118 111 136 118 111 136 118 111 136 118 111 136 119 112 135 119 112 135 119 112 135 119 112 135 119 112 135 119 112 135 119 112 135 119 112 135 119 112 135 119 112 135 119 112 135 119 112 135 119 112 135 119 112 135 119 112 135 118 111 136 118 111 136 118 111 136 118 111 136 118 111 136 118 111 136 118 111 136 118 111 136 118 111 136 118 111 136 118 111 136 118 111 136 118 111 136 118 111 136 118 111 136 119 112 135 119 112 135 119 112 135 119 112 135 120 113 134 120 113 134 120 113 134 120 113 134 121 114 133 121 114 133 121 114 133 121 114 133 121 113 133 120 113 134 120 113 134 120 113 134 119 112 135 119 112 135 119 112 135 119 112 135 118 111 136 118 111 136 118 111 136 118 111 136 118 111 136 118 111 136 118 111 136 119 112 135 119 112 135 119 112 135 119 112 135 119 112 135 119 112 135 119 112 135 119 112 135 119 112 135 119 112 135 119 112 135 119 112 135 118 111 136 118 111 136 118 111 136 118 111 136 118 111 136 118 111 136 118 111 136 118 111 136 118 111 136 119 112 135 119 112 135 119 112 135 119 112 135 119 112 135 119 112 135 119 112 135 119 112 135 119 112 135 119 112 135 119 112 135 119 112 135 119 112 135 119 112 135 118 111 136 118 111 136 118 111 136 118 111 136 118 111 136 118 111 136 118 111 136 118 111 136 118 111 136 
118 111 136 118 111 136 118 111 136 118 111 136 118 111 136 118 111 136 118 111 136 118 111 136 118 111 136 118 111 136 118 111 136 118 111 136 118 111 136 118 111 136 118 111 136 118 111 136 118 111 136 118 111 136 118 111 136 118 111 136 118 111 136 118 111 136 118 111 136 118 111 136 118 111 136 118 111 136 118 111 136 118 111 136 118 111 136 118 111 136 118 111 136 118 111 136 118 111 136 118 111 136 118 111 136 118 111 136 118 111 136 118 111 136 118 111 136 118 111 136 118 111 136 118 111 136 118 111 136 118 111 136 118 111 136 118 111 136 118 111 136 118 111 136 118 111 136 118 111 136 118 111 136 118 111 136 118 111 136 118 111 136 118 111 136 118 111 136 118 111 136 119 112 135 119 112 135 119 112 135 119 112 135 119 112 135 119 112 135 119 112 135 119 112 135 119 112 135 118 111 136 118 111 136 118 111 136 118 111 136 118 111 136 117 111 137 117 110 137 117 110 137 117 111 137 118 111 136 118 111 136 118 111 136 118 111 136 118 111 136 118 111 136 119 112 135 119 112 135 119 112 135 119 112 135 119 112 135 119 112 135 119 112 135 119 112 135 119 112 135 119 112 135 119 112 135 119 112 135 119 112 135 119 112 135 119 112 135 119 112 135 119 112 135 118 111 136 118 111 136 118 111 136 118 111 136 118 111 136 118 111 136 118 111 136 118 111 136 118 111 136 118 111 136 118 111 136 119 112 135 119 112 135 119 112 135 119 112 135 119 112 135 120 113 134 120 113 134 120 113 134 121 113 133 121 114 133 121 114 133 121 114 133 121 114 133 121 114 133 120 113 134 120 113 134 120 113 134 120 113 134 119 112 135 119 112 135 119 112 135 118 111 136 118 111 136 118 111 136 118 111 136 118 111 136 118 111 136 118 111 136 119 112 135 119 112 135 119 112 135 119 112 135 119 112 135 119 112 135 119 112 135 119 112 135 119 112 135 119 112 135 119 112 135 119 112 135 118 111 136 118 111 136 118 111 136 118 111 136 118 111 136 118 111 136 118 111 136 118 111 136 118 111 136 118 111 136 119 112 135 119 112 135 119 112 135 119 112 135 119 112 135 119 112 135 119 112 135 119 112 135 119 112 135 119 112 135 119 112 135 119 112 135 119 112 135 119 112 135 119 112 135 118 111 136 118 111 136 118 111 136 118 111 136 118 111 136 118 111 136 118 111 136 
118 111 136 118 111 136 118 111 136 118 111 136 118 111 136 118 111 136 118 111 136 118 111 136 118 111 136 118 111 136 118 111 136 118 111 136 118 111 136 118 111 136 118 111 136 118 111 136 118 111 136 118 111 136 118 111 136 118 111 136 118 111 136 118 111 136 118 111 136 118 111 136 118 111 136 118 111 136 118 111 136 118 111 136 118 111 136 118 111 136 118 111 136 118 111 136 118 111 136 118 111 136 118 111 136 118 111 136 118 111 136 118 111 136 118 111 136 118 111 136 118 111 136 118 111 136 118 111 136 118 111 136 118 111 136 118 111 136 118 111 136 118 111 136 118 111 136 118 111 136 118 111 136 118 111 136 118 111 136 118 111 136 118 111 136 118 111 136 118 111 136 119 112 135 119 112 135 119 112 135 119 112 135 119 112 135 119 112 135 118 111 136 118 111 136 118 111 136 118 111 136 118 111 136 117 110 137 117 110 137 117 110 137 117 110 137 117 110 137 117 110 137 117 110 137 117 111 137 118 111 136 118 111 136 118 111 136 118 111 136 118 111 136 118 111 136 118 111 136 119 112 135 119 112 135 119 112 135 119 112 135 119 112 135 119 112 135 119 112 135 119 112 135 119 112 135 119 112 135 119 112 135 119 112 135 119 112 135 119 112 135 119 112 135 119 112 135 119 112 135 119 112 135 119 112 135 119 112 135 119 112 135 119 112 135 119 112 135 119 112 135 119 112 135 119 112 135 119 112 135 119 112 135 119 112 135 119 112 135 120 112 134 120 113 134 120 113 134 120 113 134 120 113 134 121 113 133 121 114 133 121 114 133 121 114 133 121 113 133 120 113 134 120 113 134 120 113 134 120 113 134 119 112 135 119 112 135 119 112 135 118 111 136 118 111 136 118 111 136 118 111 136 118 111 136 118 111 136 118 111 136 119 112 135 119 112 135 119 112 135 119 112 135 119 112 135 119 112 135 119 112 135 119 112 135 119 112 135 119 112 135 119 112 135 119 112 135 118 111 136 118 111 136 118 111 136 118 111 136 118 111 136 118 111 136 118 111 136 118 111 136 118 111 136 118 111 136 119 112 135 119 112 135 119 112 135 119 112 135 119 112 135 119 112 135 119 112 135 119 112 135 119 112 135 119 112 135 119 112 135 119 112 135 119 112 135 119 112 135 119 112 135 119 112 135 118 111 136 118 111 136 118 111 136 118 111 136 118 111 136 118 111 136 
118 111 136 118 111 136 118 111 136 118 111 136 118 111 136 118 111 136 118 111 136 118 111 136 118 111 136 118 111 136 118 111 136 118 111 136 118 111 136 118 111 136 118 111 136 118 111 136 118 111 136 118 111 136 118 111 136 118 111 136 118 111 136 118 111 136 118 111 136 118 111 136 118 111 136 118 111 136 118 111 136 118 111 136 118 111 136 118 111 136 118 111 136 118 111 136 118 111 136 118 111 136 118 111 136 118 111 136 118 111 136 118 111 136 118 111 136 118 111 136 118 111 136 118 111 136 118 111 136 118 111 136 118 111 136 118 111 136 118 111 136 118 111 136 118 111 136 118 111 136 118 111 136 118 111 136 118 111 136 118 111 136 118 111 136 118 111 136 119 112 135 119 112 135 119 112 135 119 112 135 118 111 136 118 111 136 118 111 136 118 111 136 118 111 136 118 111 136 117 110 137 117 110 137 117 110 137 117 110 137 117 110 137 117 110 137 117 110 137 117 110 137 117 110 137 117 111 137 118 111 136 118 111 136 118 111 136 118 111 136 118 111 136 118 111 136 118 111 136 118 111 136 118 111 136 118 111 136 118 111 136 118 111 136 118 111 136 118 111 136 118 111 136 119 112 135 119 112 135 119 112 135 119 112 135 119 112 135 119 112 135 119 112 135 119 112 135 119 112 135 120 113 134 120 113 134 120 113 134 120 113 134 120 113 134 120 113 134 120 112 134 119 112 135 119 112 135 119 112 135 119 112 135 119 112 135 119 112 135 120 112 134 120 113 134 120 113 134 120 113 134 120 113 134 120 113 134 120 113 134 120 113 134 120 113 134 120 113 134 120 113 134 120 113 134 120 113 134 119 112 135 119 112 135 119 112 135 119 112 135 119 112 135 118 111 136 118 111 136 118 111 136 118 111 136 118 111 136 119 112 135 119 112 135 119 112 135 119 112 135 119 112 135 119 112 135 119 112 135 119 112 135 119 112 135 119 112 135 119 112 135 119 112 135 119 112 135 118 111 136 118 111 136 118 111 136 118 111 136 118 111 136 118 111 136 118 111 136 118 111 136 118 111 136 118 111 136 119 112 135 119 112 135 119 112 135 119 112 135 119 112 135 119 112 135 120 112 134 120 113 134 120 113 134 120 112 134 119 112 135 119 112 135 119 112 135 119 112 135 119 112 135 119 112 135 119 112 135 118 111 136 118 111 136 118 111 136 118 111 136 118 111 136 
118 111 136 118 111 136 118 111 136 118 111 136 118 111 136 118 111 136 118 111 136 118 111 136 118 111 136 118 111 136 118 111 136 118 111 136 118 111 136 118 111 136 118 111 136 118 111 136 118 111 136 118 111 136 118 111 136 118 111 136 118 111 136 118 111 136 118 111 136 118 111 136 118 111 136 118 111 136 118 111 136 118 111 136 118 111 136 118 111 136 118 111 136 119 112 135 119 112 135 119 112 135 119 112 135 119 112 135 118 111 136 118 111 136 118 111 136 118 111 136 118 111 136 118 111 136 118 111 136 118 111 136 118 111 136 118 111 136 118 111 136 118 111 136 118 111 136 118 111 136 118 111 136 118 111 136 118 111 136 118 111 136 119 112 135 119 112 135 119 112 135 119 112 135 119 112 135 118 111 136 118 111 136 118 111 136 118 111 136 118 111 136 117 111 137 117 110 137 117 110 137 117 110 137 117 110 137 117 110 137 117 110 137 117 110 137 117 110 137 117 110 137 117 111 137 118 111 136 118 111 136 118 111 136 118 111 136 118 111 136 118 111 136 118 111 136 118 111 136 118 111 136 118 111 136 118 111 136 118 111 136 118 111 136 118 111 136 118 111 136 118 111 136 118 111 136 119 112 135 119 112 135 119 112 135 119 112 135 119 112 135 120 112 134 120 113 134 120 113 134 120 113 134 120 113 134 120 113 134 120 113 134 120 113 134 120 113 134 120 113 134 120 113 134 120 113 134 120 113 134 120 113 134 120 113 134 120 112 134 120 112 134 120 112 134 120 112 134 120 113 134 120 113 134 120 113 134 120 113 134 120 113 134 120 113 134 120 113 134 120 113 134 120 112 134 119 112 135 119 112 135 119 112 135 119 112 135 119 112 135 119 112 135 118 111 136 118 111 136 118 111 136 118 111 136 118 111 136 119 112 135 119 112 135 119 112 135 119 112 135 119 112 135 119 112 135 119 112 135 119 112 135 119 112 135 119 112 135 119 112 135 119 112 135 118 111 136 118 111 136 118 111 136 118 111 136 118 111 136 118 111 136 118 111 136 118 111 136 118 111 136 118 111 136 118 111 136 119 112 135 119 112 135 119 112 135 119 112 135 119 112 135 119 112 135 120 113 134 120 113 134 120 113 134 120 113 134 120 113 134 119 112 135 119 112 135 119 112 135 119 112 135 119 112 135 119 112 135 118 111 136 118 111 136 118 111 136 118 111 136 118 111 136 
118 111 136 118 111 136 118 111 136 118 111 136 118 111 136 118 111 136 118 111 136 118 111 136 118 111 136 118 111 136 118 111 136 118 111 136 118 111 136 118 111 136 118 111 136 118 111 136 118 111 136 118 111 136 118 111 136 118 111 136 118 111 136 118 111 136 118 111 136 118 111 136 118 111 136 118 111 136 118 111 136 118 111 136 118 111 136 119 112 135 119 112 135 119 112 135 119 112 135 119 112 135 119 112 135 119 112 135 118 111 136 118 111 136 118 111 136 118 111 136 118 111 136 118 111 136 118 111 136 118 111 136 118 111 136 118 111 136 118 111 136 118 111 136 118 111 136 118 111 136 118 111 136 118 111 136 119 112 135 119 112 135 119 112 135 119 112 135 119 112 135 119 112 135 118 111 136 118 111 136 118 111 136 118 111 136 118 111 136 118 111 136 117 110 137 117 110 137 117 110 137 117 110 137 117 110 137 117 110 137 117 110 137 117 110 137 117 111 137 118 111 136 118 111 136 118 111 136 118 111 136 118 111 136 118 111 136 118 111 136 118 111 136 118 111 136 118 111 136 118 111 136 118 111 136 118 111 136 118 111 136 118 111 136 118 111 136 118 111 136 118 111 136 118 111 136 119 112 135 119 112 135 119 112 135 119 112 135 119 112 135 120 113 134 120 113 134 120 113 134 120 113 134 120 113 134 121 113 133 121 114 133 121 114 133 121 114 133 121 113 133 120 113 134 120 113 134 120 113 134 120 113 134 120 113 134 120 113 134 119 112 135 119 112 135 119 112 135 119 112 135 119 112 135 119 112 135 119 112 135 119 112 135 119 112 135 119 112 135 119 112 135 119 112 135 119 112 135 119 112 135 119 112 135 119 112 135 119 112 135 119 112 135 118 111 136 118 111 136 118 111 136 118 111 136 118 111 136 119 112 135 119 112 135 119 112 135 119 112 135 119 112 135 119 112 135 119 112 135 119 112 135 119 112 135 119 112 135 119 112 135 118 111 136 118 111 136 118 111 136 118 111 136 118 111 136 118 111 136 118 111 136 118 111 136 118 111 136 118 111 136 118 111 136 118 111 136 119 112 135 119 112 135 119 112 135 119 112 135 119 112 135 119 112 135 120 113 134 120 113 134 120 113 134 120 113 134 120 113 134 119 112 135 119 112 135 119 112 135 119 112 135 119 112 135 119 112 135 118 111 136 118 111 136 118 111 136 118 111 136 118 111 136 
118 111 136 118 111 136 118 111 136 118 111 136 118 111 136 118 111 136 118 111 136 118 111 136 118 111 136 118 111 136 118 111 136 118 111 136 118 111 136 118 111 136 118 111 136 118 111 136 118 111 136 118 111 136 118 111 136 118 111 136 118 111 136 118 111 136 118 111 136 118 111 136 118 111 136 118 111 136 118 111 136 118 111 136 119 112 135 119 112 135 119 112 135 119 112 135 119 112 135 119 112 135 119 112 135 119 112 135 118 111 136 118 111 136 118 111 136 118 111 136 118 111 136 118 111 136 118 111 136 118 111 136 118 111 136 118 111 136 118 111 136 118 111 136 118 111 136 118 111 136 118 111 136 119 112 135 119 112 135 119 112 135 119 112 135 119 112 135 119 112 135 119 112 135 118 111 136 118 111 136 118 111 136 118 111 136 118 111 136 118 111 136 117 110 137 117 110 137 117 110 137 117 110 137 117 110 137 117 111 137 118 111 136 118 111 136 118 111 136 118 111 136 118 111 136 118 111 136 118 111 136 118 111 136 118 111 136 118 111 136 118 111 136 118 111 136 118 111 136 118 111 136 118 111 136 118 111 136 118 111 136 118 111 136 118 111 136 118 111 136 118 111 136 118 111 136 119 112 135 119 112 135 119 112 135 119 112 135 119 112 135 120 113 134 120 113 134 120 113 134 120 113 134 121 113 133 121 114 133 121 114 133 121 114 133 121 114 133 121 114 133 121 114 133 121 113 133 120 113 134 120 113 134 120 113 134 120 113 134 119 112 135 119 112 135 119 112 135 119 112 135 119 112 135 119 112 135 119 112 135 119 112 135 119 112 135 119 112 135 119 112 135 119 112 135 119 112 135 119 112 135 119 112 135 119 112 135 119 112 135 119 112 135 118 111 136 118 111 136 118 111 136 118 111 136 118 111 136 118 111 136 118 111 136 119 112 135 119 112 135 119 112 135 119 112 135 119 112 135 119 112 135 119 112 135 118 111 136 118 111 136 118 111 136 118 111 136 118 111 136 118 111 136 118 111 136 118 111 136 118 111 136 118 111 136 118 111 136 118 111 136 118 111 136 118 111 136 119 112 135 119 112 135 119 112 135 119 112 135 119 112 135 119 112 135 119 112 135 120 112 134 120 113 134 120 113 134 120 112 134 119 112 135 119 112 135 119 112 135 119 112 135 119 112 135 119 112 135 118 111 136 118 111 136 118 111 136 118 111 136 118 111 136 
118 111 136 118 111 136 118 111 136 118 111 136 118 111 136 118 111 136 118 111 136 118 111 136 118 111 136 118 111 136 118 111 136 118 111 136 118 111 136 118 111 136 118 111 136 118 111 136 118 111 136 118 111 136 118 111 136 118 111 136 118 111 136 118 111 136 118 111 136 118 111 136 118 111 136 118 111 136 118 111 136 118 111 136 119 112 135 119 112 135 119 112 135 119 112 135 119 112 135 119 112 135 119 112 135 118 111 136 118 111 136 118 111 136 118 111 136 118 111 136 118 111 136 118 111 136 118 111 136 118 111 136 118 111 136 118 111 136 118 111 136 118 111 136 118 111 136 118 111 136 118 111 136 119 112 135 119 112 135 119 112 135 119 112 135 119 112 135 119 112 135 119 112 135 118 111 136 118 111 136 118 111 136 118 111 136 118 111 136 118 111 136 118 111 136 118 111 136 118 111 136 118 111 136 118 111 136 118 111 136 118 111 136 118 111 136 118 111 136 118 111 136 118 111 136 118 111 136 118 111 136 118 111 136 118 111 136 118 111 136 118 111 136 118 111 136 118 111 136 118 111 136 118 111 136 118 111 136 118 111 136 118 111 136 118 111 136 118 111 136 118 111 136 119 112 135 119 112 135 119 112 135 119 112 135 119 112 135 119 112 135 119 112 135 120 113 134 120 113 134 120 113 134 120 113 134 121 114 133 121 114 133 121 114 133 121 114 133 121 114 133 121 114 133 121 114 133 120 113 134 120 113 134 120 113 134 120 112 134 119 112 135 119 112 135 119 112 135 118 111 136 118 111 136 118 111 136 118 111 136 118 111 136 118 111 136 118 111 136 118 111 136 118 111 136 118 111 136 118 111 136 118 111 136 118 111 136 118 111 136 118 111 136 118 111 136 118 111 136 118 111 136 118 111 136 118 111 136 118 111 136 118 111 136 118 111 136 118 111 136 118 111 136 118 111 136 118 111 136 118 111 136 118 111 136 118 111 136 118 111 136 118 111 136 118 111 136 118 111 136 118 111 136 118 111 136 118 111 136 118 111 136 118 111 136 118 111 136 118 111 136 118 111 136 118 111 136 119 112 135 119 112 135 119 112 135 119 112 135 119 112 135 119 112 135 119 112 135 119 112 135 119 112 135 119 112 135 119 112 135 119 112 135 119 112 135 119 112 135 119 112 135 119 112 135 119 112 135 118 111 136 118 111 136 118 111 136 118 111 136 118 111 136 
118 111 136 118 111 136 118 111 136 118 111 136 118 111 136 118 111 136 118 111 136 118 111 136 118 111 136 118 111 136 118 111 136 118 111 136 118 111 136 118 111 136 118 111 136 118 111 136 118 111 136 118 111 136 118 111 136 118 111 136 118 111 136 118 111 136 118 111 136 118 111 136 118 111 136 118 111 136 118 111 136 118 111 136 118 111 136 118 111 136 119 112 135 119 112 135 119 112 135 118 111 136 118 111 136 118 111 136 118 111 136 118 111 136 118 111 136 118 111 136 118 111 136 118 111 136 118 111 136 118 111 136 118 111 136 118 111 136 118 111 136 118 111 136 118 111 136 118 111 136 119 112 135 119 112 135 119 112 135 119 112 135 119 112 135 119 112 135 119 112 135 119 112 135 118 111 136 118 111 136 118 111 136 118 111 136 118 111 136 118 111 136 118 111 136 118 111 136 118 111 136 118 111 136 118 111 136 119 112 135 119 112 135 119 112 135 119 112 135 119 112 135 119 112 135 119 112 135 119 112 135 119 112 135 119 112 135 119 112 135 118 111 136 118 111 136 118 111 136 118 111 136 118 111 136 118 111 136 119 112 135 119 112 135 119 112 135 119 112 135 119 112 135 119 112 135 119 112 135 119 112 135 119 112 135 119 112 135 119 112 135 119 112 135 119 112 135 120 113 134 120 113 134 120 113 134 120 113 134 121 113 133 121 114 133 121 114 133 121 114 133 121 114 133 121 113 133 120 113 134 120 113 134 120 113 134 119 112 135 119 112 135 119 112 135 118 111 136 118 111 136 118 111 136 118 111 136 118 111 136 118 111 136 118 111 136 118 111 136 118 111 136 118 111 136 118 111 136 118 111 136 118 111 136 118 111 136 118 111 136 118 111 136 118 111 136 118 111 136 118 111 136 118 111 136 118 111 136 118 111 136 118 111 136 118 111 136 118 111 136 118 111 136 118 111 136 118 111 136 118 111 136 118 111 136 118 111 136 118 111 136 118 111 136 118 111 136 118 111 136 118 111 136 118 111 136 118 111 136 118 111 136 118 111 136 118 111 136 118 111 136 118 111 136 118 111 136 118 111 136 119 112 135 119 112 135 119 112 135 119 112 135 119 112 135 119 112 135 119 112 135 119 112 135 119 112 135 119 112 135 119 112 135 119 112 135 119 112 135 119 112 135 119 112 135 118 111 136 118 111 136 118 111 136 118 111 136 118 111 136 118 111 136 
118 111 136 118 111 136 118 111 136 118 111 136 118 111 136 118 111 136 118 111 136 118 111 136 118 111 136 118 111 136 118 111 136 118 111 136 118 111 136 118 111 136 118 111 136 118 111 136 118 111 136 118 111 136 118 111 136 118 111 136 118 111 136 118 111 136 118 111 136 118 111 136 118 111 136 118 111 136 118 111 136 118 111 136 118 111 136 118 111 136 118 111 136 118 111 136 118 111 136 118 111 136 118 111 136 118 111 136 118 111 136 118 111 136 118 111 136 118 111 136 118 111 136 118 111 136 118 111 136 118 111 136 118 111 136 118 111 136 118 111 136 118 111 136 118 111 136 118 111 136 118 111 136 119 112 135 119 112 135 119 112 135 119 112 135 119 112 135 118 111 136 118 111 136 118 111 136 118 111 136 118 111 136 118 111 136 118 111 136 118 111 136 118 111 136 119 112 135 119 112 135 119 112 135 119 112 135 119 112 135 119 112 135 119 112 135 119 112 135 119 112 135 119 112 135 119 112 135 119 112 135 119 112 135 119 112 135 119 112 135 119 112 135 119 112 135 119 112 135 119 112 135 119 112 135 119 112 135 119 112 135 119 112 135 119 112 135 119 112 135 119 112 135 119 112 135 119 112 135 119 112 135 119 112 135 119 112 135 119 112 135 119 112 135 119 112 135 119 112 135 119 112 135 120 113 134 120 113 134 120 113 134 120 113 134 120 113 134 120 113 134 120 113 134 120 113 134 120 113 134 120 113 134 120 113 134 119 112 135 119 112 135 119 112 135 118 111 136 118 111 136 118 111 136 118 111 136 118 111 136 118 111 136 118 111 136 118 111 136 118 111 136 118 111 136 118 111 136 118 111 136 118 111 136 118 111 136 118 111 136 118 111 136 118 111 136 118 111 136 118 111 136 118 111 136 118 111 136 118 111 136 118 111 136 118 111 136 118 111 136 118 111 136 118 111 136 118 111 136 118 111 136 118 111 136 118 111 136 118 111 136 118 111 136 118 111 136 118 111 136 118 111 136 118 111 136 118 111 136 118 111 136 118 111 136 118 111 136 118 111 136 118 111 136 118 111 136 118 111 136 119 112 135 119 112 135 119 112 135 119 112 135 119 112 135 119 112 135 119 112 135 119 112 135 119 112 135 119 112 135 119 112 135 119 112 135 119 112 135 119 112 135 118 111 136 118 111 136 118 111 136 118 111 136 118 111 136 118 111 136 118 111 136 
118 111 136 118 111 136 118 111 136 118 111 136 118 111 136 118 111 136 118 111 136 118 111 136 118 111 136 118 111 136 118 111 136 118 111 136 118 111 136 118 111 136 118 111 136 118 111 136 118 111 136 118 111 136 118 111 136 118 111 136 118 111 136 118 111 136 118 111 136 118 111 136 118 111 136 118 111 136 118 111 136 118 111 136 118 111 136 118 111 136 118 111 136 118 111 136 118 111 136 118 111 136 118 111 136 118 111 136 118 111 136 118 111 136 118 111 136 118 111 136 118 111 136 118 111 136 118 111 136 118 111 136 118 111 136 118 111 136 118 111 136 118 111 136 118 111 136 118 111 136 118 111 136 118 111 136 118 111 136 118 111 136 118 111 136 118 111 136 118 111 136 118 111 136 118 111 136 118 111 136 118 111 136 118 111 136 118 111 136 119 112 135 119 112 135 119 112 135 119 112 135 119 112 135 119 112 135 120 112 134 120 113 134 120 113 134 120 113 134 119 112 135 119 112 135 119 112 135 119 112 135 119 112 135 119 112 135 119 112 135 119 112 135 119 112 135 119 112 135 119 112 135 119 112 135 119 112 135 119 112 135 119 112 135 119 112 135 119 112 135 119 112 135 119 112 135 119 112 135 119 112 135 118 111 136 118 111 136 118 111 136 118 111 136 118 111 136 119 112 135 119 112 135 119 112 135 119 112 135 119 112 135 120 113 134 120 113 134 120 113 134 120 113 134 120 113 134 120 113 134 120 113 134 119 112 135 119 112 135 119 112 135 119 112 135 118 111 136 118 111 136 118 111 136 118 111 136 118 111 136 118 111 136 118 111 136 118 111 136 118 111 136 118 111 136 118 111 136 118 111 136 118 111 136 118 111 136 118 111 136 118 111 136 118 111 136 118 111 136 118 111 136 118 111 136 118 111 136 118 111 136 118 111 136 118 111 136 118 111 136 118 111 136 118 111 136 118 111 136 118 111 136 118 111 136 118 111 136 118 111 136 118 111 136 118 111 136 118 111 136 118 111 136 118 111 136 118 111 136 118 111 136 118 111 136 118 111 136 118 111 136 118 111 136 118 111 136 118 111 136 118 111 136 119 112 135 119 112 135 119 112 135 119 112 135 119 112 135 119 112 135 119 112 135 119 112 135 119 112 135 119 112 135 119 112 135 118 111 136 118 111 136 118 111 136 118 111 136 118 111 136 118 111 136 118 111 136 118 111 136 118 111 136 
118 111 136 118 111 136 118 111 136 118 111 136 118 111 136 118 111 136 118 111 136 118 111 136 118 111 136 118 111 136 118 111 136 118 111 136 118 111 136 118 111 136 118 111 136 118 111 136 118 111 136 118 111 136 118 111 136 118 111 136 118 111 136 118 111 136 118 111 136 118 111 136 118 111 136 118 111 136 118 111 136 118 111 136 118 111 136 118 111 136 118 111 136 118 111 136 118 111 136 118 111 136 118 111 136 118 111 136 118 111 136 118 111 136 118 111 136 118 111 136 118 111 136 118 111 136 118 111 136 118 111 136 118 111 136 118 111 136 118 111 136 118 111 136 118 111 136 118 111 136 118 111 136 118 111 136 118 111 136 118 111 136 118 111 136 118 111 136 118 111 136 118 111 136 118 111 136 118 111 136 118 111 136 119 112 135 119 112 135 119 112 135 119 112 135 119 112 135 119 112 135 120 113 134 120 113 134 120 113 134 120 113 134 120 113 134 120 113 134 120 113 134 119 112 135 119 112 135 119 112 135 119 112 135 119 112 135 119 112 135 119 112 135 119 112 135 119 112 135 119 112 135 119 112 135 119 112 135 119 112 135 119 112 135 119 112 135 119 112 135 119 112 135 119 112 135 119 112 135 119 112 135 118 111 136 118 111 136 118 111 136 118 111 136 118 111 136 118 111 136 118 111 136 118 111 136 119 112 135 119 112 135 119 112 135 119 112 135 119 112 135 119 112 135 120 112 134 119 112 135 119 112 135 119 112 135 119 112 135 119 112 135 119 112 135 119 112 135 118 111 136 118 111 136 118 111 136 118 111 136 118 111 136 118 111 136 118 111 136 118 111 136 118 111 136 118 111 136 118 111 136 118 111 136 118 111 136 118 111 136 118 111 136 118 111 136 118 111 136 118 111 136 118 111 136 118 111 136 118 111 136 118 111 136 118 111 136 118 111 136 118 111 136 118 111 136 118 111 136 118 111 136 118 111 136 118 111 136 118 111 136 118 111 136 118 111 136 118 111 136 118 111 136 118 111 136 118 111 136 118 111 136 118 111 136 118 111 136 118 111 136 118 111 136 118 111 136 118 111 136 118 111 136 118 111 136 118 111 136 118 111 136 119 112 135 119 112 135 119 112 135 119 112 135 119 112 135 118 111 136 118 111 136 118 111 136 118 111 136 118 111 136 118 111 136 118 111 136 118 111 136 118 111 136 118 111 136 118 111 136 118 111 136 
118 111 136 118 111 136 118 111 136 118 111 136 118 111 136 118 111 136 118 111 136 118 111 136 118 111 136 118 111 136 118 111 136 118 111 136 118 111 136 118 111 136 118 111 136 118 111 136 118 111 136 118 111 136 118 111 136 118 111 136 118 111 136 118 111 136 118 111 136 118 111 136 118 111 136 118 111 136 118 111 136 118 111 136 118 111 136 118 111 136 118 111 136 118 111 136 118 111 136 118 111 136 118 111 136 118 111 136 118 111 136 118 111 136 118 111 136 118 111 136 118 111 136 118 111 136 118 111 136 118 111 136 118 111 136 118 111 136 118 111 136 118 111 136 118 111 136 118 111 136 118 111 136 118 111 136 118 111 136 118 111 136 118 111 136 118 111 136 118 111 136 118 111 136 118 111 136 118 111 136 118 111 136 119 112 135 119 112 135 119 112 135 119 112 135 120 112 134 120 113 134 120 113 134 120 113 134 120 113 134 120 113 134 120 113 134 120 113 134 120 113 134 119 112 135 119 112 135 119 112 135 119 112 135 119 112 135 119 112 135 119 112 135 119 112 135 119 112 135 119 112 135 119 112 135 120 113 134 120 113 134 120 113 134 120 113 134 120 112 134 119 112 135 119 112 135 119 112 135 119 112 135 118 111 136 118 111 136 118 111 136 118 111 136 118 111 136 118 111 136 118 111 136 118 111 136 118 111 136 118 111 136 118 111 136 119 112 135 119 112 135 119 112 135 119 112 135 119 112 135 119 112 135 119 112 135 119 112 135 119 112 135 119 112 135 119 112 135 119 112 135 119 112 135 118 111 136 118 111 136 118 111 136 118 111 136 118 111 136 118 111 136 118 111 136 118 111 136 118 111 136 118 111 136 118 111 136 118 111 136 118 111 136 118 111 136 118 111 136 118 111 136 118 111 136 118 111 136 118 111 136 118 111 136 118 111 136 118 111 136 118 111 136 118 111 136 118 111 136 118 111 136 118 111 136 118 111 136 118 111 136 118 111 136 118 111 136 118 111 136 118 111 136 118 111 136 118 111 136 118 111 136 118 111 136 118 111 136 118 111 136 118 111 136 118 111 136 118 111 136 118 111 136 118 111 136 118 111 136 118 111 136 118 111 136 118 111 136 118 111 136 118 111 136 118 111 136 118 111 136 118 111 136 118 111 136 118 111 136 118 111 136 118 111 136 118 111 136 118 111 136 118 111 136 118 111 136 118 111 136 118 111 136 
118 111 136 118 111 136 118 111 136 118 111 136 118 111 136 118 111 136 118 111 136 118 111 136 118 111 136 118 111 136 118 111 136 118 111 136 118 111 136 118 111 136 118 111 136 118 111 136 118 111 136 118 111 136 118 111 136 118 111 136 118 111 136 118 111 136 118 111 136 118 111 136 118 111 136 118 111 136 118 111 136 118 111 136 118 111 136 118 111 136 118 111 136 118 111 136 118 111 136 118 111 136 118 111 136 118 111 136 118 111 136 118 111 136 118 111 136 118 111 136 118 111 136 118 111 136 118 111 136 118 111 136 118 111 136 118 111 136 118 111 136 118 111 136 118 111 136 118 111 136 118 111 136 118 111 136 118 111 136 118 111 136 118 111 136 118 111 136 118 111 136 118 111 136 118 111 136 118 111 136 118 111 136 119 112 135 119 112 135 119 112 135 119 112 135 120 113 134 120 113 134 120 113 134 120 113 134 120 113 134 120 113 134 120 113 134 120 113 134 120 112 134 119 112 135 119 112 135 119 112 135 119 112 135 119 112 135 119 112 135 119 112 135 119 112 135 119 112 135 119 112 135 120 112 134 120 113 134 120 113 134 120 113 134 120 113 134 120 113 134 119 112 135 119 112 135 119 112 135 119 112 135 118 111 136 118 111 136 118 111 136 118 111 136 117 111 137 117 110 137 117 110 137 118 111 136 118 111 136 118 111 136 118 111 136 118 111 136 118 111 136 118 111 136 118 111 136 119 112 135 119 112 135 119 112 135 119 112 135 119 112 135 119 112 135 119 112 135 119 112 135 119 112 135 119 112 135 119 112 135 119 112 135 119 112 135 119 112 135 119 112 135 119 112 135 119 112 135 119 112 135 119 112 135 118 111 136 118 111 136 118 111 136 118 111 136 118 111 136 118 111 136 118 111 136 118 111 136 118 111 136 118 111 136 118 111 136 118 111 136 118 111 136 118 111 136 118 111 136 118 111 136 118 111 136 118 111 136 118 111 136 118 111 136 118 111 136 118 111 136 118 111 136 118 111 136 118 111 136 118 111 136 118 111 136 118 111 136 118 111 136 118 111 136 118 111 136 118 111 136 118 111 136 118 111 136 118 111 136 118 111 136 118 111 136 118 111 136 118 111 136 118 111 136 118 111 136 118 111 136 118 111 136 118 111 136 118 111 136 118 111 136 118 111 136 118 111 136 118 111 136 118 111 136 118 111 136 118 111 136 118 111 136 
118 111 136 118 111 136 118 111 136 118 111 136 118 111 136 118 111 136 118 111 136 118 111 136 118 111 136 118 111 136 118 111 136 118 111 136 118 111 136 118 111 136 118 111 136 118 111 136 118 111 136 118 111 136 118 111 136 118 111 136 118 111 136 118 111 136 118 111 136 118 111 136 118 111 136 118 111 136 118 111 136 118 111 136 118 111 136 118 111 136 118 111 136 118 111 136 118 111 136 118 111 136 118 111 136 118 111 136 118 111 136 118 111 136 118 111 136 118 111 136 118 111 136 118 111 136 118 111 136 118 111 136 118 111 136 118 111 136 118 111 136 118 111 136 118 111 136 118 111 136 118 111 136 118 111 136 118 111 136 118 111 136 118 111 136 118 111 136 118 111 136 118 111 136 118 111 136 118 111 136 118 111 136 119 112 135 119 112 135 119 112 135 119 112 135 120 112 134 120 113 134 120 113 134 120 113 134 120 113 134 120 113 134 120 113 134 119 112 135 119 112 135 119 112 135 119 112 135 119 112 135 119 112 135 119 112 135 119 112 135 119 112 135 119 112 135 119 112 135 119 112 135 120 113 134 120 113 134 120 113 134 120 113 134 120 113 134 120 113 134 120 112 134 119 112 135 119 112 135 119 112 135 118 111 136 118 111 136 118 111 136 118 111 136 117 111 137 117 110 137 117 110 137 117 110 137 117 110 137 117 111 137 118 111 136 118 111 136 118 111 136 118 111 136 118 111 136 118 111 136 118 111 136 118 111 136 119 112 135 119 112 135 119 112 135 119 112 135 119 112 135 119 112 135 119 112 135 119 112 135 119 112 135 119 112 135 119 112 135 119 112 135 119 112 135 119 112 135 119 112 135 119 112 135 119 112 135 118 111 136 118 111 136 118 111 136 118 111 136 118 111 136 118 111 136 118 111 136 118 111 136 118 111 136 118 111 136 118 111 136 118 111 136 118 111 136 118 111 136 118 111 136 118 111 136 118 111 136 118 111 136 118 111 136 118 111 136 118 111 136 118 111 136 118 111 136 118 111 136 118 111 136 118 111 136 118 111 136 118 111 136 118 111 136 118 111 136 118 111 136 118 111 136 118 111 136 118 111 136 118 111 136 118 111 136 118 111 136 118 111 136 118 111 136 118 111 136 118 111 136 118 111 136 118 111 136 118 111 136 118 111 136 118 111 136 118 111 136 118 111 136 118 111 136 118 111 136 118 111 136 118 111 136 
118 111 136 118 111 136 118 111 136 118 111 136 118 111 136 118 111 136 118 111 136 118 111 136 118 111 136 118 111 136 118 111 136 118 111 136 118 111 136 118 111 136 118 111 136 118 111 136 118 111 136 118 111 136 118 111 136 118 111 136 118 111 136 118 111 136 118 111 136 118 111 136 118 111 136 118 111 136 118 111 136 118 111 136 118 111 136 118 111 136 118 111 136 118 111 136 118 111 136 118 111 136 118 111 136 118 111 136 118 111 136 118 111 136 118 111 136 118 111 136 118 111 136 118 111 136 118 111 136 118 111 136 118 111 136 118 111 136 118 111 136 118 111 136 118 111 136 118 111 136 118 111 136 118 111 136 118 111 136 118 111 136 118 111 136 118 111 136 118 111 136 118 111 136 118 111 136 118 111 136 118 111 136 119 112 135 119 112 135 119 112 135 119 112 135 119 112 135 119 112 135 120 112 134 120 112 134 120 112 134 119 112 135 119 112 135 119 112 135 119 112 135 119 112 135 119 112 135 119 112 135 119 112 135 119 112 135 119 112 135 119 112 135 119 112 135 119 112 135 119 112 135 119 112 135 120 113 134 120 113 134 120 113 134 120 113 134 120 113 134 120 112 134 119 112 135 119 112 135 119 112 135 119 112 135 118 111 136 118 111 136 118 111 136 118 111 136 118 111 136 117 111 137 117 110 137 117 110 137 117 110 137 117 110 137 117 111 137 118 111 136 118 111 136 118 111 136 118 111 136 118 111 136 118 111 136 118 111 136 119 112 135 119 112 135 119 112 135 119 112 135 120 113 134 120 113 134 120 113 134 120 113 134 120 113 134 120 113 134 120 113 134 120 113 134 119 112 135 119 112 135 119 112 135 119 112 135 118 111 136 118 111 136 118 111 136 118 111 136 118 111 136 118 111 136 118 111 136 118 111 136 118 111 136 118 111 136 118 111 136 118 111 136 118 111 136 118 111 136 118 111 136 118 111 136 118 111 136 118 111 136 118 111 136 118 111 136 118 111 136 118 111 136 118 111 136 118 111 136 118 111 136 118 111 136 118 111 136 118 111 136 118 111 136 118 111 136 118 111 136 118 111 136 118 111 136 118 111 136 118 111 136 118 111 136 118 111 136 118 111 136 118 111 136 118 111 136 118 111 136 118 111 136 118 111 136 118 111 136 118 111 136 118 111 136 118 111 136 118 111 136 118 111 136 118 111 136 118 111 136 118 111 136 
118 111 136 118 111 136 118 111 136 118 111 136 118 111 136 118 111 136 118 111 136 118 111 136 118 111 136 118 111 136 118 111 136 118 111 136 118 111 136 118 111 136 118 111 136 118 111 136 118 111 136 118 111 136 118 111 136 118 111 136 118 111 136 118 111 136 118 111 136 118 111 136 118 111 136 118 111 136 118 111 136 118 111 136 118 111 136 118 111 136 118 111 136 118 111 136 118 111 136 118 111 136 118 111 136 118 111 136 118 111 136 118 111 136 118 111 136 118 111 136 118 111 136 118 111 136 118 111 136 118 111 136 118 111 136 118 111 136 118 111 136 118 111 136 118 111 136 118 111 136 118 111 136 118 111 136 118 111 136 118 111 136 118 111 136 118 111 136 118 111 136 118 111 136 118 111 136 118 111 136 118 111 136 118 111 136 119 112 135 119 112 135 119 112 135 119 112 135 119 112 135 119 112 135 119 112 135 119 112 135 119 112 135 119 112 135 119 112 135 119 112 135 119 112 135 118 111 136 118 111 136 118 111 136 118 111 136 118 111 136 119 112 135 119 112 135 119 112 135 119 112 135 119 112 135 119 112 135 120 113 134 120 113 134 120 113 134 120 113 134 119 112 135 119 112 135 119 112 135 119 112 135 119 112 135 119 112 135 118 111 136 118 111 136 118 111 136 118 111 136 118 111 136 118 111 136 118 111 136 118 111 136 117 111 137 117 110 137 117 110 137 117 110 137 117 111 137 118 111 136 118 111 136 118 111 136 118 111 136 119 112 135 119 112 135 119 112 135 120 113 134 120 113 134 120 113 134 120 113 134 120 113 134 120 113 134 120 113 134 120 113 134 120 113 134 120 113 134 119 112 135 119 112 135 119 112 135 119 112 135 118 111 136 118 111 136 118 111 136 118 111 136 118 111 136 118 111 136 118 111 136 118 111 136 118 111 136 118 111 136 118 111 136 118 111 136 118 111 136 118 111 136 118 111 136 118 111 136 118 111 136 118 111 136 118 111 136 118 111 136 118 111 136 118 111 136 118 111 136 118 111 136 118 111 136 118 111 136 118 111 136 118 111 136 118 111 136 118 111 136 118 111 136 118 111 136 118 111 136 118 111 136 118 111 136 118 111 136 118 111 136 118 111 136 118 111 136 118 111 136 118 111 136 118 111 136 118 111 136 118 111 136 118 111 136 118 111 136 118 111 136 118 111 136 118 111 136 118 111 136 118 111 136 
118 111 136 118 111 136 118 111 136 118 111 136 118 111 136 118 111 136 118 111 136 118 111 136 118 111 136 118 111 136 118 111 136 118 111 136 118 111 136 118 111 136 118 111 136 118 111 136 118 111 136 118 111 136 118 111 136 118 111 136 118 111 136 118 111 136 118 111 136 118 111 136 118 111 136 118 111 136 118 111 136 118 111 136 118 111 136 118 111 136 118 111 136 118 111 136 118 111 136 118 111 136 118 111 136 118 111 136 118 111 136 118 111 136 118 111 136 118 111 136 118 111 136 118 111 136 118 111 136 118 111 136 118 111 136 118 111 136 118 111 136 118 111 136 118 111 136 118 111 136 118 111 136 118 111 136 118 111 136 118 111 136 118 111 136 118 111 136 118 111 136 118 111 136 118 111 136 118 111 136 118 111 136 118 111 136 118 111 136 118 111 136 119 112 135 119 112 135 119 112 135 119 112 135 119 112 135 119 112 135 119 112 135 118 111 136 118 111 136 118 111 136 118 111 136 118 111 136 118 111 136 118 111 136 118 111 136 118 111 136 118 111 136 119 112 135 119 112 135 119 112 135 119 112 135 119 112 135 119 112 135 119 112 135 119 112 135 119 112 135 119 112 135 119 112 135 119 112 135 119 112 135 119 112 135 119 112 135 119 112 135 119 112 135 119 112 135 118 111 136 118 111 136 118 111 136 118 111 136 118 111 136 118 111 136 118 111 136 117 111 137 117 110 137 117 110 137 118 111 136 118 111 136 118 111 136 118 111 136 119 112 135 119 112 135 119 112 135 120 113 134 120 113 134 120 113 134 121 113 133 121 113 133 121 114 133 121 113 133 120 113 134 120 113 134 120 113 134 120 112 134 119 112 135 119 112 135 119 112 135 118 111 136 118 111 136 118 111 136 118 111 136 118 111 136 118 111 136 118 111 136 118 111 136 118 111 136 118 111 136 118 111 136 118 111 136 118 111 136 118 111 136 118 111 136 118 111 136 118 111 136 118 111 136 118 111 136 118 111 136 118 111 136 118 111 136 118 111 136 118 111 136 118 111 136 118 111 136 118 111 136 118 111 136 118 111 136 118 111 136 118 111 136 118 111 136 118 111 136 118 111 136 118 111 136 118 111 136 118 111 136 118 111 136 118 111 136 118 111 136 118 111 136 118 111 136 118 111 136 118 111 136 118 111 136 118 111 136 118 111 136 118 111 136 118 111 136 118 111 136 118 111 136 
118 111 136 118 111 136 118 111 136 118 111 136 118 111 136 118 111 136 118 111 136 118 111 136 118 111 136 118 111 136 118 111 136 118 111 136 118 111 136 118 111 136 118 111 136 118 111 136 118 111 136 118 111 136 118 111 136 118 111 136 118 111 136 118 111 136 118 111 136 118 111 136 118 111 136 118 111 136 118 111 136 118 111 136 118 111 136 118 111 136 118 111 136 118 111 136 118 111 136 118 111 136 118 111 136 118 111 136 118 111 136 118 111 136 118 111 136 118 111 136 118 111 136 118 111 136 118 111 136 118 111 136 118 111 136 118 111 136 118 111 136 118 111 136 118 111 136 118 111 136 118 111 136 118 111 136 118 111 136 118 111 136 118 111 136 118 111 136 118 111 136 118 111 136 118 111 136 118 111 136 118 111 136 118 111 136 118 111 136 118 111 136 118 111 136 118 111 136 118 111 136 118 111 136 118 111 136 118 111 136 118 111 136 118 111 136 118 111 136 118 111 136 118 111 136 118 111 136 118 111 136 118 111 136 118 111 136 118 111 136 118 111 136 118 111 136 119 112 135 119 112 135 119 112 135 119 112 135 119 112 135 119 112 135 119 112 135 119 112 135 119 112 135 119 112 135 119 112 135 119 112 135 119 112 135 119 112 135 119 112 135 119 112 135 119 112 135 119 112 135 119 112 135 119 112 135 119 112 135 118 111 136 118 111 136 118 111 136 118 111 136 118 111 136 118 111 136 118 111 136 118 111 136 118 111 136 118 111 136 118 111 136 119 112 135 119 112 135 120 113 134 120 113 134 120 113 134 121 113 133 121 114 133 121 114 133 121 114 133 121 113 133 120 113 134 120 113 134 120 113 134 119 112 135 119 112 135 119 112 135 118 111 136 118 111 136 118 111 136 118 111 136 118 111 136 118 111 136 118 111 136 118 111 136 118 111 136 118 111 136 118 111 136 118 111 136 119 112 135 119 112 135 119 112 135 119 112 135 119 112 135 118 111 136 118 111 136 118 111 136 118 111 136 118 111 136 118 111 136 118 111 136 118 111 136 118 111 136 118 111 136 118 111 136 118 111 136 118 111 136 118 111 136 118 111 136 118 111 136 118 111 136 118 111 136 118 111 136 118 111 136 119 112 135 119 112 135 119 112 135 119 112 135 119 112 135 119 112 135 119 112 135 119 112 135 119 112 135 119 112 135 119 112 135 118 111 136 118 111 136 118 111 136 
118 111 136 118 111 136 118 111 136 118 111 136 118 111 136 118 111 136 118 111 136 118 111 136 118 111 136 118 111 136 118 111 136 118 111 136 118 111 136 118 111 136 118 111 136 118 111 136 118 111 136 118 111 136 118 111 136 118 111 136 118 111 136 118 111 136 118 111 136 118 111 136 118 111 136 118 111 136 118 111 136 118 111 136 118 111 136 118 111 136 119 112 135 119 112 135 119 112 135 119 112 135 119 112 135 119 112 135 119 112 135 118 111 136 118 111 136 118 111 136 118 111 136 118 111 136 118 111 136 118 111 136 118 111 136 118 111 136 118 111 136 118 111 136 118 111 136 118 111 136 118 111 136 118 111 136 118 111 136 118 111 136 118 111 136 118 111 136 118 111 136 118 111 136 118 111 136 118 111 136 118 111 136 118 111 136 118 111 136 118 111 136 118 111 136 118 111 136 118 111 136 118 111 136 118 111 136 118 111 136 118 111 136 118 111 136 118 111 136 118 111 136 118 111 136 118 111 136 118 111 136 118 111 136 118 111 136 118 111 136 118 111 136 118 111 136 118 111 136 118 111 136 119 112 135 119 112 135 119 112 135 119 112 135 119 112 135 119 112 135 119 112 135 119 112 135 119 112 135 119 112 135 119 112 135 120 113 134 120 113 134 120 113 134 120 113 134 120 113 134 120 113 134 119 112 135 119 112 135 119 112 135 119 112 135 118 111 136 118 111 136 118 111 136 118 111 136 118 111 136 118 111 136 118 111 136 118 111 136 118 111 136 119 112 135 119 112 135 119 112 135 120 113 134 120 113 134 120 113 134 121 114 133 121 114 133 121 114 133 120 113 134 120 113 134 120 113 134 120 113 134 119 112 135 119 112 135 119 112 135 118 111 136 118 111 136 118 111 136 118 111 136 118 111 136 118 111 136 118 111 136 118 111 136 118 111 136 118 111 136 118 111 136 119 112 135 119 112 135 119 112 135 119 112 135 119 112 135 119 112 135 119 112 135 118 111 136 118 111 136 118 111 136 118 111 136 118 111 136 118 111 136 118 111 136 118 111 136 118 111 136 118 111 136 118 111 136 118 111 136 118 111 136 118 111 136 118 111 136 118 111 136 118 111 136 119 112 135 119 112 135 119 112 135 119 112 135 119 112 135 119 112 135 119 112 135 119 112 135 119 112 135 119 112 135 119 112 135 119 112 135 119 112 135 119 112 135 119 112 135 119 112 135 
118 111 136 118 111 136 118 111 136 118 111 136 118 111 136 118 111 136 118 111 136 118 111 136 118 111 136 118 111 136 118 111 136 118 111 136 118 111 136 118 111 136 118 111 136 118 111 136 118 111 136 118 111 136 118 111 136 118 111 136 118 111 136 118 111 136 118 111 136 118 111 136 118 111 136 118 111 136 118 111 136 118 111 136 119 112 135 119 112 135 119 112 135 119 112 135 119 112 135 119 112 135 119 112 135 119 112 135 119 112 135 119 112 135 118 111 136 118 111 136 118 111 136 118 111 136 118 111 136 118 111 136 118 111 136 118 111 136 118 111 136 118 111 136 118 111 136 118 111 136 118 111 136 118 111 136 119 112 135 119 112 135 119 112 135 119 112 135 119 112 135 118 111 136 118 111 136 118 111 136 118 111 136 118 111 136 118 111 136 118 111 136 118 111 136 118 111 136 118 111 136 118 111 136 118 111 136 118 111 136 118 111 136 118 111 136 118 111 136 118 111 136 118 111 136 118 111 136 118 111 136 118 111 136 118 111 136 118 111 136 118 111 136 118 111 136 118 111 136 118 111 136 118 111 136 118 111 136 118 111 136 119 112 135 119 112 135 119 112 135 119 112 135 119 112 135 119 112 135 119 112 135 120 113 134 120 113 134 120 113 134 120 113 134 120 113 134 120 113 134 120 113 134 120 113 134 120 113 134 120 113 134 119 112 135 119 112 135 119 112 135 118 111 136 118 111 136 118 111 136 118 111 136 118 111 136 118 111 136 118 111 136 119 112 135 119 112 135 119 112 135 120 113 134 120 113 134 120 113 134 120 113 134 120 113 134 120 113 134 120 113 134 120 113 134 120 113 134 119 112 135 119 112 135 119 112 135 118 111 136 118 111 136 118 111 136 118 111 136 118 111 136 118 111 136 118 111 136 118 111 136 118 111 136 118 111 136 118 111 136 118 111 136 119 112 135 119 112 135 119 112 135 119 112 135 119 112 135 119 112 135 119 112 135 118 111 136 118 111 136 118 111 136 118 111 136 118 111 136 118 111 136 118 111 136 118 111 136 118 111 136 118 111 136 118 111 136 118 111 136 118 111 136 118 111 136 118 111 136 118 111 136 119 112 135 119 112 135 119 112 135 119 112 135 119 112 135 119 112 135 119 112 135 119 112 135 119 112 135 119 112 135 119 112 135 119 112 135 119 112 135 119 112 135 119 112 135 119 112 135 119 112 135 
118 111 136 118 111 136 118 111 136 118 111 136 118 111 136 118 111 136 118 111 136 118 111 136 118 111 136 118 111 136 118 111 136 118 111 136 118 111 136 118 111 136 118 111 136 118 111 136 118 111 136 118 111 136 118 111 136 118 111 136 118 111 136 118 111 136 118 111 136 118 111 136 118 111 136 118 111 136 118 111 136 119 112 135 119 112 135 119 112 135 119 112 135 119 112 135 119 112 135 119 112 135 119 112 135 119 112 135 119 112 135 119 112 135 119 112 135 118 111 136 118 111 136 118 111 136 118 111 136 118 111 136 118 111 136 118 111 136 118 111 136 118 111 136 118 111 136 118 111 136 118 111 136 119 112 135 119 112 135 119 112 135 119 112 135 119 112 135 119 112 135 119 112 135 118 111 136 118 111 136 118 111 136 118 111 136 118 111 136 118 111 136 118 111 136 117 111 137 117 110 137 117 110 137 117 110 137 117 110 137 117 110 137 117 111 137 117 111 137 118 111 136 118 111 136 118 111 136 118 111 136 118 111 136 118 111 136 118 111 136 118 111 136 118 111 136 118 111 136 118 111 136 118 111 136 118 111 136 118 111 136 118 111 136 118 111 136 118 111 136 119 112 135 119 112 135 119 112 135 119 112 135 120 113 134 120 113 134 120 113 134 120 113 134 121 114 133 121 114 133 121 114 133 121 113 133 120 113 134 120 113 134 120 113 134 119 112 135 119 112 135 119 112 135 118 111 136 118 111 136 118 111 136 118 111 136 118 111 136 118 111 136 118 111 136 119 112 135 119 112 135 119 112 135 120 113 134 120 113 134 120 113 134 120 113 134 120 113 134 120 113 134 120 113 134 120 113 134 119 112 135 119 112 135 119 112 135 118 111 136 118 111 136 118 111 136 118 111 136 118 111 136 118 111 136 118 111 136 118 111 136 118 111 136 118 111 136 118 111 136 118 111 136 119 112 135 119 112 135 119 112 135 119 112 135 119 112 135 119 112 135 119 112 135 119 112 135 118 111 136 118 111 136 118 111 136 118 111 136 118 111 136 118 111 136 118 111 136 118 111 136 118 111 136 118 111 136 118 111 136 118 111 136 118 111 136 118 111 136 119 112 135 119 112 135 119 112 135 119 112 135 119 112 135 119 112 135 119 112 135 119 112 135 119 112 135 119 112 135 119 112 135 119 112 135 119 112 135 119 112 135 119 112 135 119 112 135 119 112 135 119 112 135 
118 111 136 118 111 136 118 111 136 118 111 136 118 111 136 118 111 136 118 111 136 118 111 136 118 111 136 118 111 136 118 111 136 118 111 136 118 111 136 118 111 136 118 111 136 118 111 136 118 111 136 118 111 136 118 111 136 118 111 136 118 111 136 118 111 136 118 111 136 118 111 136 118 111 136 118 111 136 118 111 136 119 112 135 119 112 135 119 112 135 119 112 135 119 112 135 119 112 135 119 112 135 119 112 135 119 112 135 119 112 135 119 112 135 119 112 135 118 111 136 118 111 136 118 111 136 118 111 136 118 111 136 118 111 136 118 111 136 118 111 136 118 111 136 118 111 136 118 111 136 119 112 135 119 112 135 119 112 135 119 112 135 119 112 135 119 112 135 119 112 135 119 112 135 118 111 136 118 111 136 118 111 136 118 111 136 118 111 136 118 111 136 118 111 136 117 111 137 117 110 137 117 110 137 117 110 137 117 110 137 117 110 137 117 111 137 118 111 136 118 111 136 118 111 136 118 111 136 118 111 136 118 111 136 118 111 136 118 111 136 118 111 136 118 111 136 118 111 136 118 111 136 118 111 136 118 111 136 118 111 136 118 111 136 118 111 136 118 111 136 118 111 136 119 112 135 119 112 135 119 112 135 120 113 134 120 113 134 120 113 134 121 113 133 121 114 133 121 114 133 121 114 133 121 114 133 121 114 133 121 113 133 120 113 134 120 113 134 119 112 135 119 112 135 119 112 135 118 111 136 118 111 136 118 111 136 118 111 136 118 111 136 118 111 136 118 111 136 119 112 135 119 112 135 119 112 135 119 112 135 120 113 134 120 113 134 120 113 134 120 113 134 120 112 134 119 112 135 119 112 135 119 112 135 119 112 135 118 111 136 118 111 136 118 111 136 118 111 136 118 111 136 118 111 136 118 111 136 118 111 136 118 111 136 118 111 136 118 111 136 118 111 136 119 112 135 119 112 135 119 112 135 119 112 135 119 112 135 119 112 135 119 112 135 119 112 135 118 111 136 118 111 136 118 111 136 118 111 136 118 111 136 118 111 136 118 111 136 118 111 136 118 111 136 118 111 136 118 111 136 118 111 136 118 111 136 118 111 136 119 112 135 119 112 135 119 112 135 119 112 135 119 112 135 119 112 135 119 112 135 119 112 135 119 112 135 119 112 135 119 112 135 119 112 135 119 112 135 119 112 135 119 112 135 119 112 135 119 112 135 119 112 135 
118 111 136 118 111 136 118 111 136 118 111 136 118 111 136 118 111 136 118 111 136 118 111 136 118 111 136 118 111 136 118 111 136 118 111 136 118 111 136 118 111 136 118 111 136 118 111 136 118 111 136 118 111 136 118 111 136 118 111 136 118 111 136 118 111 136 118 111 136 118 111 136 118 111 136 118 111 136 118 111 136 119 112 135 119 112 135 119 112 135 119 112 135 119 112 135 119 112 135 119 112 135 119 112 135 119 112 135 119 112 135 119 112 135 119 112 135 118 111 136 118 111 136 118 111 136 118 111 136 118 111 136 118 111 136 118 111 136 118 111 136 118 111 136 118 111 136 118 111 136 119 112 135 119 112 135 119 112 135 119 112 135 119 112 135 119 112 135 119 112 135 119 112 135 119 112 135 118 111 136 118 111 136 118 111 136 118 111 136 118 111 136 118 111 136 118 111 136 118 111 136 118 111 136 118 111 136 118 111 136 118 111 136 118 111 136 118 111 136 118 111 136 118 111 136 118 111 136 118 111 136 118 111 136 118 111 136 118 111 136 118 111 136 118 111 136 118 111 136 118 111 136 118 111 136 118 111 136 118 111 136 118 111 136 118 111 136 118 111 136 118 111 136 118 111 136 119 112 135 119 112 135 119 112 135 120 113 134 120 113 134 121 113 133 121 114 133 121 114 133 121 114 133 121 114 133 121 114 133 121 114 133 121 113 133 120 113 134 120 113 134 119 112 135 119 112 135 119 112 135 118 111 136 118 111 136 118 111 136 118 111 136 118 111 136 118 111 136 118 111 136 119 112 135 119 112 135 119 112 135 119 112 135 119 112 135 119 112 135 119 112 135 119 112 135 119 112 135 119 112 135 119 112 135 118 111 136 118 111 136 118 111 136 118 111 136 118 111 136 118 111 136 118 111 136 118 111 136 118 111 136 118 111 136 118 111 136 118 111 136 118 111 136 118 111 136 119 112 135 119 112 135 119 112 135 119 112 135 119 112 135 119 112 135 118 111 136 118 111 136 118 111 136 118 111 136 118 111 136 118 111 136 118 111 136 118 111 136 118 111 136 118 111 136 118 111 136 118 111 136 118 111 136 118 111 136 118 111 136 119 112 135 119 112 135 119 112 135 119 112 135 119 112 135 119 112 135 119 112 135 119 112 135 119 112 135 119 112 135 119 112 135 119 112 135 119 112 135 119 112 135 119 112 135 119 112 135 119 112 135 119 112 135 
118 111 136 118 111 136 118 111 136 118 111 136 118 111 136 118 111 136 118 111 136 118 111 136 118 111 136 118 111 136 118 111 136 118 111 136 118 111 136 118 111 136 118 111 136 118 111 136 118 111 136 118 111 136 118 111 136 118 111 136 118 111 136 118 111 136 118 111 136 118 111 136 118 111 136 118 111 136 118 111 136 119 112 135 119 112 135 119 112 135 119 112 135 119 112 135 119 112 135 119 112 135 119 112 135 119 112 135 119 112 135 119 112 135 119 112 135 118 111 136 118 111 136 118 111 136 118 111 136 118 111 136 118 111 136 118 111 136 118 111 136 118 111 136 118 111 136 118 111 136 119 112 135 119 112 135 119 112 135 119 112 135 119 112 135 119 112 135 119 112 135 119 112 135 119 112 135 118 111 136 118 111 136 118 111 136 118 111 136 118 111 136 118 111 136 118 111 136 118 111 136 118 111 136 118 111 136 118 111 136 118 111 136 118 111 136 118 111 136 118 111 136 118 111 136 118 111 136 118 111 136 118 111 136 118 111 136 118 111 136 118 111 136 118 111 136 118 111 136 118 111 136 118 111 136 118 111 136 118 111 136 118 111 136 118 111 136 118 111 136 118 111 136 118 111 136 119 112 135 119 112 135 119 112 135 120 113 134 120 113 134 120 113 134 121 114 133 121 114 133 121 114 133 121 114 133 121 114 133 121 114 133 121 113 133 120 113 134 120 113 134 120 112 134 119 112 135 119 112 135 118 111 136 118 111 136 118 111 136 118 111 136 118 111 136 118 111 136 118 111 136 118 111 136 118 111 136 119 112 135 119 112 135 119 112 135 119 112 135 119 112 135 119 112 135 119 112 135 119 112 135 118 111 136 118 111 136 118 111 136 118 111 136 118 111 136 118 111 136 118 111 136 118 111 136 118 111 136 118 111 136 118 111 136 118 111 136 118 111 136 118 111 136 118 111 136 118 111 136 119 112 135 119 112 135 119 112 135 119 112 135 118 111 136 118 111 136 118 111 136 118 111 136 118 111 136 118 111 136 118 111 136 118 111 136 118 111 136 118 111 136 118 111 136 118 111 136 118 111 136 118 111 136 118 111 136 118 111 136 119 112 135 119 112 135 119 112 135 119 112 135 119 112 135 119 112 135 119 112 135 119 112 135 119 112 135 119 112 135 119 112 135 119 112 135 119 112 135 119 112 135 119 112 135 119 112 135 119 112 135 119 112 135 
118 111 136 118 111 136 118 111 136 118 111 136 118 111 136 118 111 136 118 111 136 118 111 136 118 111 136 118 111 136 118 111 136 119 112 135 119 112 135 119 112 135 118 111 136 118 111 136 118 111 136 118 111 136 118 111 136 118 111 136 118 111 136 118 111 136 118 111 136 118 111 136 118 111 136 118 111 136 118 111 136 119 112 135 119 112 135 119 112 135 119 112 135 119 112 135 119 112 135 119 112 135 119 112 135 119 112 135 119 112 135 119 112 135 119 112 135 118 111 136 118 111 136 118 111 136 118 111 136 118 111 136 118 111 136 118 111 136 118 111 136 118 111 136 118 111 136 118 111 136 119 112 135 119 112 135 119 112 135 119 112 135 119 112 135 119 112 135 119 112 135 119 112 135 119 112 135 118 111 136 118 111 136 118 111 136 118 111 136 118 111 136 118 111 136 118 111 136 118 111 136 118 111 136 118 111 136 118 111 136 118 111 136 118 111 136 118 111 136 118 111 136 118 111 136 118 111 136 118 111 136 118 111 136 118 111 136 118 111 136 118 111 136 118 111 136 118 111 136 118 111 136 118 111 136 118 111 136 118 111 136 118 111 136 118 111 136 118 111 136 118 111 136 118 111 136 118 111 136 119 112 135 119 112 135 119 112 135 120 113 134 120 113 134 120 113 134 121 113 133 121 114 133 121 114 133 121 114 133 121 114 133 121 113 133 120 113 134 120 113 134 120 113 134 119 112 135 119 112 135 119 112 135 118 111 136 118 111 136 118 111 136 118 111 136 118 111 136 118 111 136 118 111 136 118 111 136 118 111 136 118 111 136 118 111 136 118 111 136 118 111 136 118 111 136 118 111 136 118 111 136 118 111 136 118 111 136 118 111 136 118 111 136 118 111 136 118 111 136 118 111 136 118 111 136 118 111 136 118 111 136 118 111 136 118 111 136 118 111 136 118 111 136 118 111 136 118 111 136 118 111 136 118 111 136 118 111 136 118 111 136 118 111 136 118 111 136 118 111 136 118 111 136 118 111 136 118 111 136 118 111 136 118 111 136 118 111 136 118 111 136 118 111 136 118 111 136 118 111 136 118 111 136 118 111 136 118 111 136 119 112 135 119 112 135 119 112 135 119 112 135 119 112 135 119 112 135 119 112 135 119 112 135 119 112 135 119 112 135 119 112 135 119 112 135 119 112 135 119 112 135 119 112 135 119 112 135 119 112 135 119 112 135 
118 111 136 118 111 136 118 111 136 118 111 136 118 111 136 118 111 136 118 111 136 118 111 136 118 111 136 118 111 136 119 112 135 119 112 135 119 112 135 119 112 135 118 111 136 118 111 136 118 111 136 118 111 136 118 111 136 118 111 136 118 111 136 118 111 136 118 111 136 118 111 136 118 111 136 118 111 136 118 111 136 118 111 136 119 112 135 119 112 135 119 112 135 119 112 135 119 112 135 119 112 135 119 112 135 119 112 135 119 112 135 119 112 135 119 112 135 118 111 136 118 111 136 118 111 136 118 111 136 118 111 136 118 111 136 118 111 136 118 111 136 118 111 136 118 111 136 118 111 136 118 111 136 119 112 135 119 112 135 119 112 135 119 112 135 119 112 135 119 112 135 119 112 135 119 112 135 119 112 135 118 111 136 118 111 136 118 111 136 118 111 136 118 111 136 118 111 136 118 111 136 118 111 136 118 111 136 118 111 136 118 111 136 118 111 136 118 111 136 118 111 136 118 111 136 118 111 136 118 111 136 118 111 136 118 111 136 118 111 136 118 111 136 118 111 136 118 111 136 118 111 136 118 111 136 118 111 136 118 111 136 118 111 136 118 111 136 118 111 136 118 111 136 118 111 136 118 111 136 118 111 136 119 112 135 119 112 135 119 112 135 120 112 134 120 113 134 120 113 134 120 113 134 120 113 134 120 113 134 120 113 134 120 113 134 120 113 134 120 113 134 120 112 134 119 112 135 119 112 135 119 112 135 118 111 136 118 111 136 118 111 136 118 111 136 118 111 136 118 111 136 118 111 136 118 111 136 118 111 136 118 111 136 118 111 136 118 111 136 118 111 136 118 111 136 118 111 136 118 111 136 118 111 136 118 111 136 118 111 136 118 111 136 118 111 136 118 111 136 118 111 136 118 111 136 118 111 136 118 111 136 118 111 136 118 111 136 118 111 136 118 111 136 118 111 136 118 111 136 118 111 136 118 111 136 118 111 136 118 111 136 118 111 136 118 111 136 118 111 136 118 111 136 118 111 136 118 111 136 118 111 136 118 111 136 118 111 136 118 111 136 118 111 136 118 111 136 118 111 136 118 111 136 118 111 136 118 111 136 118 111 136 119 112 135 119 112 135 119 112 135 119 112 135 119 112 135 119 112 135 119 112 135 119 112 135 119 112 135 119 112 135 119 112 135 119 112 135 119 112 135 119 112 135 119 112 135 119 112 135 118 111 136 
118 111 136 118 111 136 118 111 136 118 111 136 118 111 136 118 111 136 118 111 136 118 111 136 118 111 136 118 111 136 119 112 135 119 112 135 119 112 135 119 112 135 119 112 135 118 111 136 118 111 136 118 111 136 118 111 136 118 111 136 118 111 136 118 111 136 118 111 136 118 111 136 118 111 136 118 111 136 118 111 136 118 111 136 118 111 136 119 112 135 119 112 135 119 112 135 119 112 135 119 112 135 119 112 135 119 112 135 119 112 135 119 112 135 118 111 136 118 111 136 118 111 136 118 111 136 118 111 136 118 111 136 118 111 136 118 111 136 118 111 136 118 111 136 118 111 136 118 111 136 118 111 136 118 111 136 119 112 135 119 112 135 119 112 135 119 112 135 119 112 135 119 112 135 119 112 135 119 112 135 119 112 135 119 112 135 119 112 135 119 112 135 119 112 135 119 112 135 119 112 135 119 112 135 119 112 135 119 112 135 119 112 135 119 112 135 119 112 135 118 111 136 118 111 136 118 111 136 118 111 136 118 111 136 118 111 136 118 111 136 118 111 136 118 111 136 118 111 136 118 111 136 118 111 136 118 111 136 118 111 136 118 111 136 118 111 136 118 111 136 118 111 136 118 111 136 118 111 136 118 111 136 118 111 136 119 112 135 119 112 135 119 112 135 119 112 135 119 112 135 120 113 134 120 113 134 120 113 134 120 113 134 120 113 134 120 113 134 120 113 134 119 112 135 119 112 135 119 112 135 119 112 135 118 111 136 118 111 136 118 111 136 118 111 136 118 111 136 118 111 136 118 111 136 118 111 136 118 111 136 118 111 136 118 111 136 118 111 136 118 111 136 118 111 136 118 111 136 118 111 136 118 111 136 118 111 136 118 111 136 118 111 136 118 111 136 118 111 136 118 111 136 118 111 136 118 111 136 118 111 136 118 111 136 118 111 136 118 111 136 118 111 136 118 111 136 118 111 136 118 111 136 118 111 136 118 111 136 118 111 136 118 111 136 118 111 136 118 111 136 118 111 136 118 111 136 118 111 136 118 111 136 118 111 136 118 111 136 118 111 136 118 111 136 118 111 136 118 111 136 118 111 136 118 111 136 118 111 136 118 111 136 118 111 136 119 112 135 119 112 135 119 112 135 119 112 135 119 112 135 119 112 135 119 112 135 119 112 135 119 112 135 119 112 135 119 112 135 119 112 135 118 111 136 118 111 136 118 111 136 118 111 136 
118 111 136 118 111 136 118 111 136 118 111 136 118 111 136 118 111 136 118 111 136 118 111 136 118 111 136 118 111 136 119 112 135 119 112 135 119 112 135 119 112 135 119 112 135 118 111 136 118 111 136 118 111 136 118 111 136 118 111 136 118 111 136 118 111 136 118 111 136 118 111 136 118 111 136 118 111 136 118 111 136 118 111 136 118 111 136 118 111 136 119 112 135 119 112 135 119 112 135 119 112 135 119 112 135 119 112 135 119 112 135 118 111 136 118 111 136 118 111 136 118 111 136 118 111 136 118 111 136 118 111 136 118 111 136 118 111 136 118 111 136 118 111 136 118 111 136 118 111 136 118 111 136 118 111 136 118 111 136 118 111 136 118 111 136 118 111 136 118 111 136 118 111 136 119 112 135 119 112 135 119 112 135 119 112 135 119 112 135 119 112 135 119 112 135 119 112 135 119 112 135 119 112 135 119 112 135 119 112 135 119 112 135 119 112 135 119 112 135 119 112 135 118 111 136 118 111 136 118 111 136 118 111 136 118 111 136 118 111 136 119 112 135 119 112 135 119 112 135 119 112 135 119 112 135 119 112 135 119 112 135 119 112 135 118 111 136 118 111 136 118 111 136 118 111 136 118 111 136 118 111 136 118 111 136 118 111 136 118 111 136 118 111 136 119 112 135 119 112 135 119 112 135 119 112 135 119 112 135 119 112 135 119 112 135 119 112 135 119 112 135 119 112 135 119 112 135 119 112 135 119 112 135 118 111 136 118 111 136 118 111 136 118 111 136 118 111 136 118 111 136 118 111 136 118 111 136 118 111 136 118 111 136 118 111 136 118 111 136 118 111 136 118 111 136 118 111 136 118 111 136 118 111 136 118 111 136 118 111 136 118 111 136 118 111 136 118 111 136 118 111 136 118 111 136 118 111 136 118 111 136 118 111 136 118 111 136 118 111 136 118 111 136 118 111 136 118 111 136 118 111 136 118 111 136 118 111 136 118 111 136 118 111 136 118 111 136 118 111 136 118 111 136 118 111 136 118 111 136 118 111 136 118 111 136 118 111 136 118 111 136 118 111 136 118 111 136 118 111 136 118 111 136 118 111 136 118 111 136 118 111 136 118 111 136 118 111 136 118 111 136 119 112 135 119 112 135 119 112 135 119 112 135 119 112 135 119 112 135 118 111 136 118 111 136 118 111 136 118 111 136 118 111 136 118 111 136 118 111 136 118 111 136 
118 111 136 118 111 136 118 111 136 118 111 136 118 111 136 118 111 136 118 111 136 118 111 136 118 111 136 118 111 136 119 112 135 119 112 135 119 112 135 119 112 135 119 112 135 118 111 136 118 111 136 118 111 136 118 111 136 118 111 136 118 111 136 118 111 136 118 111 136 118 111 136 118 111 136 118 111 136 118 111 136 118 111 136 118 111 136 118 111 136 118 111 136 118 111 136 118 111 136 118 111 136 118 111 136 118 111 136 118 111 136 118 111 136 118 111 136 118 111 136 118 111 136 118 111 136 118 111 136 118 111 136 118 111 136 118 111 136 118 111 136 118 111 136 118 111 136 118 111 136 118 111 136 118 111 136 118 111 136 118 111 136 118 111 136 118 111 136 118 111 136 118 111 136 119 112 135 119 112 135 119 112 135 119 112 135 119 112 135 119 112 135 119 112 135 119 112 135 119 112 135 119 112 135 119 112 135 119 112 135 119 112 135 119 112 135 119 112 135 119 112 135 119 112 135 118 111 136 118 111 136 118 111 136 118 111 136 119 112 135 119 112 135 119 112 135 119 112 135 119 112 135 119 112 135 119 112 135 119 112 135 119 112 135 119 112 135 119 112 135 118 111 136 118 111 136 118 111 136 118 111 136 118 111 136 118 111 136 118 111 136 118 111 136 118 111 136 118 111 136 118 111 136 119 112 135 119 112 135 119 112 135 119 112 135 119 112 135 119 112 135 119 112 135 119 112 135 119 112 135 119 112 135 118 111 136 118 111 136 118 111 136 118 111 136 118 111 136 118 111 136 118 111 136 118 111 136 118 111 136 118 111 136 118 111 136 118 111 136 118 111 136 118 111 136 118 111 136 118 111 136 118 111 136 118 111 136 118 111 136 118 111 136 118 111 136 118 111 136 118 111 136 118 111 136 118 111 136 118 111 136 118 111 136 118 111 136 118 111 136 118 111 136 118 111 136 118 111 136 118 111 136 118 111 136 118 111 136 118 111 136 118 111 136 118 111 136 118 111 136 118 111 136 118 111 136 118 111 136 118 111 136 118 111 136 118 111 136 118 111 136 118 111 136 118 111 136 118 111 136 118 111 136 118 111 136 118 111 136 118 111 136 118 111 136 118 111 136 118 111 136 118 111 136 118 111 136 118 111 136 118 111 136 118 111 136 118 111 136 118 111 136 118 111 136 118 111 136 118 111 136 118 111 136 118 111 136 118 111 136 118 111 136 
118 111 136 118 111 136 118 111 136 118 111 136 118 111 136 118 111 136 118 111 136 118 111 136 118 111 136 118 111 136 119 112 135 119 112 135 119 112 135 119 112 135 119 112 135 118 111 136 118 111 136 118 111 136 118 111 136 118 111 136 118 111 136 118 111 136 118 111 136 118 111 136 118 111 136 118 111 136 118 111 136 118 111 136 118 111 136 118 111 136 118 111 136 118 111 136 118 111 136 118 111 136 118 111 136 118 111 136 118 111 136 118 111 136 118 111 136 118 111 136 118 111 136 118 111 136 118 111 136 118 111 136 118 111 136 118 111 136 118 111 136 118 111 136 118 111 136 118 111 136 118 111 136 118 111 136 118 111 136 118 111 136 118 111 136 118 111 136 118 111 136 118 111 136 118 111 136 119 112 135 119 112 135 119 112 135 119 112 135 119 112 135 119 112 135 119 112 135 120 112 134 119 112 135 119 112 135 119 112 135 119 112 135 119 112 135 119 112 135 119 112 135 118 111 136 118 111 136 118 111 136 118 111 136 118 111 136 119 112 135 119 112 135 119 112 135 119 112 135 119 112 135 119 112 135 119 112 135 119 112 135 119 112 135 119 112 135 119 112 135 119 112 135 118 111 136 118 111 136 118 111 136 118 111 136 118 111 136 118 111 136 118 111 136 118 111 136 118 111 136 118 111 136 118 111 136 118 111 136 118 111 136 118 111 136 118 111 136 119 112 135 119 112 135 119 112 135 119 112 135 118 111 136 118 111 136 118 111 136 118 111 136 118 111 136 118 111 136 118 111 136 118 111 136 118 111 136 118 111 136 118 111 136 118 111 136 118 111 136 118 111 136 118 111 136 118 111 136 118 111 136 118 111 136 118 111 136 118 111 136 118 111 136 118 111 136 118 111 136 118 111 136 118 111 136 118 111 136 118 111 136 118 111 136 118 111 136 118 111 136 118 111 136 118 111 136 118 111 136 118 111 136 118 111 136 118 111 136 118 111 136 118 111 136 118 111 136 118 111 136 118 111 136 118 111 136 118 111 136 118 111 136 118 111 136 118 111 136 118 111 136 118 111 136 118 111 136 118 111 136 118 111 136 118 111 136 118 111 136 118 111 136 118 111 136 118 111 136 118 111 136 118 111 136 118 111 136 118 111 136 118 111 136 118 111 136 118 111 136 118 111 136 118 111 136 118 111 136 118 111 136 118 111 136 118 111 136 118 111 136 118 111 136 
118 111 136 118 111 136 118 111 136 118 111 136 118 111 136 118 111 136 118 111 136 118 111 136 118 111 136 118 111 136 118 111 136 119 112 135 119 112 135 119 112 135 119 112 135 118 111 136 118 111 136 118 111 136 118 111 136 118 111 136 118 111 136 118 111 136 118 111 136 118 111 136 118 111 136 118 111 136 118 111 136 118 111 136 118 111 136 118 111 136 118 111 136 118 111 136 118 111 136 118 111 136 118 111 136 118 111 136 118 111 136 118 111 136 118 111 136 118 111 136 118 111 136 118 111 136 118 111 136 118 111 136 118 111 136 118 111 136 118 111 136 118 111 136 118 111 136 118 111 136 118 111 136 118 111 136 118 111 136 118 111 136 118 111 136 118 111 136 118 111 136 118 111 136 118 111 136 119 112 135 119 112 135 119 112 135 119 112 135 119 112 135 120 112 134 120 113 134 120 113 134 120 112 134 119 112 135 119 112 135 119 112 135 119 112 135 119 112 135 119 112 135 118 111 136 118 111 136 118 111 136 118 111 136 118 111 136 119 112 135 119 112 135 119 112 135 119 112 135 119 112 135 119 112 135 119 112 135 119 112 135 119 112 135 119 112 135 119 112 135 119 112 135 118 111 136 118 111 136 118 111 136 118 111 136 118 111 136 117 111 137 117 110 137 117 110 137 117 110 137 117 111 137 118 111 136 118 111 136 118 111 136 118 111 136 118 111 136 118 111 136 118 111 136 118 111 136 118 111 136 118 111 136 118 111 136 118 111 136 118 111 136 118 111 136 118 111 136 118 111 136 118 111 136 118 111 136 118 111 136 118 111 136 118 111 136 118 111 136 118 111 136 118 111 136 118 111 136 118 111 136 118 111 136 118 111 136 118 111 136 118 111 136 118 111 136 118 111 136 118 111 136 118 111 136 118 111 136 118 111 136 118 111 136 118 111 136 118 111 136 118 111 136 118 111 136 118 111 136 118 111 136 118 111 136 118 111 136 118 111 136 118 111 136 118 111 136 118 111 136 118 111 136 118 111 136 118 111 136 118 111 136 118 111 136 118 111 136 118 111 136 118 111 136 118 111 136 118 111 136 118 111 136 118 111 136 118 111 136 118 111 136 118 111 136 118 111 136 118 111 136 118 111 136 118 111 136 118 111 136 118 111 136 118 111 136 118 111 136 118 111 136 118 111 136 118 111 136 118 111 136 118 111 136 118 111 136 118 111 136 118 111 136 
118 111 136 118 111 136 118 111 136 118 111 136 118 111 136 118 111 136 118 111 136 118 111 136 118 111 136 118 111 136 118 111 136 118 111 136 118 111 136 118 111 136 118 111 136 118 111 136 118 111 136 118 111 136 118 111 136 118 111 136 118 111 136 118 111 136 118 111 136 118 111 136 118 111 136 118 111 136 118 111 136 118 111 136 118 111 136 118 111 136 118 111 136 118 111 136 118 111 136 118 111 136 118 111 136 118 111 136 118 111 136 118 111 136 118 111 136 118 111 136 118 111 136 118 111 136 118 111 136 118 111 136 118 111 136 118 111 136 118 111 136 118 111 136 118 111 136 118 111 136 118 111 136 118 111 136 118 111 136 118 111 136 118 111 136 118 111 136 118 111 136 118 111 136 118 111 136 119 112 135 119 112 135 119 112 135 119 112 135 119 112 135 120 112 134 120 113 134 120 113 134 120 112 134 119 112 135 119 112 135 119 112 135 119 112 135 119 112 135 118 111 136 118 111 136 118 111 136 118 111 136 118 111 136 118 111 136 119 112 135 119 112 135 119 112 135 119 112 135 119 112 135 120 113 134 120 113 134 120 113 134 120 113 134 119 112 135 119 112 135 119 112 135 119 112 135 118 111 136 118 111 136 118 111 136 118 111 136 117 110 137 117 110 137 117 110 137 117 110 137 117 110 137 117 110 137 117 110 137 117 111 137 118 111 136 118 111 136 118 111 136 118 111 136 118 111 136 118 111 136 118 111 136 118 111 136 118 111 136 119 112 135 119 112 135 119 112 135 119 112 135 119 112 135 119 112 135 119 112 135 119 112 135 119 112 135 119 112 135 119 112 135 119 112 135 119 112 135 118 111 136 118 111 136 118 111 136 118 111 136 118 111 136 118 111 136 118 111 136 118 111 136 118 111 136 118 111 136 118 111 136 118 111 136 118 111 136 118 111 136 118 111 136 118 111 136 118 111 136 118 111 136 118 111 136 118 111 136 118 111 136 118 111 136 118 111 136 118 111 136 118 111 136 118 111 136 118 111 136 118 111 136 118 111 136 118 111 136 118 111 136 118 111 136 118 111 136 118 111 136 118 111 136 118 111 136 118 111 136 118 111 136 118 111 136 118 111 136 118 111 136 118 111 136 118 111 136 118 111 136 118 111 136 118 111 136 118 111 136 118 111 136 118 111 136 118 111 136 118 111 136 118 111 136 118 111 136 118 111 136 118 111 136 
118 111 136 118 111 136 118 111 136 118 111 136 118 111 136 118 111 136 118 111 136 118 111 136 118 111 136 118 111 136 118 111 136 118 111 136 118 111 136 118 111 136 118 111 136 118 111 136 118 111 136 118 111 136 118 111 136 118 111 136 118 111 136 118 111 136 118 111 136 118 111 136 118 111 136 118 111 136 118 111 136 118 111 136 118 111 136 118 111 136 118 111 136 118 111 136 118 111 136 118 111 136 118 111 136 118 111 136 118 111 136 118 111 136 118 111 136 118 111 136 118 111 136 118 111 136 118 111 136 118 111 136 118 111 136 118 111 136 118 111 136 118 111 136 118 111 136 118 111 136 118 111 136 118 111 136 118 111 136 118 111 136 118 111 136 118 111 136 118 111 136 118 111 136 118 111 136 119 112 135 119 112 135 119 112 135 119 112 135 119 112 135 119 112 135 119 112 135 119 112 135 119 112 135 119 112 135 119 112 135 119 112 135 119 112 135 118 111 136 118 111 136 118 111 136 118 111 136 118 111 136 118 111 136 118 111 136 119 112 135 119 112 135 119 112 135 119 112 135 120 113 134 120 113 134 120 113 134 120 113 134 120 113 134 120 113 134 119 112 135 119 112 135 119 112 135 119 112 135 118 111 136 118 111 136 118 111 136 118 111 136 117 110 137 117 110 137 117 110 137 117 110 137 117 110 137 117 110 137 117 110 137 117 110 137 117 111 137 118 111 136 118 111 136 118 111 136 118 111 136 118 111 136 118 111 136 118 111 136 119 112 135 119 112 135 119 112 135 119 112 135 119 112 135 119 112 135 119 112 135 119 112 135 119 112 135 119 112 135 119 112 135 119 112 135 119 112 135 119 112 135 118 111 136 118 111 136 118 111 136 118 111 136 118 111 136 118 111 136 118 111 136 118 111 136 118 111 136 118 111 136 118 111 136 118 111 136 118 111 136 118 111 136 118 111 136 118 111 136 118 111 136 118 111 136 118 111 136 118 111 136 118 111 136 118 111 136 118 111 136 118 111 136 118 111 136 118 111 136 118 111 136 118 111 136 118 111 136 118 111 136 118 111 136 118 111 136 118 111 136 118 111 136 118 111 136 118 111 136 118 111 136 118 111 136 118 111 136 118 111 136 118 111 136 118 111 136 118 111 136 118 111 136 118 111 136 118 111 136 118 111 136 118 111 136 118 111 136 118 111 136 118 111 136 118 111 136 118 111 136 118 111 136 
118 111 136 118 111 136 118 111 136 118 111 136 118 111 136 118 111 136 118 111 136 118 111 136 118 111 136 118 111 136 118 111 136 118 111 136 118 111 136 118 111 136 118 111 136 118 111 136 118 111 136 118 111 136 118 111 136 118 111 136 118 111 136 118 111 136 118 111 136 118 111 136 118 111 136 118 111 136 118 111 136 118 111 136 118 111 136 118 111 136 118 111 136 118 111 136 118 111 136 118 111 136 118 111 136 118 111 136 118 111 136 118 111 136 118 111 136 118 111 136 118 111 136 118 111 136 118 111 136 118 111 136 118 111 136 118 111 136 118 111 136 118 111 136 118 111 136 118 111 136 118 111 136 118 111 136 118 111 136 118 111 136 118 111 136 118 111 136 118 111 136 118 111 136 118 111 136 119 112 135 119 112 135 119 112 135 119 112 135 119 112 135 119 112 135 119 112 135 119 112 135 119 112 135 119 112 135 119 112 135 119 112 135 118 111 136 118 111 136 118 111 136 118 111 136 118 111 136 118 111 136 118 111 136 118 111 136 119 112 135 119 112 135 119 112 135 119 112 135 120 113 134 120 113 134 120 113 134 120 113 134 120 113 134 120 113 134 120 113 134 119 112 135 119 112 135 119 112 135 119 112 135 118 111 136 118 111 136 118 111 136 118 111 136 117 111 137 117 110 137 117 110 137 117 110 137 117 110 137 117 110 137 117 110 137 117 110 137 117 110 137 118 111 136 118 111 136 118 111 136 118 111 136 118 111 136 118 111 136 119 112 135 119 112 135 119 112 135 119 112 135 119 112 135 119 112 135 120 112 134 120 112 134 120 112 134 119 112 135 119 112 135 119 112 135 119 112 135 119 112 135 119 112 135 118 111 136 118 111 136 118 111 136 118 111 136 118 111 136 118 111 136 118 111 136 118 111 136 118 111 136 118 111 136 118 111 136 118 111 136 118 111 136 118 111 136 118 111 136 118 111 136 118 111 136 118 111 136 118 111 136 118 111 136 118 111 136 118 111 136 118 111 136 118 111 136 118 111 136 118 111 136 118 111 136 118 111 136 118 111 136 118 111 136 118 111 136 118 111 136 118 111 136 118 111 136 118 111 136 118 111 136 118 111 136 118 111 136 118 111 136 118 111 136 118 111 136 118 111 136 118 111 136 118 111 136 118 111 136 118 111 136 118 111 136 118 111 136 118 111 136 118 111 136 118 111 136 118 111 136 118 111 136 
118 111 136 118 111 136 118 111 136 118 111 136 118 111 136 118 111 136 118 111 136 118 111 136 118 111 136 118 111 136 118 111 136 118 111 136 118 111 136 118 111 136 118 111 136 118 111 136 118 111 136 118 111 136 118 111 136 118 111 136 118 111 136 118 111 136 118 111 136 118 111 136 118 111 136 118 111 136 118 111 136 118 111 136 118 111 136 118 111 136 118 111 136 118 111 136 118 111 136 118 111 136 118 111 136 118 111 136 118 111 136 118 111 136 118 111 136 118 111 136 118 111 136 118 111 136 118 111 136 118 111 136 118 111 136 118 111 136 118 111 136 118 111 136 118 111 136 118 111 136 118 111 136 118 111 136 118 111 136 118 111 136 118 111 136 118 111 136 118 111 136 118 111 136 119 112 135 119 112 135 119 112 135 119 112 135 119 112 135 119 112 135 119 112 135 119 112 135 119 112 135 119 112 135 119 112 135 118 111 136 118 111 136 118 111 136 118 111 136 118 111 136 118 111 136 118 111 136 118 111 136 118 111 136 118 111 136 118 111 136 119 112 135 119 112 135 119 112 135 120 113 134 120 113 134 120 113 134 120 113 134 120 113 134 120 113 134 120 113 134 119 112 135 119 112 135 119 112 135 119 112 135 119 112 135 118 111 136 118 111 136 118 111 136 118 111 136 118 111 136 118 111 136 118 111 136 117 111 137 117 110 137 117 110 137 117 110 137 117 110 137 117 111 137 118 111 136 118 111 136 118 111 136 118 111 136 118 111 136 119 112 135 119 112 135 119 112 135 119 112 135 120 112 134 120 113 134 120 113 134 120 113 134 120 113 134 120 113 134 120 113 134 119 112 135 119 112 135 119 112 135 119 112 135 119 112 135 118 111 136 118 111 136 118 111 136 118 111 136 118 111 136 118 111 136 118 111 136 118 111 136 118 111 136 118 111 136 118 111 136 118 111 136 118 111 136 118 111 136 118 111 136 118 111 136 118 111 136 118 111 136 118 111 136 118 111 136 118 111 136 118 111 136 118 111 136 118 111 136 118 111 136 118 111 136 118 111 136 118 111 136 118 111 136 118 111 136 118 111 136 118 111 136 118 111 136 118 111 136 118 111 136 118 111 136 118 111 136 118 111 136 118 111 136 118 111 136 118 111 136 118 111 136 118 111 136 118 111 136 118 111 136 118 111 136 118 111 136 118 111 136 118 111 136 118 111 136 118 111 136 118 111 136 
118 111 136 118 111 136 118 111 136 118 111 136 118 111 136 118 111 136 118 111 136 118 111 136 118 111 136 118 111 136 118 111 136 118 111 136 118 111 136 118 111 136 118 111 136 118 111 136 118 111 136 118 111 136 118 111 136 118 111 136 118 111 136 118 111 136 118 111 136 118 111 136 118 111 136 118 111 136 118 111 136 118 111 136 118 111 136 118 111 136 118 111 136 118 111 136 118 111 136 118 111 136 118 111 136 118 111 136 118 111 136 118 111 136 118 111 136 118 111 136 118 111 136 118 111 136 118 111 136 118 111 136 118 111 136 118 111 136 118 111 136 118 111 136 118 111 136 118 111 136 118 111 136 118 111 136 118 111 136 118 111 136 118 111 136 118 111 136 118 111 136 118 111 136 119 112 135 119 112 135 119 112 135 119 112 135 119 112 135 119 112 135 119 112 135 119 112 135 119 112 135 119 112 135 118 111 136 118 111 136 118 111 136 118 111 136 118 111 136 118 111 136 118 111 136 118 111 136 118 111 136 118 111 136 118 111 136 118 111 136 119 112 135 119 112 135 119 112 135 120 112 134 120 113 134 120 113 134 120 113 134 120 113 134 120 113 134 120 113 134 120 113 134 119 112 135 119 112 135 119 112 135 119 112 135 119 112 135 119 112 135 118 111 136 118 111 136 118 111 136 118 111 136 118 111 136 118 111 136 118 111 136 118 111 136 118 111 136 117 111 137 117 111 137 118 111 136 118 111 136 118 111 136 118 111 136 118 111 136 119 112 135 119 112 135 119 112 135 119 112 135 120 113 134 120 113 134 120 113 134 120 113 134 120 113 134 120 113 134 120 113 134 120 113 134 119 112 135 119 112 135 119 112 135 119 112 135 118 111 136 118 111 136 118 111 136 118 111 136 118 111 136 118 111 136 118 111 136 118 111 136 118 111 136 118 111 136 118 111 136 118 111 136 118 111 136 118 111 136 118 111 136 118 111 136 118 111 136 118 111 136 118 111 136 118 111 136 118 111 136 118 111 136 118 111 136 118 111 136 118 111 136 118 111 136 118 111 136 118 111 136 118 111 136 118 111 136 118 111 136 118 111 136 118 111 136 118 111 136 118 111 136 118 111 136 118 111 136 118 111 136 118 111 136 118 111 136 118 111 136 118 111 136 118 111 136 118 111 136 118 111 136 118 111 136 118 111 136 118 111 136 118 111 136 118 111 136 118 111 136 118 111 136 
118 111 136 118 111 136 118 111 136 118 111 136 118 111 136 118 111 136 118 111 136 118 111 136 118 111 136 118 111 136 118 111 136 118 111 136 118 111 136 118 111 136 118 111 136 118 111 136 118 111 136 118 111 136 118 111 136 118 111 136 118 111 136 118 111 136 118 111 136 118 111 136 118 111 136 118 111 136 118 111 136 118 111 136 118 111 136 118 111 136 118 111 136 118 111 136 118 111 136 118 111 136 118 111 136 118 111 136 118 111 136 118 111 136 118 111 136 118 111 136 118 111 136 118 111 136 118 111 136 118 111 136 118 111 136 118 111 136 118 111 136 118 111 136 118 111 136 118 111 136 118 111 136 118 111 136 118 111 136 118 111 136 118 111 136 118 111 136 118 111 136 118 111 136 119 112 135 119 112 135 119 112 135 119 112 135 119 112 135 119 112 135 119 112 135 119 112 135 118 111 136 118 111 136 118 111 136 118 111 136 118 111 136 118 111 136 118 111 136 117 111 137 117 111 137 118 111 136 118 111 136 118 111 136 118 111 136 118 111 136 119 112 135 119 112 135 119 112 135 119 112 135 120 112 134 120 113 134 120 113 134 120 113 134 120 113 134 120 113 134 120 113 134 120 112 134 119 112 135 119 112 135 119 112 135 119 112 135 119 112 135 119 112 135 119 112 135 119 112 135 119 112 135 118 111 136 118 111 136 118 111 136 118 111 136 118 111 136 118 111 136 118 111 136 118 111 136 118 111 136 118 111 136 118 111 136 118 111 136 119 112 135 119 112 135 119 112 135 119 112 135 120 113 134 120 113 134 120 113 134 120 113 134 120 113 134 120 113 134 120 113 134 120 113 134 120 113 134 119 112 135 119 112 135 119 112 135 118 111 136 118 111 136 118 111 136 118 111 136 118 111 136 118 111 136 118 111 136 118 111 136 118 111 136 118 111 136 118 111 136 118 111 136 118 111 136 118 111 136 118 111 136 118 111 136 118 111 136 118 111 136 118 111 136 118 111 136 118 111 136 118 111 136 118 111 136 118 111 136 118 111 136 118 111 136 118 111 136 118 111 136 118 111 136 118 111 136 118 111 136 118 111 136 118 111 136 118 111 136 118 111 136 118 111 136 118 111 136 118 111 136 118 111 136 118 111 136 118 111 136 118 111 136 118 111 136 118 111 136 118 111 136 119 112 135 119 112 135 119 112 135 119 112 135 119 112 135 119 112 135 119 112 135 
118 111 136 118 111 136 118 111 136 118 111 136 118 111 136 118 111 136 118 111 136 118 111 136 118 111 136 118 111 136 118 111 136 118 111 136 118 111 136 118 111 136 118 111 136 118 111 136 118 111 136 118 111 136 118 111 136 118 111 136 118 111 136 118 111 136 118 111 136 118 111 136 119 112 135 119 112 135 119 112 135 119 112 135 119 112 135 119 112 135 119 112 135 119 112 135 118 111 136 118 111 136 118 111 136 118 111 136 118 111 136 118 111 136 118 111 136 118 111 136 118 111 136 118 111 136 118 111 136 118 111 136 118 111 136 118 111 136 118 111 136 118 111 136 118 111 136 118 111 136 118 111 136 118 111 136 118 111 136 118 111 136 118 111 136 118 111 136 118 111 136 119 112 135 119 112 135 119 112 135 119 112 135 119 112 135 119 112 135 119 112 135 118 111 136 118 111 136 118 111 136 118 111 136 118 111 136 118 111 136 118 111 136 117 110 137 117 110 137 117 110 137 117 110 137 118 111 136 118 111 136 118 111 136 118 111 136 118 111 136 119 112 135 119 112 135 119 112 135 119 112 135 119 112 135 119 112 135 120 113 134 120 113 134 120 113 134 120 113 134 120 113 134 120 112 134 120 112 134 120 112 134 119 112 135 119 112 135 119 112 135 119 112 135 119 112 135 119 112 135 119 112 135 119 112 135 119 112 135 118 111 136 118 111 136 118 111 136 118 111 136 118 111 136 118 111 136 118 111 136 118 111 136 118 111 136 118 111 136 118 111 136 119 112 135 119 112 135 119 112 135 120 113 134 120 113 134 120 113 134 120 113 134 120 113 134 120 113 134 120 113 134 120 113 134 120 113 134 119 112 135 119 112 135 119 112 135 119 112 135 118 111 136 118 111 136 118 111 136 118 111 136 118 111 136 118 111 136 118 111 136 118 111 136 118 111 136 118 111 136 118 111 136 118 111 136 118 111 136 118 111 136 118 111 136 119 112 135 119 112 135 119 112 135 118 111 136 118 111 136 118 111 136 118 111 136 118 111 136 118 111 136 118 111 136 118 111 136 118 111 136 118 111 136 118 111 136 118 111 136 118 111 136 118 111 136 118 111 136 118 111 136 118 111 136 118 111 136 118 111 136 118 111 136 118 111 136 118 111 136 118 111 136 119 112 135 119 112 135 119 112 135 119 112 135 119 112 135 119 112 135 119 112 135 119 112 135 119 112 135 119 112 135 
118 111 136 118 111 136 118 111 136 118 111 136 118 111 136 118 111 136 118 111 136 118 111 136 118 111 136 118 111 136 118 111 136 118 111 136 118 111 136 118 111 136 118 111 136 118 111 136 118 111 136 118 111 136 118 111 136 118 111 136 118 111 136 118 111 136 119 112 135 119 112 135 119 112 135 119 112 135 119 112 135 119 112 135 119 112 135 119 112 135 119 112 135 119 112 135 119 112 135 119 112 135 119 112 135 118 111 136 118 111 136 118 111 136 118 111 136 118 111 136 118 111 136 118 111 136 118 111 136 118 111 136 118 111 136 118 111 136 118 111 136 118 111 136 118 111 136 118 111 136 118 111 136 118 111 136 118 111 136 118 111 136 118 111 136 118 111 136 119 112 135 119 112 135 119 112 135 119 112 135 119 112 135 119 112 135 118 111 136 118 111 136 118 111 136 118 111 136 118 111 136 118 111 136 118 111 136 117 111 137 117 110 137 117 110 137 117 110 137 117 110 137 117 110 137 117 111 137 118 111 136 118 111 136 118 111 136 118 111 136 118 111 136 119 112 135 119 112 135 119 112 135 119 112 135 119 112 135 119 112 135 119 112 135 119 112 135 119 112 135 120 112 134 120 112 134 120 113 134 120 113 134 120 113 134 120 113 134 120 113 134 120 113 134 120 113 134 120 113 134 119 112 135 119 112 135 119 112 135 119 112 135 119 112 135 118 111 136 118 111 136 118 111 136 118 111 136 118 111 136 118 111 136 118 111 136 118 111 136 118 111 136 119 112 135 119 112 135 119 112 135 120 113 134 120 113 134 120 113 134 120 113 134 120 113 134 120 113 134 120 113 134 120 113 134 120 113 134 119 112 135 119 112 135 119 112 135 119 112 135 118 111 136 118 111 136 118 111 136 118 111 136 118 111 136 118 111 136 118 111 136 118 111 136 118 111 136 118 111 136 118 111 136 118 111 136 118 111 136 119 112 135 119 112 135 119 112 135 119 112 135 119 112 135 119 112 135 119 112 135 118 111 136 118 111 136 118 111 136 118 111 136 118 111 136 118 111 136 118 111 136 118 111 136 118 111 136 118 111 136 118 111 136 118 111 136 118 111 136 118 111 136 118 111 136 118 111 136 118 111 136 118 111 136 118 111 136 118 111 136 119 112 135 119 112 135 119 112 135 119 112 135 119 112 135 119 112 135 119 112 135 119 112 135 119 112 135 119 112 135 119 112 135 
118 111 136 118 111 136 118 111 136 118 111 136 118 111 136 118 111 136 118 111 136 118 111 136 118 111 136 118 111 136 118 111 136 118 111 136 118 111 136 118 111 136 118 111 136 118 111 136 118 111 136 118 111 136 118 111 136 118 111 136 118 111 136 118 111 136 119 112 135 119 112 135 119 112 135 119 112 135 119 112 135 119 112 135 119 112 135 119 112 135 119 112 135 119 112 135 119 112 135 119 112 135 119 112 135 119 112 135 118 111 136 118 111 136 118 111 136 118 111 136 118 111 136 118 111 136 118 111 136 118 111 136 118 111 136 118 111 136 118 111 136 118 111 136 118 111 136 118 111 136 118 111 136 118 111 136 118 111 136 118 111 136 118 111 136 119 112 135 119 112 135 119 112 135 119 112 135 119 112 135 119 112 135 118 111 136 118 111 136 118 111 136 118 111 136 118 111 136 118 111 136 118 111 136 117 111 137 117 110 137 117 110 137 117 110 137 117 110 137 117 110 137 117 110 137 118 111 136 118 111 136 118 111 136 118 111 136 118 111 136 118 111 136 119 112 135 119 112 135 119 112 135 119 112 135 119 112 135 119 112 135 119 112 135 119 112 135 119 112 135 119 112 135 119 112 135 120 113 134 120 113 134 120 113 134 120 113 134 120 113 134 120 113 134 120 113 134 120 113 134 120 113 134 120 113 134 119 112 135 119 112 135 119 112 135 119 112 135 118 111 136 118 111 136 118 111 136 118 111 136 118 111 136 118 111 136 118 111 136 118 111 136 119 112 135 119 112 135 119 112 135 119 112 135 120 113 134 120 113 134 120 113 134 120 113 134 120 113 134 120 113 134 120 113 134 120 113 134 119 112 135 119 112 135 119 112 135 118 111 136 118 111 136 118 111 136 118 111 136 118 111 136 118 111 136 118 111 136 118 111 136 118 111 136 118 111 136 118 111 136 118 111 136 118 111 136 119 112 135 119 112 135 119 112 135 119 112 135 119 112 135 119 112 135 119 112 135 119 112 135 119 112 135 118 111 136 118 111 136 118 111 136 118 111 136 118 111 136 118 111 136 118 111 136 118 111 136 118 111 136 118 111 136 118 111 136 118 111 136 118 111 136 118 111 136 118 111 136 118 111 136 118 111 136 118 111 136 119 112 135 119 112 135 119 112 135 119 112 135 119 112 135 119 112 135 119 112 135 119 112 135 119 112 135 119 112 135 119 112 135 119 112 135 
118 111 136 118 111 136 118 111 136 118 111 136 118 111 136 118 111 136 118 111 136 118 111 136 118 111 136 118 111 136 118 111 136 118 111 136 118 111 136 118 111 136 118 111 136 118 111 136 118 111 136 118 111 136 118 111 136 118 111 136 118 111 136 118 111 136 119 112 135 119 112 135 119 112 135 119 112 135 119 112 135 119 112 135 119 112 135 119 112 135 119 112 135 119 112 135 119 112 135 119 112 135 119 112 135 119 112 135 119 112 135 118 111 136 118 111 136 118 111 136 118 111 136 118 111 136 118 111 136 118 111 136 118 111 136 118 111 136 118 111 136 118 111 136 118 111 136 118 111 136 118 111 136 118 111 136 118 111 136 118 111 136 119 112 135 119 112 135 119 112 135 119 112 135 119 112 135 119 112 135 118 111 136 118 111 136 118 111 136 118 111 136 118 111 136 118 111 136 118 111 136 117 111 137 117 110 137 117 110 137 117 110 137 117 110 137 117 110 137 117 110 137 117 110 137 118 111 136 118 111 136 118 111 136 118 111 136 118 111 136 118 111 136 118 111 136 119 112 135 119 112 135 119 112 135 119 112 135 119 112 135 119 112 135 119 112 135 119 112 135 119 112 135 119 112 135 119 112 135 120 113 134 120 113 134 120 113 134 120 113 134 120 113 134 120 113 134 120 113 134 120 113 134 120 113 134 120 113 134 119 112 135 119 112 135 119 112 135 119 112 135 118 111 136 118 111 136 118 111 136 118 111 136 118 111 136 118 111 136 118 111 136 118 111 136 119 112 135 119 112 135 119 112 135 120 113 134 120 113 134 120 113 134 120 113 134 120 113 134 120 113 134 120 113 134 120 112 134 119 112 135 119 112 135 119 112 135 118 111 136 118 111 136 118 111 136 118 111 136 118 111 136 118 111 136 118 111 136 118 111 136 118 111 136 118 111 136 118 111 136 118 111 136 118 111 136 119 112 135 119 112 135 119 112 135 119 112 135 119 112 135 119 112 135 119 112 135 119 112 135 119 112 135 119 112 135 118 111 136 118 111 136 118 111 136 118 111 136 118 111 136 118 111 136 118 111 136 118 111 136 118 111 136 118 111 136 118 111 136 118 111 136 118 111 136 118 111 136 118 111 136 118 111 136 118 111 136 119 112 135 119 112 135 119 112 135 119 112 135 119 112 135 119 112 135 119 112 135 119 112 135 119 112 135 119 112 135 119 112 135 119 112 135 
118 111 136 118 111 136 118 111 136 118 111 136 118 111 136 118 111 136 118 111 136 118 111 136 118 111 136 118 111 136 118 111 136 118 111 136 118 111 136 118 111 136 118 111 136 118 111 136 118 111 136 118 111 136 118 111 136 118 111 136 118 111 136 118 111 136 119 112 135 119 112 135 119 112 135 119 112 135 119 112 135 119 112 135 119 112 135 119 112 135 119 112 135 119 112 135 119 112 135 119 112 135 119 112 135 119 112 135 119 112 135 119 112 135 118 111 136 118 111 136 118 111 136 118 111 136 118 111 136 118 111 136 118 111 136 118 111 136 118 111 136 118 111 136 118 111 136 118 111 136 118 111 136 118 111 136 118 111 136 118 111 136 119 112 135 119 112 135 119 112 135 119 112 135 119 112 135 118 111 136 118 111 136 118 111 136 118 111 136 118 111 136 118 111 136 118 111 136 118 111 136 117 111 137 117 110 137 117 110 137 117 110 137 117 110 137 117 110 137 117 110 137 117 111 137 118 111 136 118 111 136 118 111 136 118 111 136 118 111 136 118 111 136 118 111 136 118 111 136 118 111 136 119 112 135 119 112 135 119 112 135 119 112 135 119 112 135 119 112 135 119 112 135 119 112 135 119 112 135 120 112 134 120 113 134 120 113 134 120 113 134 120 113 134 120 113 134 120 113 134 120 113 134 120 113 134 120 113 134 120 113 134 119 112 135 119 112 135 119 112 135 118 111 136 118 111 136 118 111 136 118 111 136 118 111 136 118 111 136 118 111 136 118 111 136 119 112 135 119 112 135 119 112 135 119 112 135 120 112 134 120 113 134 120 113 134 120 113 134 120 113 134 120 113 134 119 112 135 119 112 135 119 112 135 119 112 135 118 111 136 118 111 136 118 111 136 118 111 136 118 111 136 118 111 136 118 111 136 118 111 136 118 111 136 118 111 136 118 111 136 118 111 136 118 111 136 119 112 135 119 112 135 119 112 135 119 112 135 119 112 135 119 112 135 119 112 135 119 112 135 119 112 135 119 112 135 119 112 135 118 111 136 118 111 136 118 111 136 118 111 136 118 111 136 118 111 136 118 111 136 118 111 136 118 111 136 118 111 136 118 111 136 118 111 136 118 111 136 118 111 136 118 111 136 119 112 135 119 112 135 119 112 135 119 112 135 119 112 135 119 112 135 119 112 135 119 112 135 119 112 135 119 112 135 119 112 135 119 112 135 119 112 135 
